<?xml version="1.0" encoding="UTF-8"?>
<map version="1.10" tiledversion="1.12.1" orientation="orthogonal" renderorder="right-down" width="120" height="80" tilewidth="16" tileheight="16" infinite="0" nextlayerid="6" nextobjectid="1">
 <tileset firstgid="1" source="Workbench.tsx"/>
 <tileset firstgid="265" name="tent_xoa_bg" tilewidth="16" tileheight="16" tilecount="6144" columns="96">
  <image source="../tent_xoa_bg.png" width="1536" height="1024"/>
  <tile id="1058">
   <properties>
    <property name="a" value="on"/>
   </properties>
  </tile>
  <tile id="2549">
   <properties>
    <property name="Tree" value="on"/>
   </properties>
  </tile>
  <tile id="2550">
   <properties>
    <property name="Tree" value="on"/>
   </properties>
  </tile>
  <tile id="2551">
   <properties>
    <property name="Tree" value="on"/>
   </properties>
  </tile>
  <tile id="2552">
   <properties>
    <property name="Tree" value="on"/>
   </properties>
  </tile>
  <tile id="2645">
   <properties>
    <property name="Tree" value="on"/>
   </properties>
  </tile>
  <tile id="2646">
   <properties>
    <property name="Tree" value="on"/>
   </properties>
  </tile>
  <tile id="2647">
   <properties>
    <property name="Tree" value="on"/>
   </properties>
  </tile>
  <tile id="2648">
   <properties>
    <property name="Tree" value="on"/>
   </properties>
  </tile>
  <tile id="2651">
   <properties>
    <property name="Tree" value="on"/>
   </properties>
  </tile>
  <tile id="2652">
   <properties>
    <property name="Tree" value="on"/>
   </properties>
  </tile>
  <tile id="2653">
   <properties>
    <property name="Tree" value="on"/>
   </properties>
  </tile>
  <tile id="2741">
   <properties>
    <property name="Tree" value="on"/>
   </properties>
  </tile>
  <tile id="2742">
   <properties>
    <property name="Tree" value="on"/>
   </properties>
  </tile>
  <tile id="2743">
   <properties>
    <property name="Tree" value="on"/>
   </properties>
  </tile>
  <tile id="2744">
   <properties>
    <property name="Tree" value="on"/>
   </properties>
  </tile>
  <tile id="2747">
   <properties>
    <property name="Tree" value="on"/>
   </properties>
  </tile>
  <tile id="2748">
   <properties>
    <property name="Tree" value="on"/>
   </properties>
  </tile>
  <tile id="2749">
   <properties>
    <property name="Tree" value="on"/>
   </properties>
  </tile>
  <tile id="2837">
   <properties>
    <property name="Tree" value="on"/>
   </properties>
  </tile>
  <tile id="2838">
   <properties>
    <property name="Tree" value="on"/>
   </properties>
  </tile>
  <tile id="2839">
   <properties>
    <property name="Tree" value="on"/>
   </properties>
  </tile>
  <tile id="2840">
   <properties>
    <property name="Tree" value="on"/>
   </properties>
  </tile>
  <tile id="2843">
   <properties>
    <property name="Tree" value="on"/>
   </properties>
  </tile>
  <tile id="2844">
   <properties>
    <property name="Tree" value="on"/>
   </properties>
  </tile>
  <tile id="2845">
   <properties>
    <property name="Tree" value="on"/>
   </properties>
  </tile>
  <tile id="2933">
   <properties>
    <property name="Tree" value="on"/>
   </properties>
  </tile>
  <tile id="2934">
   <properties>
    <property name="Collision" value="on"/>
    <property name="Hp_tree" type="int" value="6"/>
    <property name="Tree" value="on"/>
   </properties>
  </tile>
  <tile id="2935">
   <properties>
    <property name="Collision" value="on"/>
    <property name="Hp_tree" type="int" value="6"/>
    <property name="Tree" value="on"/>
   </properties>
  </tile>
  <tile id="2936">
   <properties>
    <property name="Tree" value="on"/>
   </properties>
  </tile>
  <tile id="2939">
   <properties>
    <property name="Tree" value="on"/>
   </properties>
  </tile>
  <tile id="2940">
   <properties>
    <property name="Collision" value="on"/>
    <property name="Hp_tree" type="int" value="4"/>
    <property name="Tree" value="on"/>
   </properties>
  </tile>
  <tile id="2941">
   <properties>
    <property name="Collision" value="on"/>
    <property name="Hp_tree" type="int" value="4"/>
    <property name="Tree" value="on"/>
   </properties>
  </tile>
  <tile id="3360">
   <properties>
    <property name="Collision" value="on"/>
   </properties>
  </tile>
  <tile id="3361">
   <properties>
    <property name="BaseCamp" value="on"/>
   </properties>
  </tile>
  <tile id="3362">
   <properties>
    <property name="BaseCamp" value="on"/>
   </properties>
  </tile>
  <tile id="3363">
   <properties>
    <property name="BaseCamp" value="on"/>
   </properties>
  </tile>
  <tile id="3364">
   <properties>
    <property name="BaseCamp" value="on"/>
   </properties>
  </tile>
  <tile id="3365">
   <properties>
    <property name="BaseCamp" value="on"/>
   </properties>
  </tile>
  <tile id="3366">
   <properties>
    <property name="BaseCamp" value="on"/>
   </properties>
  </tile>
  <tile id="3367">
   <properties>
    <property name="BaseCamp" value="on"/>
   </properties>
  </tile>
  <tile id="3368">
   <properties>
    <property name="BaseCamp" value="on"/>
   </properties>
  </tile>
  <tile id="3369">
   <properties>
    <property name="Collision" value="on"/>
   </properties>
  </tile>
  <tile id="3456">
   <properties>
    <property name="Collision" value="on"/>
   </properties>
  </tile>
  <tile id="3457">
   <properties>
    <property name="BaseCamp" value="on"/>
   </properties>
  </tile>
  <tile id="3458">
   <properties>
    <property name="BaseCamp" value="on"/>
   </properties>
  </tile>
  <tile id="3459">
   <properties>
    <property name="BaseCamp" value="on"/>
   </properties>
  </tile>
  <tile id="3460">
   <properties>
    <property name="BaseCamp" value="on"/>
   </properties>
  </tile>
  <tile id="3461">
   <properties>
    <property name="BaseCamp" value="on"/>
   </properties>
  </tile>
  <tile id="3462">
   <properties>
    <property name="BaseCamp" value="on"/>
   </properties>
  </tile>
  <tile id="3463">
   <properties>
    <property name="BaseCamp" value="on"/>
   </properties>
  </tile>
  <tile id="3464">
   <properties>
    <property name="BaseCamp" value="on"/>
   </properties>
  </tile>
  <tile id="3465">
   <properties>
    <property name="Collision" value="on"/>
   </properties>
  </tile>
  <tile id="3470">
   <properties>
    <property name="Hp_tent" type="int" value="100"/>
   </properties>
  </tile>
  <tile id="3471">
   <properties>
    <property name="Hp_tent" type="int" value="100"/>
   </properties>
  </tile>
  <tile id="3472">
   <properties>
    <property name="Hp_tent" type="int" value="100"/>
   </properties>
  </tile>
  <tile id="3552">
   <properties>
    <property name="Collision" value="on"/>
   </properties>
  </tile>
  <tile id="3553">
   <properties>
    <property name="BaseCamp" value="on"/>
   </properties>
  </tile>
  <tile id="3554">
   <properties>
    <property name="BaseCamp" value="on"/>
   </properties>
  </tile>
  <tile id="3555">
   <properties>
    <property name="BaseCamp" value="on"/>
   </properties>
  </tile>
  <tile id="3556">
   <properties>
    <property name="BaseCamp" value="on"/>
   </properties>
  </tile>
  <tile id="3557">
   <properties>
    <property name="BaseCamp" value="on"/>
   </properties>
  </tile>
  <tile id="3558">
   <properties>
    <property name="BaseCamp" value="on"/>
   </properties>
  </tile>
  <tile id="3559">
   <properties>
    <property name="BaseCamp" value="on"/>
   </properties>
  </tile>
  <tile id="3560">
   <properties>
    <property name="BaseCamp" value="on"/>
   </properties>
  </tile>
  <tile id="3561">
   <properties>
    <property name="Collision" value="on"/>
   </properties>
  </tile>
  <tile id="3565">
   <properties>
    <property name="Hp_tent" type="int" value="100"/>
   </properties>
  </tile>
  <tile id="3566">
   <properties>
    <property name="Hp_tent" type="int" value="100"/>
   </properties>
  </tile>
  <tile id="3567">
   <properties>
    <property name="Hp_tent" type="int" value="100"/>
   </properties>
  </tile>
  <tile id="3568">
   <properties>
    <property name="Hp_tent" type="int" value="100"/>
   </properties>
  </tile>
  <tile id="3569">
   <properties>
    <property name="Hp_tent" type="int" value="100"/>
   </properties>
  </tile>
  <tile id="3579">
   <properties>
    <property name="Hp_tent" type="int" value="100"/>
   </properties>
  </tile>
  <tile id="3580">
   <properties>
    <property name="Hp_tent" type="int" value="100"/>
   </properties>
  </tile>
  <tile id="3648">
   <properties>
    <property name="Collision" value="on"/>
   </properties>
  </tile>
  <tile id="3649">
   <properties>
    <property name="BaseCamp" value="on"/>
   </properties>
  </tile>
  <tile id="3650">
   <properties>
    <property name="BaseCamp" value="on"/>
    <property name="Collision" value="on"/>
   </properties>
  </tile>
  <tile id="3651">
   <properties>
    <property name="BaseCamp" value="on"/>
    <property name="Collision" value="on"/>
   </properties>
  </tile>
  <tile id="3652">
   <properties>
    <property name="BaseCamp" value="on"/>
    <property name="Collision" value="on"/>
   </properties>
  </tile>
  <tile id="3653">
   <properties>
    <property name="BaseCamp" value="on"/>
    <property name="Collision" value="on"/>
   </properties>
  </tile>
  <tile id="3654">
   <properties>
    <property name="BaseCamp" value="on"/>
    <property name="Collision" value="on"/>
   </properties>
  </tile>
  <tile id="3655">
   <properties>
    <property name="BaseCamp" value="on"/>
    <property name="Collision" value="on"/>
   </properties>
  </tile>
  <tile id="3656">
   <properties>
    <property name="BaseCamp" value="on"/>
   </properties>
  </tile>
  <tile id="3657">
   <properties>
    <property name="Collision" value="on"/>
   </properties>
  </tile>
  <tile id="3660">
   <properties>
    <property name="Hp_tent" type="int" value="100"/>
   </properties>
  </tile>
  <tile id="3661">
   <properties>
    <property name="Hp_tent" type="int" value="100"/>
   </properties>
  </tile>
  <tile id="3662">
   <properties>
    <property name="Hp_tent" type="int" value="100"/>
   </properties>
  </tile>
  <tile id="3663">
   <properties>
    <property name="Hp_tent" type="int" value="100"/>
   </properties>
  </tile>
  <tile id="3664">
   <properties>
    <property name="Hp_tent" type="int" value="100"/>
   </properties>
  </tile>
  <tile id="3665">
   <properties>
    <property name="Hp_tent" type="int" value="100"/>
   </properties>
  </tile>
  <tile id="3666">
   <properties>
    <property name="Hp_tent" type="int" value="100"/>
   </properties>
  </tile>
  <tile id="3667">
   <properties>
    <property name="Hp_tent" type="int" value="100"/>
   </properties>
  </tile>
  <tile id="3674">
   <properties>
    <property name="Hp_tent" type="int" value="100"/>
   </properties>
  </tile>
  <tile id="3675">
   <properties>
    <property name="Hp_tent" type="int" value="100"/>
   </properties>
  </tile>
  <tile id="3676">
   <properties>
    <property name="Hp_tent" type="int" value="100"/>
   </properties>
  </tile>
  <tile id="3677">
   <properties>
    <property name="Hp_tent" type="int" value="100"/>
   </properties>
  </tile>
  <tile id="3678">
   <properties>
    <property name="Hp_tent" type="int" value="100"/>
   </properties>
  </tile>
  <tile id="3744">
   <properties>
    <property name="Collision" value="on"/>
   </properties>
  </tile>
  <tile id="3745">
   <properties>
    <property name="BaseCamp" value="on"/>
   </properties>
  </tile>
  <tile id="3746">
   <properties>
    <property name="BaseCamp" value="on"/>
    <property name="Collision" value="on"/>
   </properties>
  </tile>
  <tile id="3747">
   <properties>
    <property name="BaseCamp" value="on"/>
    <property name="Collision" value="on"/>
   </properties>
  </tile>
  <tile id="3748">
   <properties>
    <property name="BaseCamp" value="on"/>
    <property name="Collision" value="on"/>
   </properties>
  </tile>
  <tile id="3749">
   <properties>
    <property name="BaseCamp" value="on"/>
    <property name="Collision" value="on"/>
   </properties>
  </tile>
  <tile id="3750">
   <properties>
    <property name="BaseCamp" value="on"/>
    <property name="Collision" value="on"/>
   </properties>
  </tile>
  <tile id="3751">
   <properties>
    <property name="BaseCamp" value="on"/>
    <property name="Collision" value="on"/>
   </properties>
  </tile>
  <tile id="3752">
   <properties>
    <property name="BaseCamp" value="on"/>
   </properties>
  </tile>
  <tile id="3753">
   <properties>
    <property name="Collision" value="on"/>
   </properties>
  </tile>
  <tile id="3756">
   <properties>
    <property name="Hp_tent" type="int" value="100"/>
   </properties>
  </tile>
  <tile id="3757">
   <properties>
    <property name="Hp_tent" type="int" value="100"/>
   </properties>
  </tile>
  <tile id="3758">
   <properties>
    <property name="Hp_tent" type="int" value="100"/>
   </properties>
  </tile>
  <tile id="3759">
   <properties>
    <property name="Hp_tent" type="int" value="100"/>
   </properties>
  </tile>
  <tile id="3760">
   <properties>
    <property name="Hp_tent" type="int" value="100"/>
   </properties>
  </tile>
  <tile id="3761">
   <properties>
    <property name="Hp_tent" type="int" value="100"/>
   </properties>
  </tile>
  <tile id="3762">
   <properties>
    <property name="Hp_tent" type="int" value="100"/>
   </properties>
  </tile>
  <tile id="3763">
   <properties>
    <property name="Hp_tent" type="int" value="100"/>
   </properties>
  </tile>
  <tile id="3769">
   <properties>
    <property name="Hp_tent" type="int" value="100"/>
   </properties>
  </tile>
  <tile id="3770">
   <properties>
    <property name="Hp_tent" type="int" value="100"/>
   </properties>
  </tile>
  <tile id="3771">
   <properties>
    <property name="Hp_tent" type="int" value="100"/>
   </properties>
  </tile>
  <tile id="3772">
   <properties>
    <property name="Hp_tent" type="int" value="100"/>
   </properties>
  </tile>
  <tile id="3773">
   <properties>
    <property name="Hp_tent" type="int" value="100"/>
   </properties>
  </tile>
  <tile id="3774">
   <properties>
    <property name="Hp_tent" type="int" value="100"/>
   </properties>
  </tile>
  <tile id="3775">
   <properties>
    <property name="Hp_tent" type="int" value="100"/>
   </properties>
  </tile>
  <tile id="3840">
   <properties>
    <property name="Collision" value="on"/>
   </properties>
  </tile>
  <tile id="3841">
   <properties>
    <property name="BaseCamp" value="on"/>
   </properties>
  </tile>
  <tile id="3842">
   <properties>
    <property name="BaseCamp" value="on"/>
    <property name="Collision" value="on"/>
   </properties>
  </tile>
  <tile id="3843">
   <properties>
    <property name="BaseCamp" value="on"/>
    <property name="Collision" value="on"/>
   </properties>
  </tile>
  <tile id="3844">
   <properties>
    <property name="BaseCamp" value="on"/>
    <property name="Collision" value="on"/>
   </properties>
  </tile>
  <tile id="3845">
   <properties>
    <property name="BaseCamp" value="on"/>
    <property name="Collision" value="on"/>
   </properties>
  </tile>
  <tile id="3846">
   <properties>
    <property name="BaseCamp" value="on"/>
    <property name="Collision" value="on"/>
   </properties>
  </tile>
  <tile id="3847">
   <properties>
    <property name="BaseCamp" value="on"/>
    <property name="Collision" value="on"/>
   </properties>
  </tile>
  <tile id="3848">
   <properties>
    <property name="BaseCamp" value="on"/>
   </properties>
  </tile>
  <tile id="3849">
   <properties>
    <property name="Collision" value="on"/>
   </properties>
  </tile>
  <tile id="3852">
   <properties>
    <property name="Hp_tent" type="int" value="100"/>
   </properties>
  </tile>
  <tile id="3853">
   <properties>
    <property name="Hp_tent" type="int" value="100"/>
   </properties>
  </tile>
  <tile id="3854">
   <properties>
    <property name="Hp_tent" type="int" value="100"/>
   </properties>
  </tile>
  <tile id="3855">
   <properties>
    <property name="Hp_tent" type="int" value="100"/>
   </properties>
  </tile>
  <tile id="3856">
   <properties>
    <property name="Hp_tent" type="int" value="100"/>
   </properties>
  </tile>
  <tile id="3857">
   <properties>
    <property name="Hp_tent" type="int" value="100"/>
   </properties>
  </tile>
  <tile id="3858">
   <properties>
    <property name="Hp_tent" type="int" value="100"/>
   </properties>
  </tile>
  <tile id="3859">
   <properties>
    <property name="Hp_tent" type="int" value="100"/>
   </properties>
  </tile>
  <tile id="3865">
   <properties>
    <property name="Hp_tent" type="int" value="100"/>
   </properties>
  </tile>
  <tile id="3866">
   <properties>
    <property name="Hp_tent" type="int" value="100"/>
   </properties>
  </tile>
  <tile id="3867">
   <properties>
    <property name="Hp_tent" type="int" value="100"/>
   </properties>
  </tile>
  <tile id="3868">
   <properties>
    <property name="Hp_tent" type="int" value="100"/>
   </properties>
  </tile>
  <tile id="3869">
   <properties>
    <property name="Hp_tent" type="int" value="100"/>
   </properties>
  </tile>
  <tile id="3870">
   <properties>
    <property name="Hp_tent" type="int" value="100"/>
   </properties>
  </tile>
  <tile id="3871">
   <properties>
    <property name="Hp_tent" type="int" value="100"/>
   </properties>
  </tile>
  <tile id="3937">
   <properties>
    <property name="BaseCamp" value="on"/>
   </properties>
  </tile>
  <tile id="3938">
   <properties>
    <property name="BaseCamp" value="on"/>
    <property name="Collision" value="on"/>
   </properties>
  </tile>
  <tile id="3939">
   <properties>
    <property name="BaseCamp" value="on"/>
    <property name="Collision" value="on"/>
   </properties>
  </tile>
  <tile id="3940">
   <properties>
    <property name="BaseCamp" value="on"/>
    <property name="Collision" value="on"/>
   </properties>
  </tile>
  <tile id="3941">
   <properties>
    <property name="BaseCamp" value="on"/>
    <property name="Collision" value="on"/>
   </properties>
  </tile>
  <tile id="3942">
   <properties>
    <property name="BaseCamp" value="on"/>
    <property name="Collision" value="on"/>
   </properties>
  </tile>
  <tile id="3943">
   <properties>
    <property name="BaseCamp" value="on"/>
    <property name="Collision" value="on"/>
   </properties>
  </tile>
  <tile id="3944">
   <properties>
    <property name="BaseCamp" value="on"/>
   </properties>
  </tile>
  <tile id="3948">
   <properties>
    <property name="Collision" value="on"/>
    <property name="Hp_tent" type="int" value="100"/>
   </properties>
  </tile>
  <tile id="3949">
   <properties>
    <property name="Collision" value="on"/>
    <property name="Hp_tent" type="int" value="100"/>
   </properties>
  </tile>
  <tile id="3950">
   <properties>
    <property name="Collision" value="on"/>
    <property name="Hp_tent" type="int" value="100"/>
   </properties>
  </tile>
  <tile id="3951">
   <properties>
    <property name="Collision" value="on"/>
    <property name="Hp_tent" type="int" value="100"/>
   </properties>
  </tile>
  <tile id="3952">
   <properties>
    <property name="Collision" value="on"/>
    <property name="Hp_tent" type="int" value="100"/>
   </properties>
  </tile>
  <tile id="3953">
   <properties>
    <property name="Collision" value="on"/>
    <property name="Hp_tent" type="int" value="100"/>
   </properties>
  </tile>
  <tile id="3954">
   <properties>
    <property name="Collision" value="on"/>
    <property name="Hp_tent" type="int" value="100"/>
   </properties>
  </tile>
  <tile id="3955">
   <properties>
    <property name="Hp_tent" type="int" value="100"/>
   </properties>
  </tile>
  <tile id="3961">
   <properties>
    <property name="Collision" value="on"/>
    <property name="Hp_tent" type="int" value="100"/>
   </properties>
  </tile>
  <tile id="3962">
   <properties>
    <property name="Collision" value="on"/>
    <property name="Hp_tent" type="int" value="100"/>
   </properties>
  </tile>
  <tile id="3963">
   <properties>
    <property name="Collision" value="on"/>
    <property name="Hp_tent" type="int" value="100"/>
   </properties>
  </tile>
  <tile id="3964">
   <properties>
    <property name="Collision" value="on"/>
    <property name="Hp_tent" type="int" value="100"/>
   </properties>
  </tile>
  <tile id="3965">
   <properties>
    <property name="Collision" value="on"/>
    <property name="Hp_tent" type="int" value="100"/>
   </properties>
  </tile>
  <tile id="3966">
   <properties>
    <property name="Collision" value="on"/>
    <property name="Hp_tent" type="int" value="100"/>
   </properties>
  </tile>
  <tile id="3967">
   <properties>
    <property name="Collision" value="on"/>
    <property name="Hp_tent" type="int" value="100"/>
   </properties>
  </tile>
  <tile id="4033">
   <properties>
    <property name="BaseCamp" value="on"/>
   </properties>
  </tile>
  <tile id="4034">
   <properties>
    <property name="BaseCamp" value="on"/>
   </properties>
  </tile>
  <tile id="4035">
   <properties>
    <property name="BaseCamp" value="on"/>
   </properties>
  </tile>
  <tile id="4036">
   <properties>
    <property name="BaseCamp" value="on"/>
   </properties>
  </tile>
  <tile id="4037">
   <properties>
    <property name="BaseCamp" value="on"/>
   </properties>
  </tile>
  <tile id="4038">
   <properties>
    <property name="BaseCamp" value="on"/>
   </properties>
  </tile>
  <tile id="4039">
   <properties>
    <property name="BaseCamp" value="on"/>
   </properties>
  </tile>
  <tile id="4040">
   <properties>
    <property name="BaseCamp" value="on"/>
   </properties>
  </tile>
  <tile id="4044">
   <properties>
    <property name="Collision" value="on"/>
    <property name="Hp_tent" type="int" value="100"/>
   </properties>
  </tile>
  <tile id="4045">
   <properties>
    <property name="Collision" value="on"/>
    <property name="Hp_tent" type="int" value="100"/>
   </properties>
  </tile>
  <tile id="4046">
   <properties>
    <property name="Collision" value="on"/>
    <property name="Hp_tent" type="int" value="100"/>
   </properties>
  </tile>
  <tile id="4047">
   <properties>
    <property name="Collision" value="on"/>
    <property name="Hp_tent" type="int" value="100"/>
   </properties>
  </tile>
  <tile id="4048">
   <properties>
    <property name="Collision" value="on"/>
    <property name="Hp_tent" type="int" value="100"/>
   </properties>
  </tile>
  <tile id="4049">
   <properties>
    <property name="Collision" value="on"/>
    <property name="Hp_tent" type="int" value="100"/>
   </properties>
  </tile>
  <tile id="4050">
   <properties>
    <property name="Collision" value="on"/>
    <property name="Hp_tent" type="int" value="100"/>
   </properties>
  </tile>
  <tile id="4051">
   <properties>
    <property name="Hp_tent" type="int" value="100"/>
   </properties>
  </tile>
  <tile id="4057">
   <properties>
    <property name="Collision" value="on"/>
    <property name="Hp_tent" type="int" value="100"/>
   </properties>
  </tile>
  <tile id="4058">
   <properties>
    <property name="Collision" value="on"/>
    <property name="Hp_tent" type="int" value="100"/>
   </properties>
  </tile>
  <tile id="4059">
   <properties>
    <property name="Collision" value="on"/>
    <property name="Hp_tent" type="int" value="100"/>
   </properties>
  </tile>
  <tile id="4060">
   <properties>
    <property name="Collision" value="on"/>
    <property name="Hp_tent" type="int" value="100"/>
   </properties>
  </tile>
  <tile id="4061">
   <properties>
    <property name="Collision" value="on"/>
    <property name="Hp_tent" type="int" value="100"/>
   </properties>
  </tile>
  <tile id="4062">
   <properties>
    <property name="Collision" value="on"/>
    <property name="Hp_tent" type="int" value="100"/>
   </properties>
  </tile>
  <tile id="4063">
   <properties>
    <property name="Collision" value="on"/>
    <property name="Hp_tent" type="int" value="100"/>
   </properties>
  </tile>
 </tileset>
 <tileset firstgid="6409" name="Trees_source" tilewidth="16" tileheight="16" tilecount="600" columns="50">
  <image source="../Trees_source.png" width="800" height="192"/>
  <tile id="261">
   <properties>
    <property name="Tree" value="on"/>
   </properties>
  </tile>
  <tile id="262">
   <properties>
    <property name="Tree" value="on"/>
   </properties>
  </tile>
  <tile id="263">
   <properties>
    <property name="Tree" value="on"/>
   </properties>
  </tile>
  <tile id="264">
   <properties>
    <property name="Tree" value="on"/>
   </properties>
  </tile>
  <tile id="269">
   <properties>
    <property name="Tree" value="on"/>
   </properties>
  </tile>
  <tile id="270">
   <properties>
    <property name="Tree" value="on"/>
   </properties>
  </tile>
  <tile id="271">
   <properties>
    <property name="Tree" value="on"/>
   </properties>
  </tile>
  <tile id="272">
   <properties>
    <property name="Tree" value="on"/>
   </properties>
  </tile>
  <tile id="276">
   <properties>
    <property name="Tree" value="on"/>
   </properties>
  </tile>
  <tile id="277">
   <properties>
    <property name="Tree" value="on"/>
   </properties>
  </tile>
  <tile id="278">
   <properties>
    <property name="Tree" value="on"/>
   </properties>
  </tile>
  <tile id="311">
   <properties>
    <property name="Tree" value="on"/>
   </properties>
  </tile>
  <tile id="312">
   <properties>
    <property name="Tree" value="on"/>
   </properties>
  </tile>
  <tile id="313">
   <properties>
    <property name="Tree" value="on"/>
   </properties>
  </tile>
  <tile id="314">
   <properties>
    <property name="Tree" value="on"/>
   </properties>
  </tile>
  <tile id="319">
   <properties>
    <property name="Tree" value="on"/>
   </properties>
  </tile>
  <tile id="320">
   <properties>
    <property name="Tree" value="on"/>
   </properties>
  </tile>
  <tile id="321">
   <properties>
    <property name="Tree" value="on"/>
   </properties>
  </tile>
  <tile id="322">
   <properties>
    <property name="Tree" value="on"/>
   </properties>
  </tile>
  <tile id="326">
   <properties>
    <property name="Tree" value="on"/>
   </properties>
  </tile>
  <tile id="327">
   <properties>
    <property name="Tree" value="on"/>
   </properties>
  </tile>
  <tile id="328">
   <properties>
    <property name="Tree" value="on"/>
   </properties>
  </tile>
  <tile id="361">
   <properties>
    <property name="Tree" value="on"/>
   </properties>
  </tile>
  <tile id="362">
   <properties>
    <property name="Tree" value="on"/>
   </properties>
  </tile>
  <tile id="363">
   <properties>
    <property name="Tree" value="on"/>
   </properties>
  </tile>
  <tile id="364">
   <properties>
    <property name="Tree" value="on"/>
   </properties>
  </tile>
  <tile id="369">
   <properties>
    <property name="Tree" value="on"/>
   </properties>
  </tile>
  <tile id="370">
   <properties>
    <property name="Tree" value="on"/>
   </properties>
  </tile>
  <tile id="371">
   <properties>
    <property name="Tree" value="on"/>
   </properties>
  </tile>
  <tile id="372">
   <properties>
    <property name="Tree" value="on"/>
   </properties>
  </tile>
  <tile id="376">
   <properties>
    <property name="Tree" value="on"/>
   </properties>
  </tile>
  <tile id="377">
   <properties>
    <property name="Tree" value="on"/>
   </properties>
  </tile>
  <tile id="378">
   <properties>
    <property name="Tree" value="on"/>
   </properties>
  </tile>
  <tile id="411">
   <properties>
    <property name="Tree" value="on"/>
   </properties>
  </tile>
  <tile id="412">
   <properties>
    <property name="Collision" value="on"/>
    <property name="Hp_tree" type="int" value="10"/>
    <property name="Tree" value="on"/>
   </properties>
  </tile>
  <tile id="413">
   <properties>
    <property name="Collision" value="on"/>
    <property name="Hp_tree" type="int" value="10"/>
    <property name="Tree" value="on"/>
   </properties>
  </tile>
  <tile id="414">
   <properties>
    <property name="Tree" value="on"/>
   </properties>
  </tile>
  <tile id="419">
   <properties>
    <property name="Tree" value="on"/>
   </properties>
  </tile>
  <tile id="420">
   <properties>
    <property name="Collision" value="on"/>
    <property name="Hp_tree" type="int" value="10"/>
    <property name="Tree" value="on"/>
   </properties>
  </tile>
  <tile id="421">
   <properties>
    <property name="Hp_tree" type="int" value="10"/>
    <property name="Tree" value="on"/>
   </properties>
  </tile>
  <tile id="422">
   <properties>
    <property name="Tree" value="on"/>
   </properties>
  </tile>
  <tile id="426">
   <properties>
    <property name="Tree" value="on"/>
   </properties>
  </tile>
  <tile id="427">
   <properties>
    <property name="Collision" value="on"/>
    <property name="Hp_tree" type="int" value="10"/>
    <property name="Tree" value="on"/>
   </properties>
  </tile>
  <tile id="428">
   <properties>
    <property name="Tree" value="on"/>
   </properties>
  </tile>
 </tileset>
 <tileset firstgid="7009" name="map_fin" tilewidth="16" tileheight="16" tilecount="6144" columns="96">
  <image source="../map_fin.png" width="1536" height="1024"/>
 </tileset>
 <tileset firstgid="13153" name="fence_xoa_bg" tilewidth="16" tileheight="16" tilecount="6144" columns="96">
  <image source="../fence_xoa_bg.png" width="1536" height="1024"/>
 </tileset>
 <tileset firstgid="19297" source="Rocks_source_no_shadow.tsx"/>
 <tileset firstgid="19601" name="hang" tilewidth="16" tileheight="16" tilecount="6144" columns="96">
  <image source="../hang.png" width="1536" height="1024"/>
  <tile id="443">
   <properties>
    <property name="Collision" value="on"/>
   </properties>
  </tile>
  <tile id="444">
   <properties>
    <property name="Collision" value="on"/>
   </properties>
  </tile>
  <tile id="446">
   <properties>
    <property name="Collision" value="on"/>
   </properties>
  </tile>
  <tile id="449">
   <properties>
    <property name="Collision" value="on"/>
   </properties>
  </tile>
  <tile id="539">
   <properties>
    <property name="Collision" value="on"/>
   </properties>
  </tile>
  <tile id="635">
   <properties>
    <property name="Collision" value="on"/>
   </properties>
  </tile>
  <tile id="731">
   <properties>
    <property name="Collision" value="on"/>
   </properties>
  </tile>
  <tile id="827">
   <properties>
    <property name="Collision" value="on"/>
   </properties>
  </tile>
  <tile id="923">
   <properties>
    <property name="Collision" value="on"/>
   </properties>
  </tile>
  <tile id="944">
   <properties>
    <property name="Collision" value="on"/>
   </properties>
  </tile>
  <tile id="1019">
   <properties>
    <property name="Collision" value="on"/>
   </properties>
  </tile>
  <tile id="1040">
   <properties>
    <property name="Collision" value="on"/>
   </properties>
  </tile>
  <tile id="1115">
   <properties>
    <property name="Collision" value="on"/>
   </properties>
  </tile>
  <tile id="1136">
   <properties>
    <property name="Collision" value="on"/>
   </properties>
  </tile>
  <tile id="1211">
   <properties>
    <property name="Collision" value="on"/>
   </properties>
  </tile>
  <tile id="1232">
   <properties>
    <property name="Collision" value="on"/>
   </properties>
  </tile>
  <tile id="1282">
   <properties>
    <property name="Collision" value="on"/>
   </properties>
  </tile>
  <tile id="1307">
   <properties>
    <property name="Collision" value="on"/>
   </properties>
  </tile>
  <tile id="1328">
   <properties>
    <property name="Collision" value="on"/>
   </properties>
  </tile>
  <tile id="1403">
   <properties>
    <property name="Collision" value="on"/>
   </properties>
  </tile>
  <tile id="1424">
   <properties>
    <property name="Collision" value="on"/>
   </properties>
  </tile>
  <tile id="1499">
   <properties>
    <property name="Collision" value="on"/>
   </properties>
  </tile>
  <tile id="1520">
   <properties>
    <property name="Collision" value="on"/>
   </properties>
  </tile>
  <tile id="1595">
   <properties>
    <property name="Collision" value="on"/>
   </properties>
  </tile>
  <tile id="1616">
   <properties>
    <property name="Collision" value="on"/>
   </properties>
  </tile>
  <tile id="1691">
   <properties>
    <property name="Collision" value="on"/>
   </properties>
  </tile>
  <tile id="1712">
   <properties>
    <property name="Collision" value="on"/>
   </properties>
  </tile>
  <tile id="1787">
   <properties>
    <property name="Collision" value="on"/>
   </properties>
  </tile>
  <tile id="1808">
   <properties>
    <property name="Collision" value="on"/>
   </properties>
  </tile>
  <tile id="1876">
   <properties>
    <property name="Collision" value="on"/>
   </properties>
  </tile>
  <tile id="1883">
   <properties>
    <property name="Collision" value="on"/>
   </properties>
  </tile>
  <tile id="1904">
   <properties>
    <property name="Collision" value="on"/>
   </properties>
  </tile>
  <tile id="1972">
   <properties>
    <property name="Collision" value="on"/>
   </properties>
  </tile>
  <tile id="2000">
   <properties>
    <property name="Collision" value="on"/>
   </properties>
  </tile>
  <tile id="2096">
   <properties>
    <property name="Collision" value="on"/>
   </properties>
  </tile>
  <tile id="2192">
   <properties>
    <property name="Collision" value="on"/>
   </properties>
  </tile>
  <tile id="2242">
   <properties>
    <property name="Collision" value="on"/>
   </properties>
  </tile>
  <tile id="2243">
   <properties>
    <property name="Collision" value="on"/>
   </properties>
  </tile>
  <tile id="2244">
   <properties>
    <property name="Collision" value="on"/>
   </properties>
  </tile>
  <tile id="2288">
   <properties>
    <property name="Collision" value="on"/>
   </properties>
  </tile>
  <tile id="2340">
   <properties>
    <property name="Collision" value="on"/>
   </properties>
  </tile>
  <tile id="2341">
   <properties>
    <property name="Collision" value="on"/>
   </properties>
  </tile>
  <tile id="2384">
   <properties>
    <property name="Collision" value="on"/>
   </properties>
  </tile>
  <tile id="2444">
   <properties>
    <property name="Collision" value="on"/>
   </properties>
  </tile>
  <tile id="2445">
   <properties>
    <property name="Collision" value="on"/>
   </properties>
  </tile>
  <tile id="2480">
   <properties>
    <property name="Collision" value="on"/>
   </properties>
  </tile>
  <tile id="2539">
   <properties>
    <property name="Collision" value="on"/>
   </properties>
  </tile>
  <tile id="2576">
   <properties>
    <property name="Collision" value="on"/>
   </properties>
  </tile>
 </tileset>
 <tileset firstgid="25745" name="dovat" tilewidth="16" tileheight="16" tilecount="6144" columns="96">
  <image source="../dovat.png" width="1536" height="1024"/>
 </tileset>
 <tileset firstgid="31889" name="da" tilewidth="16" tileheight="16" tilecount="6144" columns="96">
  <image source="../da.png" width="1536" height="1024"/>
 </tileset>
 <tileset firstgid="38033" name="cot" tilewidth="16" tileheight="16" tilecount="6144" columns="96">
  <image source="../cot.png" width="1536" height="1024"/>
 </tileset>
 <tileset firstgid="44177" name="cay_co" tilewidth="16" tileheight="16" tilecount="6144" columns="96">
  <image source="../cay_co.png" width="1536" height="1024"/>
  <tile id="4487">
   <properties>
    <property name="Hp_tree" type="int" value="10"/>
    <property name="Tree" value="on"/>
   </properties>
  </tile>
  <tile id="4488">
   <properties>
    <property name="Hp_tree" type="int" value="10"/>
    <property name="Tree" value="on"/>
   </properties>
  </tile>
  <tile id="4489">
   <properties>
    <property name="Hp_tree" type="int" value="10"/>
    <property name="Tree" value="on"/>
   </properties>
  </tile>
  <tile id="4490">
   <properties>
    <property name="Hp_tree" type="int" value="10"/>
    <property name="Tree" value="on"/>
   </properties>
  </tile>
  <tile id="4491">
   <properties>
    <property name="Hp_tree" type="int" value="10"/>
    <property name="Tree" value="on"/>
   </properties>
  </tile>
  <tile id="4492">
   <properties>
    <property name="Hp_tree" type="int" value="10"/>
    <property name="Tree" value="on"/>
   </properties>
  </tile>
  <tile id="4493">
   <properties>
    <property name="Hp_tree" type="int" value="10"/>
    <property name="Tree" value="on"/>
   </properties>
  </tile>
  <tile id="4583">
   <properties>
    <property name="Hp_tree" type="int" value="10"/>
    <property name="Tree" value="on"/>
   </properties>
  </tile>
  <tile id="4584">
   <properties>
    <property name="Hp_tree" type="int" value="10"/>
    <property name="Tree" value="on"/>
   </properties>
  </tile>
  <tile id="4585">
   <properties>
    <property name="Hp_tree" type="int" value="10"/>
    <property name="Tree" value="on"/>
   </properties>
  </tile>
  <tile id="4586">
   <properties>
    <property name="Hp_tree" type="int" value="10"/>
    <property name="Tree" value="on"/>
   </properties>
  </tile>
  <tile id="4587">
   <properties>
    <property name="Hp_tree" type="int" value="10"/>
    <property name="Tree" value="on"/>
   </properties>
  </tile>
  <tile id="4588">
   <properties>
    <property name="Hp_tree" type="int" value="10"/>
    <property name="Tree" value="on"/>
   </properties>
  </tile>
  <tile id="4589">
   <properties>
    <property name="Hp_tree" type="int" value="10"/>
    <property name="Tree" value="on"/>
   </properties>
  </tile>
  <tile id="4592">
   <properties>
    <property name="Hp_tree" type="int" value="10"/>
    <property name="Tree" value="on"/>
   </properties>
  </tile>
  <tile id="4593">
   <properties>
    <property name="Hp_tree" type="int" value="10"/>
    <property name="Tree" value="on"/>
   </properties>
  </tile>
  <tile id="4594">
   <properties>
    <property name="Hp_tree" type="int" value="10"/>
    <property name="Tree" value="on"/>
   </properties>
  </tile>
  <tile id="4595">
   <properties>
    <property name="Hp_tree" type="int" value="10"/>
    <property name="Tree" value="on"/>
   </properties>
  </tile>
  <tile id="4679">
   <properties>
    <property name="Hp_tree" type="int" value="10"/>
    <property name="Tree" value="on"/>
   </properties>
  </tile>
  <tile id="4680">
   <properties>
    <property name="Hp_tree" type="int" value="10"/>
    <property name="Tree" value="on"/>
   </properties>
  </tile>
  <tile id="4681">
   <properties>
    <property name="Hp_tree" type="int" value="10"/>
    <property name="Tree" value="on"/>
   </properties>
  </tile>
  <tile id="4682">
   <properties>
    <property name="Hp_tree" type="int" value="10"/>
    <property name="Tree" value="on"/>
   </properties>
  </tile>
  <tile id="4683">
   <properties>
    <property name="Hp_tree" type="int" value="10"/>
    <property name="Tree" value="on"/>
   </properties>
  </tile>
  <tile id="4684">
   <properties>
    <property name="Hp_tree" type="int" value="10"/>
    <property name="Tree" value="on"/>
   </properties>
  </tile>
  <tile id="4685">
   <properties>
    <property name="Hp_tree" type="int" value="10"/>
    <property name="Tree" value="on"/>
   </properties>
  </tile>
  <tile id="4688">
   <properties>
    <property name="Hp_tree" type="int" value="10"/>
    <property name="Tree" value="on"/>
   </properties>
  </tile>
  <tile id="4689">
   <properties>
    <property name="Hp_tree" type="int" value="10"/>
    <property name="Tree" value="on"/>
   </properties>
  </tile>
  <tile id="4690">
   <properties>
    <property name="Hp_tree" type="int" value="10"/>
    <property name="Tree" value="on"/>
   </properties>
  </tile>
  <tile id="4691">
   <properties>
    <property name="Hp_tree" type="int" value="10"/>
    <property name="Tree" value="on"/>
   </properties>
  </tile>
  <tile id="4695">
   <properties>
    <property name="Hp_tree" type="int" value="10"/>
    <property name="Tree" value="on"/>
   </properties>
  </tile>
  <tile id="4696">
   <properties>
    <property name="Hp_tree" type="int" value="10"/>
    <property name="Tree" value="on"/>
   </properties>
  </tile>
  <tile id="4697">
   <properties>
    <property name="Hp_tree" type="int" value="10"/>
    <property name="Tree" value="on"/>
   </properties>
  </tile>
  <tile id="4698">
   <properties>
    <property name="Hp_tree" type="int" value="10"/>
    <property name="Tree" value="on"/>
   </properties>
  </tile>
  <tile id="4775">
   <properties>
    <property name="Hp_tree" type="int" value="10"/>
    <property name="Tree" value="on"/>
   </properties>
  </tile>
  <tile id="4776">
   <properties>
    <property name="Hp_tree" type="int" value="10"/>
    <property name="Tree" value="on"/>
   </properties>
  </tile>
  <tile id="4777">
   <properties>
    <property name="Hp_tree" type="int" value="10"/>
    <property name="Tree" value="on"/>
   </properties>
  </tile>
  <tile id="4778">
   <properties>
    <property name="Hp_tree" type="int" value="10"/>
    <property name="Tree" value="on"/>
   </properties>
  </tile>
  <tile id="4779">
   <properties>
    <property name="Hp_tree" type="int" value="10"/>
    <property name="Tree" value="on"/>
   </properties>
  </tile>
  <tile id="4780">
   <properties>
    <property name="Hp_tree" type="int" value="10"/>
    <property name="Tree" value="on"/>
   </properties>
  </tile>
  <tile id="4781">
   <properties>
    <property name="Hp_tree" type="int" value="10"/>
    <property name="Tree" value="on"/>
   </properties>
  </tile>
  <tile id="4784">
   <properties>
    <property name="Hp_tree" type="int" value="10"/>
    <property name="Tree" value="on"/>
   </properties>
  </tile>
  <tile id="4785">
   <properties>
    <property name="Hp_tree" type="int" value="10"/>
    <property name="Tree" value="on"/>
   </properties>
  </tile>
  <tile id="4786">
   <properties>
    <property name="Hp_tree" type="int" value="10"/>
    <property name="Tree" value="on"/>
   </properties>
  </tile>
  <tile id="4787">
   <properties>
    <property name="Hp_tree" type="int" value="10"/>
    <property name="Tree" value="on"/>
   </properties>
  </tile>
  <tile id="4791">
   <properties>
    <property name="Hp_tree" type="int" value="10"/>
    <property name="Tree" value="on"/>
   </properties>
  </tile>
  <tile id="4792">
   <properties>
    <property name="Hp_tree" type="int" value="10"/>
    <property name="Tree" value="on"/>
   </properties>
  </tile>
  <tile id="4793">
   <properties>
    <property name="Hp_tree" type="int" value="10"/>
    <property name="Tree" value="on"/>
   </properties>
  </tile>
  <tile id="4794">
   <properties>
    <property name="Hp_tree" type="int" value="10"/>
    <property name="Tree" value="on"/>
   </properties>
  </tile>
  <tile id="4871">
   <properties>
    <property name="Hp_tree" type="int" value="10"/>
    <property name="Tree" value="on"/>
   </properties>
  </tile>
  <tile id="4872">
   <properties>
    <property name="Hp_tree" type="int" value="10"/>
    <property name="Tree" value="on"/>
   </properties>
  </tile>
  <tile id="4873">
   <properties>
    <property name="Hp_tree" type="int" value="10"/>
    <property name="Tree" value="on"/>
   </properties>
  </tile>
  <tile id="4874">
   <properties>
    <property name="Hp_tree" type="int" value="10"/>
    <property name="Tree" value="on"/>
   </properties>
  </tile>
  <tile id="4875">
   <properties>
    <property name="Hp_tree" type="int" value="10"/>
    <property name="Tree" value="on"/>
   </properties>
  </tile>
  <tile id="4876">
   <properties>
    <property name="Hp_tree" type="int" value="10"/>
    <property name="Tree" value="on"/>
   </properties>
  </tile>
  <tile id="4877">
   <properties>
    <property name="Hp_tree" type="int" value="10"/>
    <property name="Tree" value="on"/>
   </properties>
  </tile>
  <tile id="4880">
   <properties>
    <property name="Hp_tree" type="int" value="10"/>
    <property name="Tree" value="on"/>
   </properties>
  </tile>
  <tile id="4881">
   <properties>
    <property name="Hp_tree" type="int" value="10"/>
    <property name="Tree" value="on"/>
   </properties>
  </tile>
  <tile id="4882">
   <properties>
    <property name="Hp_tree" type="int" value="10"/>
    <property name="Tree" value="on"/>
   </properties>
  </tile>
  <tile id="4883">
   <properties>
    <property name="Hp_tree" type="int" value="10"/>
    <property name="Tree" value="on"/>
   </properties>
  </tile>
  <tile id="4887">
   <properties>
    <property name="Hp_tree" type="int" value="10"/>
    <property name="Tree" value="on"/>
   </properties>
  </tile>
  <tile id="4888">
   <properties>
    <property name="Hp_tree" type="int" value="10"/>
    <property name="Tree" value="on"/>
   </properties>
  </tile>
  <tile id="4889">
   <properties>
    <property name="Hp_tree" type="int" value="10"/>
    <property name="Tree" value="on"/>
   </properties>
  </tile>
  <tile id="4890">
   <properties>
    <property name="Hp_tree" type="int" value="10"/>
    <property name="Tree" value="on"/>
   </properties>
  </tile>
  <tile id="4967">
   <properties>
    <property name="Hp_tree" type="int" value="10"/>
    <property name="Tree" value="on"/>
   </properties>
  </tile>
  <tile id="4968">
   <properties>
    <property name="Hp_tree" type="int" value="10"/>
    <property name="Tree" value="on"/>
   </properties>
  </tile>
  <tile id="4969">
   <properties>
    <property name="Hp_tree" type="int" value="10"/>
    <property name="Tree" value="on"/>
   </properties>
  </tile>
  <tile id="4970">
   <properties>
    <property name="Hp_tree" type="int" value="10"/>
    <property name="Tree" value="on"/>
   </properties>
  </tile>
  <tile id="4971">
   <properties>
    <property name="Hp_tree" type="int" value="10"/>
    <property name="Tree" value="on"/>
   </properties>
  </tile>
  <tile id="4972">
   <properties>
    <property name="Hp_tree" type="int" value="10"/>
    <property name="Tree" value="on"/>
   </properties>
  </tile>
  <tile id="4973">
   <properties>
    <property name="Hp_tree" type="int" value="10"/>
    <property name="Tree" value="on"/>
   </properties>
  </tile>
  <tile id="4976">
   <properties>
    <property name="Hp_tree" type="int" value="10"/>
    <property name="Tree" value="on"/>
   </properties>
  </tile>
  <tile id="4977">
   <properties>
    <property name="Hp_tree" type="int" value="10"/>
    <property name="Tree" value="on"/>
   </properties>
  </tile>
  <tile id="4978">
   <properties>
    <property name="Hp_tree" type="int" value="10"/>
    <property name="Tree" value="on"/>
   </properties>
  </tile>
  <tile id="4979">
   <properties>
    <property name="Hp_tree" type="int" value="10"/>
    <property name="Tree" value="on"/>
   </properties>
  </tile>
  <tile id="4983">
   <properties>
    <property name="Hp_tree" type="int" value="10"/>
    <property name="Tree" value="on"/>
   </properties>
  </tile>
  <tile id="4984">
   <properties>
    <property name="Hp_tree" type="int" value="10"/>
    <property name="Tree" value="on"/>
   </properties>
  </tile>
  <tile id="4985">
   <properties>
    <property name="Hp_tree" type="int" value="10"/>
    <property name="Tree" value="on"/>
   </properties>
  </tile>
  <tile id="4986">
   <properties>
    <property name="Hp_tree" type="int" value="10"/>
    <property name="Tree" value="on"/>
   </properties>
  </tile>
  <tile id="5063">
   <properties>
    <property name="Hp_tree" type="int" value="10"/>
    <property name="Tree" value="on"/>
   </properties>
  </tile>
  <tile id="5064">
   <properties>
    <property name="Hp_tree" type="int" value="10"/>
    <property name="Tree" value="on"/>
   </properties>
  </tile>
  <tile id="5065">
   <properties>
    <property name="Hp_tree" type="int" value="10"/>
    <property name="Tree" value="on"/>
   </properties>
  </tile>
  <tile id="5066">
   <properties>
    <property name="Hp_tree" type="int" value="10"/>
    <property name="Tree" value="on"/>
   </properties>
  </tile>
  <tile id="5067">
   <properties>
    <property name="Hp_tree" type="int" value="10"/>
    <property name="Tree" value="on"/>
   </properties>
  </tile>
  <tile id="5068">
   <properties>
    <property name="Hp_tree" type="int" value="10"/>
    <property name="Tree" value="on"/>
   </properties>
  </tile>
  <tile id="5069">
   <properties>
    <property name="Hp_tree" type="int" value="10"/>
    <property name="Tree" value="on"/>
   </properties>
  </tile>
  <tile id="5072">
   <properties>
    <property name="Collision" value="on"/>
    <property name="Hp_tree" type="int" value="10"/>
    <property name="Tree" value="on"/>
   </properties>
  </tile>
  <tile id="5073">
   <properties>
    <property name="Collision" value="on"/>
    <property name="Hp_tree" type="int" value="10"/>
    <property name="Tree" value="on"/>
   </properties>
  </tile>
  <tile id="5074">
   <properties>
    <property name="Collision" value="on"/>
    <property name="Hp_tree" type="int" value="10"/>
    <property name="Tree" value="on"/>
   </properties>
  </tile>
  <tile id="5075">
   <properties>
    <property name="Hp_tree" type="int" value="10"/>
    <property name="Tree" value="on"/>
   </properties>
  </tile>
  <tile id="5079">
   <properties>
    <property name="Hp_tree" type="int" value="10"/>
    <property name="Tree" value="on"/>
   </properties>
  </tile>
  <tile id="5080">
   <properties>
    <property name="Collision" value="on"/>
    <property name="Hp_tree" type="int" value="10"/>
    <property name="Tree" value="on"/>
   </properties>
  </tile>
  <tile id="5081">
   <properties>
    <property name="Collision" value="on"/>
    <property name="Hp_tree" type="int" value="10"/>
    <property name="Tree" value="on"/>
   </properties>
  </tile>
  <tile id="5082">
   <properties>
    <property name="Hp_tree" type="int" value="10"/>
    <property name="Tree" value="on"/>
   </properties>
  </tile>
  <tile id="5159">
   <properties>
    <property name="Hp_tree" type="int" value="10"/>
    <property name="Tree" value="on"/>
   </properties>
  </tile>
  <tile id="5160">
   <properties>
    <property name="Hp_tree" type="int" value="10"/>
    <property name="Tree" value="on"/>
   </properties>
  </tile>
  <tile id="5161">
   <properties>
    <property name="Collision" value="on"/>
    <property name="Hp_tree" type="int" value="10"/>
    <property name="Tree" value="on"/>
   </properties>
  </tile>
  <tile id="5162">
   <properties>
    <property name="Collision" value="on"/>
    <property name="Hp_tree" type="int" value="10"/>
    <property name="Tree" value="on"/>
   </properties>
  </tile>
  <tile id="5163">
   <properties>
    <property name="Collision" value="on"/>
    <property name="Hp_tree" type="int" value="10"/>
    <property name="Tree" value="on"/>
   </properties>
  </tile>
  <tile id="5164">
   <properties>
    <property name="Hp_tree" type="int" value="10"/>
    <property name="Tree" value="on"/>
   </properties>
  </tile>
  <tile id="5165">
   <properties>
    <property name="Hp_tree" type="int" value="10"/>
    <property name="Tree" value="on"/>
   </properties>
  </tile>
  <tile id="5168">
   <properties>
    <property name="Hp_tree" type="int" value="10"/>
    <property name="Tree" value="on"/>
   </properties>
  </tile>
  <tile id="5169">
   <properties>
    <property name="Hp_tree" type="int" value="10"/>
    <property name="Tree" value="on"/>
   </properties>
  </tile>
  <tile id="5170">
   <properties>
    <property name="Hp_tree" type="int" value="10"/>
    <property name="Tree" value="on"/>
   </properties>
  </tile>
  <tile id="5171">
   <properties>
    <property name="Hp_tree" type="int" value="10"/>
    <property name="Tree" value="on"/>
   </properties>
  </tile>
  <tile id="5255">
   <properties>
    <property name="Hp_tree" type="int" value="10"/>
   </properties>
  </tile>
  <tile id="5256">
   <properties>
    <property name="Hp_tree" type="int" value="10"/>
   </properties>
  </tile>
  <tile id="5257">
   <properties>
    <property name="Hp_tree" type="int" value="10"/>
   </properties>
  </tile>
  <tile id="5258">
   <properties>
    <property name="Hp_tree" type="int" value="10"/>
   </properties>
  </tile>
  <tile id="5259">
   <properties>
    <property name="Hp_tree" type="int" value="10"/>
   </properties>
  </tile>
  <tile id="5260">
   <properties>
    <property name="Hp_tree" type="int" value="10"/>
   </properties>
  </tile>
  <tile id="5261">
   <properties>
    <property name="Hp_tree" type="int" value="10"/>
   </properties>
  </tile>
 </tileset>
 <layer id="1" name="Grounds" width="120" height="80" locked="1">
  <data encoding="csv">
7009,7010,7011,7012,7013,7014,7015,7016,7017,7018,7019,7020,7021,7022,7023,7024,7025,7026,7027,7028,7029,7030,7031,7032,7033,7034,7035,7036,7037,7038,7039,7040,7041,7042,7043,7044,7045,7046,7047,7048,7049,7050,7051,7052,7053,7054,7055,7056,7057,7058,7059,7060,7061,7062,7063,7064,7065,7066,7067,7068,7069,7070,7071,7072,7073,7074,7075,7076,7077,7078,7079,7080,7081,7082,7083,7084,7085,7086,7087,7088,7089,7090,7091,7092,7093,7094,7095,7096,7097,7098,7099,7100,7101,7102,7103,7104,12193,12194,12195,12193,12194,12195,12196,12197,12198,12199,12200,12201,12202,12203,12204,12205,12206,12207,12208,12209,12210,12211,12212,12213,
7105,7106,7107,7108,7109,7110,7111,7112,7113,7114,7115,7116,7117,7118,7119,7120,7121,7122,7123,7124,7125,7126,7127,7128,7129,7130,7131,7132,7133,7134,7135,7136,7137,7138,7139,7140,7141,7142,7143,7144,7145,7146,7147,7148,7149,7150,7151,7152,7153,7154,7155,7156,7157,7158,7159,7160,7161,7162,7163,7164,7165,7166,7167,7168,7169,7170,7171,7172,7173,7174,7175,7176,7177,7178,7179,7180,7181,7182,7183,7184,7185,7186,7187,7188,7189,7190,7191,7192,7193,7194,7195,7196,7197,7198,7199,7200,12289,12290,12291,12289,12290,12291,12292,12293,12294,12295,12296,12297,12298,12299,12300,12301,12302,12303,12304,12305,12306,12307,12308,12309,
7201,7202,7203,7204,7205,7206,7207,7208,7209,7210,7211,7212,7213,7214,7215,7216,7217,7218,7219,7220,7221,7222,7223,7224,7225,7226,7227,7228,7229,7230,7231,7232,7233,7234,7235,7236,7237,7238,7239,7240,7241,7242,7243,7244,7245,7246,7247,7248,7249,7250,7251,7252,7253,7254,7255,7256,7257,7258,7259,7260,7261,7262,7263,7264,7265,7266,7267,7268,7269,7270,7271,7272,7273,7274,7275,7276,7277,7278,7279,7280,7281,7282,7283,7284,7285,7286,7287,7288,7289,7290,7291,7292,7293,7294,7295,7296,12385,12386,12387,12385,12386,12387,12388,12389,12390,12391,12392,12393,12394,12395,12396,12397,12398,12399,12400,12401,12402,12403,12404,12405,
7297,7298,7299,7300,7301,7302,7303,7304,7305,7306,7307,7308,7309,7310,7311,7312,7313,7314,7315,7316,7317,7318,7319,7320,7321,7322,7323,7324,7325,7326,7327,7328,7329,7330,7331,7332,7333,7334,7335,7336,7337,7338,7339,7340,7341,7342,7343,7344,7345,7346,7347,7348,7349,7350,7351,7352,7353,7354,7355,7356,7357,7358,7359,7360,7361,7362,7363,7364,7365,7366,7367,7368,7369,7370,7371,7372,7373,7374,7375,7376,7377,7378,7379,7380,7381,7382,7383,7384,7385,7386,7387,7388,7389,7390,7391,7392,12481,12482,12483,12481,12482,12483,12484,12485,12486,12487,12488,12489,12490,12491,12492,12493,12494,12495,12496,12497,12498,12499,12500,12501,
7393,7394,7395,7396,7397,7398,7399,7400,7401,7402,7403,7404,7405,7406,7407,7408,7409,7410,7411,7412,7413,7414,7415,7416,7417,7418,7419,7420,7421,7422,7423,7424,7425,7426,7427,7428,7429,7430,7431,7432,7433,7434,7435,7436,7437,7438,7439,7440,7441,7442,7443,7444,7445,7446,7447,7448,7449,7450,7451,7452,7453,7454,7455,7456,7457,7458,7459,7460,7461,7462,7463,7464,7465,7466,7467,7468,7469,7470,7471,7472,7473,7474,7475,7476,7477,7478,7479,7480,7481,7482,7483,7484,7485,7486,7487,7488,12577,12578,12579,12577,12578,12579,12580,12581,12582,12583,12584,12585,12586,12587,12588,12589,12590,12591,12592,12593,12594,12595,12596,12597,
7489,7490,7491,7492,7493,7494,7495,7496,7497,7498,7499,7500,7501,7502,7503,7504,7505,7506,7507,7508,7509,7510,7511,7512,7513,7514,7515,7516,7517,7518,7519,7520,7521,7522,7523,7524,7525,7526,7527,7528,7529,7530,7531,7532,7533,7534,7535,7536,7537,7538,7539,7540,7541,7542,7543,7544,7545,7546,7547,7548,7549,7550,7551,7552,7553,7554,7555,7556,7557,7558,7559,7560,7561,7562,7563,7564,7565,7566,7567,7568,7569,7570,7571,7572,7573,7574,7575,7576,7577,7578,7579,7580,7581,7582,7583,7584,12673,12674,12675,12673,12674,12675,12676,12677,12678,12679,12680,12681,12682,12683,12684,12685,12686,12687,12688,12689,12690,12691,12692,12693,
7585,7586,7587,7588,7589,7590,7591,7592,7593,7594,7595,7596,7597,7598,7599,7600,7601,7602,7603,7604,7605,7606,7607,7608,7609,7610,7611,7612,7613,7614,7615,7616,7617,7618,7619,7620,7621,7622,7623,7624,7625,7626,7627,7628,7629,7630,7631,7632,7633,7634,7635,7636,7637,7638,7639,7640,7641,7642,7643,7644,7645,7646,7647,7648,7649,7650,7651,7652,7653,7654,7655,7656,7657,7658,7659,7660,7661,7662,7663,7664,7665,7666,7667,7668,7669,7670,7671,7672,7673,7674,7675,7676,7677,7678,7679,7680,12769,12770,12771,12769,12770,12771,12772,12773,12774,12775,12776,12777,12778,12779,12780,12781,12782,12783,12784,12785,12786,12787,12788,12789,
7681,7682,7683,7684,7685,7686,7687,7688,7689,7690,7691,7692,7693,7694,7695,7696,7697,7698,7699,7700,7701,7702,7703,7704,7705,7706,7707,7708,7709,7710,7711,7712,7713,7714,7715,7716,7717,7718,7719,7720,7721,7722,7723,7724,7725,7726,7727,7728,7729,7730,7731,7732,7733,7734,7735,7736,7737,7738,7739,7740,7741,7742,7743,7744,7745,7746,7747,7748,7749,7750,7751,7752,7753,7754,7755,7756,7757,7758,7759,7760,7761,7762,7763,7764,7765,7766,7767,7768,7769,7770,7771,7772,7773,7774,7775,7776,12865,12866,12867,12865,12866,12867,12868,12869,12870,12871,12872,12873,12874,12875,12876,12877,12878,12879,12880,12881,12882,12883,12884,12885,
7777,7778,7779,7780,7781,7782,7783,7784,7785,7786,7787,7788,7789,7790,7791,7792,7793,7794,7795,7796,7797,7798,7799,7800,7801,7802,7803,7804,7805,7806,7807,7808,7809,7810,7811,7812,7813,7814,7815,7816,7817,7818,7819,7820,7821,7822,7823,7824,7825,7826,7827,7828,7829,7830,7831,7832,7833,7834,7835,7836,7837,7838,7839,7840,7841,7842,7843,7844,7845,7846,7847,7848,7849,7850,7851,7852,7853,7854,7855,7856,7857,7858,7859,7860,7861,7862,7863,7864,7865,7866,7867,7868,7869,7870,7871,7872,12961,12962,12963,12961,12962,12963,12964,12965,12966,12967,12968,12969,12970,12971,12972,12973,12974,12975,12976,12977,12978,12979,12980,12981,
7873,7874,7875,7876,7877,7878,7879,7880,7881,7882,7883,7884,7885,7886,7887,7888,7889,7890,7891,7892,7893,7894,7895,7896,7897,7898,7899,7900,7901,7902,7903,7904,7905,7906,7907,7908,7909,7910,7911,7912,7913,7914,7915,7916,7917,7918,7919,7920,7921,7922,7923,7924,7925,7926,7927,7928,7929,7930,7931,7932,7933,7934,7935,7936,7937,7938,7939,7940,7941,7942,7943,7944,7945,7946,7947,7948,7949,7950,7951,7952,7953,7954,7955,7956,7957,7958,7959,7960,7961,7962,7963,7964,7965,7966,7967,7968,13057,13058,13059,13057,13058,13059,13060,13061,13062,13063,13064,13065,13066,13067,13068,13069,13070,13071,13072,13073,13074,13075,13076,13077,
7969,7970,7971,7972,7973,7974,7975,7976,7977,7978,7979,7980,7981,7982,7983,7984,7985,7986,7987,7988,7989,7990,7991,7992,7993,7994,7995,7996,7997,7998,7999,8000,8001,8002,8003,8004,8005,8006,8007,8008,8009,8010,8011,8012,8013,8014,8015,8016,8017,8018,8019,8020,8021,8022,8023,8024,8025,8026,8027,8028,8029,8030,8031,8032,8033,8034,8035,8036,8037,8038,8039,8040,8041,8042,8043,8044,8045,8046,8047,8048,8049,8050,8051,8052,8053,8054,8055,8056,8057,8058,8059,8060,8061,8062,8063,8064,12193,12194,12195,12193,12194,12195,12196,12197,12198,12199,12200,12201,12202,12203,12204,12205,12206,12207,12208,12209,12210,12211,12212,12213,
8065,8066,8067,8068,8069,8070,8071,8072,8073,8074,8075,8076,8077,8078,8079,8080,8081,8082,8083,8084,8085,8086,8087,8088,8089,8090,8091,8092,8093,8094,8095,8096,8097,8098,8099,8100,8101,8102,8103,8104,8105,8106,8107,8108,8109,8110,8111,8112,8113,8114,8115,8116,8117,8118,8119,8120,8121,8122,8123,8124,8125,8126,8127,8128,8129,8130,8131,8132,8133,8134,8135,8136,8137,8138,8139,8140,8141,8142,8143,8144,8145,8146,8147,8148,8149,8150,8151,8152,8153,8154,8155,8156,8157,8158,8159,8160,12289,12290,12291,12289,12290,12291,12292,12293,12294,12295,12296,12297,12298,12299,12300,12301,12302,12303,12304,12305,12306,12307,12308,12309,
8161,8162,8163,8164,8165,8166,8167,8168,8169,8170,8171,8172,8173,8174,8175,8176,8177,8178,8179,8180,8181,8182,8183,8184,8185,8186,8187,8188,8189,8190,8191,8192,8193,8194,8195,8196,8197,8198,8199,8200,8201,8202,8203,8204,8205,8206,8207,8208,8209,8210,8211,8212,8213,8214,8215,8216,8217,8218,8219,8220,8221,8222,8223,8224,8225,8226,8227,8228,8229,8230,8231,8232,8233,8234,8235,8236,8237,8238,8239,8240,8241,8242,8243,8244,8245,8246,8247,8248,8249,8250,8251,8252,8253,8254,8255,8256,12385,12386,12387,12385,12386,12387,12388,12389,12390,12391,12392,12393,12394,12395,12396,12397,12398,12399,12400,12401,12402,12403,12404,12405,
8257,8258,8259,8260,8261,8262,8263,8264,8265,8266,8267,8268,8269,8270,8271,8272,8273,8274,8275,8276,8277,8278,8279,8280,8281,8282,8283,8284,8285,8286,8287,8288,8289,8290,8291,8292,8293,8294,8295,8296,8297,8298,8299,8300,8301,8302,8303,8304,8305,8306,8307,8308,8309,8310,8311,8312,8313,8314,8315,8316,8317,8318,8319,8320,8321,8322,8323,8324,8325,8326,8327,8328,8329,8330,8331,8332,8333,8334,8335,8336,8337,8338,8339,8340,8341,8342,8343,8344,8345,8346,8347,8348,8349,8350,8351,8352,12481,12482,12483,12481,12482,12483,12484,12485,12486,12487,12488,12489,12490,12491,12492,12493,12494,12495,12496,12497,12498,12499,12500,12501,
8353,8354,8355,8356,8357,8358,8359,8360,8361,8362,8363,8364,8365,8366,8367,8368,8369,8370,8371,8372,8373,8374,8375,8376,8377,8378,8379,8380,8381,8382,8383,8384,8385,8386,8387,8388,8389,8390,8391,8392,8393,8394,8395,8396,8397,8398,8399,8400,8401,8402,8403,8404,8405,8406,8407,8408,8409,8410,8411,8412,8413,8414,8415,8416,8417,8418,8419,8420,8421,8422,8423,8424,8425,8426,8427,8428,8429,8430,8431,8432,8433,8434,8435,8436,8437,8438,8439,8440,8441,8442,8443,8444,8445,8446,8447,8448,12577,12578,12579,12577,12578,12579,12580,12581,12582,12583,12584,12585,12586,12587,12588,12589,12590,12591,12592,12593,12594,12595,12596,12597,
8449,8450,8451,8452,8453,8454,8455,8456,8457,8458,8459,8460,8461,8462,8463,8464,8465,8466,8467,8468,8469,8470,8471,8472,8473,8474,8475,8476,8477,8478,8479,8480,8481,8482,8483,8484,8485,8486,8487,8488,8489,8490,8491,8492,8493,8494,8495,8496,8497,8498,8499,8500,8501,8502,8503,8504,8505,8506,8507,8508,8509,8510,8511,8512,8513,8514,8515,8516,8517,8518,8519,8520,8521,8522,8523,8524,8525,8526,8527,8528,8529,8530,8531,8532,8533,8534,8535,8536,8537,8538,8539,8540,8541,8542,8543,8544,12673,12674,12675,12673,12674,12675,12676,12677,12678,12679,12680,12681,12682,12683,12684,12685,12686,12687,12688,12689,12690,12691,12692,12693,
8545,8546,8547,8548,8549,8550,8551,8552,8553,8554,8555,8556,8557,8558,8559,8560,8561,8562,8563,8564,8565,8566,8567,8568,8569,8570,8571,8572,8573,8574,8575,8576,8577,8578,8579,8580,8581,8582,8583,8584,8585,8586,8587,8588,8589,8590,8591,8592,8593,8594,8595,8596,8597,8598,8599,8600,8601,8602,8603,8604,8605,8606,8607,8608,8609,8610,8611,8612,8613,8614,8615,8616,8617,8618,8619,8620,8621,8622,8623,8624,8625,8626,8627,8628,8629,8630,8631,8632,8633,8634,8635,8636,8637,8638,8639,8640,12769,12770,12771,12769,12770,12771,12772,12773,12774,12775,12776,12777,12778,12779,12780,12781,12782,12783,12784,12785,12786,12787,12788,12789,
8641,8642,8643,8644,8645,8646,8647,8648,8649,8650,8651,8652,8653,8654,8655,8656,8657,8658,8659,8660,8661,8662,8663,8664,8665,8666,8667,8668,8669,8670,8671,8672,8673,8674,8675,8676,8677,8678,8679,8680,8681,8682,8683,8684,8685,8686,8687,8688,8689,8690,8691,8692,8693,8694,8695,8696,8697,8698,8699,8700,8701,8702,8703,8704,8705,8706,8707,8708,8709,8710,8711,8712,8713,8714,8715,8716,8717,8718,8719,8720,8721,8722,8723,8724,8725,8726,8727,8728,8729,8730,8731,8732,8733,8734,8735,8736,12865,12866,12867,12865,12866,12867,12868,12869,12870,12871,12872,12873,12874,12875,12876,12877,12878,12879,12880,12881,12882,12883,12884,12885,
8737,8738,8739,8740,8741,8742,8743,8744,8745,8746,8747,8748,8749,8750,8751,8752,8753,8754,8755,8756,8757,8758,8759,8760,8761,8762,8763,8764,8765,8766,8767,8768,8769,8770,8771,8772,8773,8774,8775,8776,8777,8778,8779,8780,8781,8782,8783,8784,8785,8786,8787,8788,8789,8790,8791,8792,8793,8794,8795,8796,8797,8798,8799,8800,8801,8802,8803,8804,8805,8806,8807,8808,8809,8810,8811,8812,8813,8814,8815,8816,8817,8818,8819,8820,8821,8822,8823,8824,8825,8826,8827,8828,8829,8830,8831,8832,12961,12962,12963,12961,12962,12963,12964,12965,12966,12967,12968,12969,12970,12971,12972,12973,12974,12975,12976,12977,12978,12979,12980,12981,
8833,8834,8835,8836,8837,8838,8839,8840,8841,8842,8843,8844,8845,8846,8847,8848,8849,8850,8851,8852,8853,8854,8855,8856,8857,8858,8859,8860,8861,8862,8863,8864,8865,8866,8867,8868,8869,8870,8871,8872,8873,8874,8875,8876,8877,8878,8879,8880,8881,8882,8883,8884,8885,8886,8887,8888,8889,8890,8891,8892,8893,8894,8895,8896,8897,8898,8899,8900,8901,8902,8903,8904,8905,8906,8907,8908,8909,8910,8911,8912,8913,8914,8915,8916,8917,8918,8919,8920,8921,8922,8923,8924,8925,8926,8927,8928,12193,12194,12195,12193,12194,12195,12196,12197,12198,12199,12200,12201,12202,12203,12204,12205,12206,12207,12208,12209,12210,12211,12212,12213,
8929,8930,8931,8932,8933,8934,8935,8936,8937,8938,8939,8940,8941,8942,8943,8944,8945,8946,8947,8948,8949,8950,8951,8952,8953,8954,8955,8956,8957,8958,8959,8960,8961,8962,8963,8964,8965,8966,8967,8968,8969,8970,8971,8972,8973,8974,8975,8976,8977,8978,8979,8980,8981,8982,8983,8984,8985,8986,8987,8988,8989,8990,8991,8992,8993,8994,8995,8996,8997,8998,8999,9000,9001,9002,9003,9004,9005,9006,9007,9008,9009,9010,9011,9012,9013,9014,9015,9016,9017,9018,9019,9020,9021,9022,9023,9024,12289,12290,12291,12289,12290,12291,12292,12293,12294,12295,12296,12297,12298,12299,12300,12301,12302,12303,12304,12305,12306,12307,12308,12309,
9025,9026,9027,9028,9029,9030,9031,9032,9033,9034,9035,9036,9037,9038,9039,9040,9041,9042,9043,9044,9045,9046,9047,9048,9049,9050,9051,9052,9053,9054,9055,9056,9057,9058,9059,9060,9061,9062,9063,9064,9065,9066,9067,9068,9069,9070,9071,9072,9073,9074,9075,9076,9077,9078,9079,9080,9081,9082,9083,9084,9085,9086,9087,9088,9089,9090,9091,9092,9093,9094,9095,9096,9097,9098,9099,9100,9101,9102,9103,9104,9105,9106,9107,9108,9109,9110,9111,9112,9113,9114,9115,9116,9117,9118,9119,9120,12385,12386,12387,12385,12386,12387,12388,12389,12390,12391,12392,12393,12394,12395,12396,12397,12398,12399,12400,12401,12402,12403,12404,12405,
9121,9122,9123,9124,9125,9126,9127,9128,9129,9130,9131,9132,9133,9134,9135,9136,9137,9138,9139,9140,9141,9142,9143,9144,9145,9146,9147,9148,9149,9150,9151,9152,9153,9154,9155,9156,9157,9158,9159,9160,9161,9162,9163,9164,9165,9166,9167,9168,9169,9170,9171,9172,9173,9174,9175,9176,9177,9178,9179,9180,9181,9182,9183,9184,9185,9186,9187,9188,9189,9190,9191,9192,9193,9194,9195,9196,9197,9198,9199,9200,9201,9202,9203,9204,9205,9206,9207,9208,9209,9210,9211,9212,9213,9214,9215,9216,12481,12482,12483,12481,12482,12483,12484,12485,12486,12487,12488,12489,12490,12491,12492,12493,12494,12495,12496,12497,12498,12499,12500,12501,
9217,9218,9219,9220,9221,9222,9223,9224,9225,9226,9227,9228,9229,9230,9231,9232,9233,9234,9235,9236,9237,9238,9239,9240,9241,9242,9243,9244,9245,9246,9247,9248,9249,9250,9251,9252,9253,9254,9255,9256,9257,9258,9259,9260,9261,9262,9263,9264,9265,9266,9267,9268,9269,9270,9271,9272,9273,9274,9275,9276,9277,9278,9279,9280,9281,9282,9283,9284,9285,9286,9287,9288,9289,9290,9291,9292,9293,9294,9295,9296,9297,9298,9299,9300,9301,9302,9303,9304,9305,9306,9307,9308,9309,9310,9311,9312,12577,12578,12579,12577,12578,12579,12580,12581,12582,12583,12584,12585,12586,12587,12588,12589,12590,12591,12592,12593,12594,12595,12596,12597,
9313,9314,9315,9316,9317,9318,9319,9320,9321,9322,9323,9324,9325,9326,9327,9328,9329,9330,9331,9332,9333,9334,9335,9336,9337,9338,9339,9340,9341,9342,9343,9344,9345,9346,9347,9348,9349,9350,9351,9352,9353,9354,9355,9356,9357,9358,9359,9360,9361,9362,9363,9364,9365,9366,9367,9368,9369,9370,9371,9372,9373,9374,9375,9376,9377,9378,9379,9380,9381,9382,9383,9384,9385,9386,9387,9388,9389,9390,9391,9392,9393,9394,9395,9396,9397,9398,9399,9400,9401,9402,9403,9404,9405,9406,9407,9408,12673,12674,12675,12673,12674,12675,12676,12677,12678,12679,12680,12681,12682,12683,12684,12685,12686,12687,12688,12689,12690,12691,12692,12693,
9409,9410,9411,9412,9413,9414,9415,9416,9417,9418,9419,9420,9421,9422,9423,9424,9425,9426,9427,9428,9429,9430,9431,9432,9433,9434,9435,9436,9437,9438,9439,9440,9441,9442,9443,9444,9445,9446,9447,9448,9449,9450,9451,9452,9453,9454,9455,9456,9457,9458,9459,9460,9461,9462,9463,9464,9465,9466,9467,9468,9469,9470,9471,9472,9473,9474,9475,9476,9477,9478,9479,9480,9481,9482,9483,9484,9485,9486,9487,9488,9489,9490,9491,9492,9493,9494,9495,9496,9497,9498,9499,9500,9501,9502,9503,9504,12769,12770,12771,12769,12770,12771,12772,12773,12774,12775,12776,12777,12778,12779,12780,12781,12782,12783,12784,12785,12786,12787,12788,12789,
9505,9506,9507,9508,9509,9510,9511,9512,9513,9514,9515,9516,9517,9518,9519,9520,9521,9522,9523,9524,9525,9526,9527,9528,9529,9530,9531,9532,9533,9534,9535,9536,9537,9538,9539,9540,9541,9542,9543,9544,9545,9546,9547,9548,9549,9550,9551,9552,9553,9554,9555,9556,9557,9558,9559,9560,9561,9562,9563,9564,9565,9566,9567,9568,9569,9570,9571,9572,9573,9574,9575,9576,9577,9578,9579,9580,9581,9582,9583,9584,9585,9586,9587,9588,9589,9590,9591,9592,9593,9594,9595,9596,9597,9598,9599,9600,12865,12866,12867,12865,12866,12867,12868,12869,12870,12871,12872,12873,12874,12875,12876,12877,12878,12879,12880,12881,12882,12883,12884,12885,
9601,9602,9603,9604,9605,9606,9607,9608,9609,9610,9611,9612,9613,9614,9615,9616,9617,9618,9619,9620,9621,9622,9623,9624,9625,9626,9627,9628,9629,9630,9631,9632,9633,9634,9635,9636,9637,9638,9639,9640,9641,9642,9643,9644,9645,9646,9647,9648,9649,9650,9651,9652,9653,9654,9655,9656,9657,9658,9659,9660,9661,9662,9663,9664,9665,9666,9667,9668,9669,9670,9671,9672,9673,9674,9675,9676,9677,9678,9679,9680,9681,9682,9683,9684,9685,9686,9687,9688,9689,9690,9691,9692,9693,9694,9695,9696,12961,12962,12963,12961,12962,12963,12964,12965,12966,12967,12968,12969,12970,12971,12972,12973,12974,12975,12976,12977,12978,12979,12980,12981,
9697,9698,9699,9700,9701,9702,9703,9704,9705,9706,9707,9708,9709,9710,9711,9712,9713,9714,9715,9716,9717,9718,9719,9720,9721,9722,9723,9724,9725,9726,9727,9728,9729,9730,9731,9732,9733,9734,9735,9736,9737,9738,9739,9740,9741,9742,9743,9744,9745,9746,9747,9748,9749,9750,9751,9752,9753,9754,9755,9756,9757,9758,9759,9760,9761,9762,9763,9764,9765,9766,9767,9768,9769,9770,9771,9772,9773,9774,9775,9776,9777,9778,9779,9780,9781,9782,9783,9784,9785,9786,9787,9788,9789,9790,9791,9792,12193,12194,12195,12196,12197,12198,12199,12200,12201,12202,12203,12204,12205,12206,12207,12208,12209,12210,12211,12212,12213,13075,13076,13077,
9793,9794,9795,9796,9797,9798,9799,9800,9801,9802,9803,9804,9805,9806,9807,9808,9809,9810,9811,9812,9813,9814,9815,9816,9817,9818,9819,9820,9821,9822,9823,9824,9825,9826,9827,9828,9829,9830,9831,9832,9833,9834,9835,9836,9837,9838,9839,9840,9841,9842,9843,9844,9845,9846,9847,9848,9849,9850,9851,9852,9853,9854,9855,9856,9857,9858,9859,9860,9861,9862,9863,9864,9865,9866,9867,9868,9869,9870,9871,9872,9873,9874,9875,9876,9877,9878,9879,9880,9881,9882,9883,9884,9885,9886,9887,9888,12289,12290,12291,12292,12293,12294,12295,12296,12297,12298,12299,12300,12301,12302,12303,12304,12305,12306,12307,12308,12309,12499,12500,12501,
9889,9890,9891,9892,9893,9894,9895,9896,9897,9898,9899,9900,9901,9902,9903,9904,9905,9906,9907,9908,9909,9910,9911,9912,9913,9914,9915,9916,9917,9918,9919,9920,9921,9922,9923,9924,9925,9926,9927,9928,9929,9930,9931,9932,9933,9934,9935,9936,9937,9938,9939,9940,9941,9942,9943,9944,9945,9946,9947,9948,9949,9950,9951,9952,9953,9954,9955,9956,9957,9958,9959,9960,9961,9962,9963,9964,9965,9966,9967,9968,9969,9970,9971,9972,9973,9974,9975,9976,9977,9978,9979,9980,9981,9982,9983,9984,12385,12386,12387,12388,12389,12390,12391,12392,12393,12394,12395,12396,12397,12398,12399,12400,12401,12402,12403,12404,12405,12595,12596,12597,
9985,9986,9987,9988,9989,9990,9991,9992,9993,9994,9995,9996,9997,9998,9999,10000,10001,10002,10003,10004,10005,10006,10007,10008,10009,10010,10011,10012,10013,10014,10015,10016,10017,10018,10019,10020,10021,10022,10023,10024,10025,10026,10027,10028,10029,10030,10031,10032,10033,10034,10035,10036,10037,10038,10039,10040,10041,10042,10043,10044,10045,10046,10047,10048,10049,10050,10051,10052,10053,10054,10055,10056,10057,10058,10059,10060,10061,10062,10063,10064,10065,10066,10067,10068,10069,10070,10071,10072,10073,10074,10075,10076,10077,10078,10079,10080,12481,12482,12483,12484,12485,12486,12487,12488,12489,12490,12491,12492,12493,12494,12495,12496,12497,12498,12499,12500,12501,12691,12692,12693,
10081,10082,10083,10084,10085,10086,10087,10088,10089,10090,10091,10092,10093,10094,10095,10096,10097,10098,10099,10100,10101,10102,10103,10104,10105,10106,10107,10108,10109,10110,10111,10112,10113,10114,10115,10116,10117,10118,10119,10120,10121,10122,10123,10124,10125,10126,10127,10128,10129,10130,10131,10132,10133,10134,10135,10136,10137,10138,10139,10140,10141,10142,10143,10144,10145,10146,10147,10148,10149,10150,10151,10152,10153,10154,10155,10156,10157,10158,10159,10160,10161,10162,10163,10164,10165,10166,10167,10168,10169,10170,10171,10172,10173,10174,10175,10176,12577,12578,12579,12580,12581,12582,12583,12584,12585,12586,12587,12588,12589,12590,12591,12592,12593,12594,12595,12596,12597,12787,12788,12789,
10177,10178,10179,10180,10181,10182,10183,10184,10185,10186,10187,10188,10189,10190,10191,10192,10193,10194,10195,10196,10197,10198,10199,10200,10201,10202,10203,10204,10205,10206,10207,10208,10209,10210,10211,10212,10213,10214,10215,10216,10217,10218,10219,10220,10221,10222,10223,10224,10225,10226,10227,10228,10229,10230,10231,10232,10233,10234,10235,10236,10237,10238,10239,10240,10241,10242,10243,10244,10245,10246,10247,10248,10249,10250,10251,10252,10253,10254,10255,10256,10257,10258,10259,10260,10261,10262,10263,10264,10265,10266,10267,10268,10269,10270,10271,10272,12673,12674,12675,12676,12677,12678,12679,12680,12681,12682,12683,12684,12685,12686,12687,12688,12689,12690,12691,12692,12693,12883,12884,12885,
10273,10274,10275,10276,10277,10278,10279,10280,10281,10282,10283,10284,10285,10286,10287,10288,10289,10290,10291,10292,10293,10294,10295,10296,10297,10298,10299,10300,10301,10302,10303,10304,10305,10306,10307,10308,10309,10310,10311,10312,10313,10314,10315,10316,10317,10318,10319,10320,10321,10322,10323,10324,10325,10326,10327,10328,10329,10330,10331,10332,10333,10334,10335,10336,10337,10338,10339,10340,10341,10342,10343,10344,10345,10346,10347,10348,10349,10350,10351,10352,10353,10354,10355,10356,10357,10358,10359,10360,10361,10362,10363,10364,10365,10366,10367,10368,12769,12770,12771,12772,12773,12774,12775,12776,12777,12778,12779,12780,12781,12782,12783,12784,12785,12786,12787,12788,12789,12979,12980,12981,
10369,10370,10371,10372,10373,10374,10375,10376,10377,10378,10379,10380,10381,10382,10383,10384,10385,10386,10387,10388,10389,10390,10391,10392,10393,10394,10395,10396,10397,10398,10399,10400,10401,10402,10403,10404,10405,10406,10407,10408,10409,10410,10411,10412,10413,10414,10415,10416,10417,10418,10419,10420,10421,10422,10423,10424,10425,10426,10427,10428,10429,10430,10431,10432,10433,10434,10435,10436,10437,10438,10439,10440,10441,10442,10443,10444,10445,10446,10447,10448,10449,10450,10451,10452,10453,10454,10455,10456,10457,10458,10459,10460,10461,10462,10463,10464,12865,12866,12867,12193,12194,12195,12196,12197,12198,12199,12200,12201,12202,12203,12204,12205,12206,12207,12208,12209,12210,12211,12212,12213,
10465,10466,10467,10468,10469,10470,10471,10472,10473,10474,10475,10476,10477,10478,10479,10480,10481,10482,10483,10484,10485,10486,10487,10488,10489,10490,10491,10492,10493,10494,10495,10496,10497,10498,10499,10500,10501,10502,10503,10504,10505,10506,10507,10508,10509,10510,10511,10512,10513,10514,10515,10516,10517,10518,10519,10520,10521,10522,10523,10524,10525,10526,10527,10528,10529,10530,10531,10532,10533,10534,10535,10536,10537,10538,10539,10540,10541,10542,10543,10544,10545,10546,10547,10548,10549,10550,10551,10552,10553,10554,10555,10556,10557,10558,10559,10560,12961,12962,12963,12289,12290,12291,12292,12293,12294,12295,12296,12297,12298,12299,12300,12301,12302,12303,12304,12305,12306,12307,12308,12309,
10561,10562,10563,10564,10565,10566,10567,10568,10569,10570,10571,10572,10573,10574,10575,10576,10577,10578,10579,10580,10581,10582,10583,10584,10585,10586,10587,10588,10589,10590,10591,10592,10593,10594,10595,10596,10597,10598,10599,10600,10601,10602,10603,10604,10605,10606,10607,10608,10609,10610,10611,10612,10613,10614,10615,10616,10617,10618,10619,10620,10621,10622,10623,10624,10625,10626,10627,10628,10629,10630,10631,10632,10633,10634,10635,10636,10637,10638,10639,10640,10641,10642,10643,10644,10645,10646,10647,10648,10649,10650,10651,10652,10653,10654,10655,10656,12193,12194,12195,12385,12386,12387,12388,12389,12390,12391,12392,12393,12394,12395,12396,12397,12398,12399,12400,12401,12402,12403,12404,12405,
10657,10658,10659,10660,10661,10662,10663,10664,10665,10666,10667,10668,10669,10670,10671,10672,10673,10674,10675,10676,10677,10678,10679,10680,10681,10682,10683,10684,10685,10686,10687,10688,10689,10690,10691,10692,10693,10694,10695,10696,10697,10698,10699,10700,10701,10702,10703,10704,10705,10706,10707,10708,10709,10710,10711,10712,10713,10714,10715,10716,10717,10718,10719,10720,10721,10722,10723,10724,10725,10726,10727,10728,10729,10730,10731,10732,10733,10734,10735,10736,10737,10738,10739,10740,10741,10742,10743,10744,10745,10746,10747,10748,10749,10750,10751,10752,12289,12290,12291,12481,12482,12483,12484,12485,12486,12487,12488,12489,12490,12491,12492,12493,12494,12495,12496,12497,12498,12499,12500,12501,
10753,10754,10755,10756,10757,10758,10759,10760,10761,10762,10763,10764,10765,10766,10767,10768,10769,10770,10771,10772,10773,10774,10775,10776,10777,10778,10779,10780,10781,10782,10783,10784,10785,10786,10787,10788,10789,10790,10791,10792,10793,10794,10795,10796,10797,10798,10799,10800,10801,10802,10803,10804,10805,10806,10807,10808,10809,10810,10811,10812,10813,10814,10815,10816,10817,10818,10819,10820,10821,10822,10823,10824,10825,10826,10827,10828,10829,10830,10831,10832,10833,10834,10835,10836,10837,10838,10839,10840,10841,10842,10843,10844,10845,10846,10847,10848,12385,12386,12387,12577,12578,12579,12580,12581,12582,12583,12584,12585,12586,12587,12588,12589,12590,12591,12592,12593,12594,12595,12596,12597,
10849,10850,10851,10852,10853,10854,10855,10856,10857,10858,10859,10860,10861,10862,10863,10864,10865,10866,10867,10868,10869,10870,10871,10872,10873,10874,10875,10876,10877,10878,10879,10880,10881,10882,10883,10884,10885,10886,10887,10888,10889,10890,10891,10892,10893,10894,10895,10896,10897,10898,10899,10900,10901,10902,10903,10904,10905,10906,10907,10908,10909,10910,10911,10912,10913,10914,10915,10916,10917,10918,10919,10920,10921,10922,10923,10924,10925,10926,10927,10928,10929,10930,10931,10932,10933,10934,10935,10936,10937,10938,10939,10940,10941,10942,10943,10944,12481,12482,12483,12673,12674,12675,12676,12677,12678,12679,12680,12681,12682,12683,12684,12685,12686,12687,12688,12689,12690,12691,12692,12693,
10945,10946,10947,10948,10949,10950,10951,10952,10953,10954,10955,10956,10957,10958,10959,10960,10961,10962,10963,10964,10965,10966,10967,10968,10969,10970,10971,10972,10973,10974,10975,10976,10977,10978,10979,10980,10981,10982,10983,10984,10985,10986,10987,10988,10989,10990,10991,10992,10993,10994,10995,10996,10997,10998,10999,11000,11001,11002,11003,11004,11005,11006,11007,11008,11009,11010,11011,11012,11013,11014,11015,11016,11017,11018,11019,11020,11021,11022,11023,11024,11025,11026,11027,11028,11029,11030,11031,11032,11033,11034,11035,11036,11037,11038,11039,11040,12577,12578,12579,12769,12770,12771,12772,12773,12774,12775,12776,12777,12778,12779,12780,12781,12782,12783,12784,12785,12786,12787,12788,12789,
11041,11042,11043,11044,11045,11046,11047,11048,11049,11050,11051,11052,11053,11054,11055,11056,11057,11058,11059,11060,11061,11062,11063,11064,11065,11066,11067,11068,11069,11070,11071,11072,11073,11074,11075,11076,11077,11078,11079,11080,11081,11082,11083,11084,11085,11086,11087,11088,11089,11090,11091,11092,11093,11094,11095,11096,11097,11098,11099,11100,11101,11102,11103,11104,11105,11106,11107,11108,11109,11110,11111,11112,11113,11114,11115,11116,11117,11118,11119,11120,11121,11122,11123,11124,11125,11126,11127,11128,11129,11130,11131,11132,11133,11134,11135,11136,12673,12674,12675,12865,12866,12867,12868,12869,12870,12871,12872,12873,12874,12875,12876,12877,12878,12879,12880,12881,12882,12883,12884,12885,
11137,11138,11139,11140,11141,11142,11143,11144,11145,11146,11147,11148,11149,11150,11151,11152,11153,11154,11155,11156,11157,11158,11159,11160,11161,11162,11163,11164,11165,11166,11167,11168,11169,11170,11171,11172,11173,11174,11175,11176,11177,11178,11179,11180,11181,11182,11183,11184,11185,11186,11187,11188,11189,11190,11191,11192,11193,11194,11195,11196,11197,11198,11199,11200,11201,11202,11203,11204,11205,11206,11207,11208,11209,11210,11211,11212,11213,11214,11215,11216,11217,11218,11219,11220,11221,11222,11223,11224,11225,11226,11227,11228,11229,11230,11231,11232,12769,12770,12771,12961,12962,12963,12964,12965,12966,12967,12968,12969,12970,12971,12972,12973,12974,12975,12976,12977,12978,12979,12980,12981,
11233,11234,11235,11236,11237,11238,11239,11240,11241,11242,11243,11244,11245,11246,11247,11248,11249,11250,11251,11252,11253,11254,11255,11256,11257,11258,11259,11260,11261,11262,11263,11264,11265,11266,11267,11268,11269,11270,11271,11272,11273,11274,11275,11276,11277,11278,11279,11280,11281,11282,11283,11284,11285,11286,11287,11288,11289,11290,11291,11292,11293,11294,11295,11296,11297,11298,11299,11300,11301,11302,11303,11304,11305,11306,11307,11308,11309,11310,11311,11312,11313,11314,11315,11316,11317,11318,11319,11320,11321,11322,11323,11324,11325,11326,11327,11328,12865,12866,12867,13057,13058,13059,13060,13061,13062,13063,13064,13065,13066,13067,13068,13069,13070,13071,13072,13073,13074,13075,13076,13077,
11329,11330,11331,11332,11333,11334,11335,11336,11337,11338,11339,11340,11341,11342,11343,11344,11345,11346,11347,11348,11349,11350,11351,11352,11353,11354,11355,11356,11357,11358,11359,11360,11361,11362,11363,11364,11365,11366,11367,11368,11369,11370,11371,11372,11373,11374,11375,11376,11377,11378,11379,11380,11381,11382,11383,11384,11385,11386,11387,11388,11389,11390,11391,11392,11393,11394,11395,11396,11397,11398,11399,11400,11401,11402,11403,11404,11405,11406,11407,11408,11409,11410,11411,11412,11413,11414,11415,11416,11417,11418,11419,11420,11421,11422,11423,11424,12961,12962,12963,12193,12194,12195,12196,12197,12198,12199,12200,12201,12202,12203,12204,12205,12206,12207,12208,12209,12210,12211,12212,12213,
11425,11426,11427,11428,11429,11430,11431,11432,11433,11434,11435,11436,11437,11438,11439,11440,11441,11442,11443,11444,11445,11446,11447,11448,11449,11450,11451,11452,11453,11454,11455,11456,11457,11458,11459,11460,11461,11462,11463,11464,11465,11466,11467,11468,11469,11470,11471,11472,11473,11474,11475,11476,11477,11478,11479,11480,11481,11482,11483,11484,11485,11486,11487,11488,11489,11490,11491,11492,11493,11494,11495,11496,11497,11498,11499,11500,11501,11502,11503,11504,11505,11506,11507,11508,11509,11510,11511,11512,11513,11514,11515,11516,11517,11518,11519,11520,13057,13058,13059,12289,12290,12291,12292,12293,12294,12295,12296,12297,12298,12299,12300,12301,12302,12303,12304,12305,12306,12307,12308,12309,
11521,11522,11523,11524,11525,11526,11527,11528,11529,11530,11531,11532,11533,11534,11535,11536,11537,11538,11539,11540,11541,11542,11543,11544,11545,11546,11547,11548,11549,11550,11551,11552,11553,11554,11555,11556,11557,11558,11559,11560,11561,11562,11563,11564,11565,11566,11567,11568,11569,11570,11571,11572,11573,11574,11575,11576,11577,11578,11579,11580,11581,11582,11583,11584,11585,11586,11587,11588,11589,11590,11591,11592,11593,11594,11595,11596,11597,11598,11599,11600,11601,11602,11603,11604,11605,11606,11607,11608,11609,11610,11611,11612,11613,11614,11615,11616,12193,12194,12195,12196,12197,12198,12199,12200,12201,12202,12203,12204,12205,12206,12207,12208,12209,12210,12211,12212,12213,12403,12404,12405,
11617,11618,11619,11620,11621,11622,11623,11624,11625,11626,11627,11628,11629,11630,11631,11632,11633,11634,11635,11636,11637,11638,11639,11640,11641,11642,11643,11644,11645,11646,11647,11648,11649,11650,11651,11652,11653,11654,11655,11656,11657,11658,11659,11660,11661,11662,11663,11664,11665,11666,11667,11668,11669,11670,11671,11672,11673,11674,11675,11676,11677,11678,11679,11680,11681,11682,11683,11684,11685,11686,11687,11688,11689,11690,11691,11692,11693,11694,11695,11696,11697,11698,11699,11700,11701,11702,11703,11704,11705,11706,11707,11708,11709,11710,11711,11712,12289,12290,12291,12292,12293,12294,12295,12296,12297,12298,12299,12300,12301,12302,12303,12304,12305,12306,12307,12308,12309,12499,12500,12501,
11713,11714,11715,11716,11717,11718,11719,11720,11721,11722,11723,11724,11725,11726,11727,11728,11729,11730,11731,11732,11733,11734,11735,11736,11737,11738,11739,11740,11741,11742,11743,11744,11745,11746,11747,11748,11749,11750,11751,11752,11753,11754,11755,11756,11757,11758,11759,11760,11761,11762,11763,11764,11765,11766,11767,11768,11769,11770,11771,11772,11773,11774,11775,11776,11777,11778,11779,11780,11781,11782,11783,11784,11785,11786,11787,11788,11789,11790,11791,11792,11793,11794,11795,11796,11797,11798,11799,11800,11801,11802,11803,11804,11805,11806,11807,11808,12385,12386,12387,12388,12389,12390,12391,12392,12393,12394,12395,12396,12397,12398,12399,12400,12401,12402,12403,12404,12405,12595,12596,12597,
11809,11810,11811,11812,11813,11814,11815,11816,11817,11818,11819,11820,11821,11822,11823,11824,11825,11826,11827,11828,11829,11830,11831,11832,11833,11834,11835,11836,11837,11838,11839,11840,11841,11842,11843,11844,11845,11846,11847,11848,11849,11850,11851,11852,11853,11854,11855,11856,11857,11858,11859,11860,11861,11862,11863,11864,11865,11866,11867,11868,11869,11870,11871,11872,11873,11874,11875,11876,11877,11878,11879,11880,11881,11882,11883,11884,11885,11886,11887,11888,11889,11890,11891,11892,11893,11894,11895,11896,11897,11898,11899,11900,11901,11902,11903,11904,12481,12482,12483,12484,12485,12486,12487,12488,12489,12490,12491,12492,12493,12494,12495,12496,12497,12498,12499,12500,12501,12691,12692,12693,
11905,11906,11907,11908,11909,11910,11911,11912,11913,11914,11915,11916,11917,11918,11919,11920,11921,11922,11923,11924,11925,11926,11927,11928,11929,11930,11931,11932,11933,11934,11935,11936,11937,11938,11939,11940,11941,11942,11943,11944,11945,11946,11947,11948,11949,11950,11951,11952,11953,11954,11955,11956,11957,11958,11959,11960,11961,11962,11963,11964,11965,11966,11967,11968,11969,11970,11971,11972,11973,11974,11975,11976,11977,11978,11979,11980,11981,11982,11983,11984,11985,11986,11987,11988,11989,11990,11991,11992,11993,11994,11995,11996,11997,11998,11999,12000,12577,12578,12579,12580,12581,12582,12583,12584,12585,12586,12587,12588,12589,12590,12591,12592,12593,12594,12595,12596,12597,12787,12788,12789,
12001,12002,12003,12004,12005,12006,12007,12008,12009,12010,12011,12012,12013,12014,12015,12016,12017,12018,12019,12020,12021,12022,12023,12024,12025,12026,12027,12028,12029,12030,12031,12032,12033,12034,12035,12036,12037,12038,12039,12040,12041,12042,12043,12044,12045,12046,12047,12048,12049,12050,12051,12052,12053,12054,12055,12056,12057,12058,12059,12060,12061,12062,12063,12064,12065,12066,12067,12068,12069,12070,12071,12072,12073,12074,12075,12076,12077,12078,12079,12080,12081,12082,12083,12084,12085,12086,12087,12088,12089,12090,12091,12092,12093,12094,12095,12096,12673,12674,12675,12676,12677,12678,12679,12680,12681,12682,12683,12684,12685,12686,12687,12688,12689,12690,12691,12692,12693,12883,12884,12885,
12097,12098,12099,12100,12101,12102,12103,12104,12105,12106,12107,12108,12109,12110,12111,12112,12113,12114,12115,12116,12117,12118,12119,12120,12121,12122,12123,12124,12125,12126,12127,12128,12129,12130,12131,12132,12133,12134,12135,12136,12137,12138,12139,12140,12141,12142,12143,12144,12145,12146,12147,12148,12149,12150,12151,12152,12153,12154,12155,12156,12157,12158,12159,12160,12161,12162,12163,12164,12165,12166,12167,12168,12169,12170,12171,12172,12173,12174,12175,12176,12177,12178,12179,12180,12181,12182,12183,12184,12185,12186,12187,12188,12189,12190,12191,12192,12769,12770,12771,12772,12773,12774,12775,12776,12777,12778,12779,12780,12781,12782,12783,12784,12785,12786,12787,12788,12789,12979,12980,12981,
12193,12194,12195,12196,12197,12198,12199,12200,12201,12202,12203,12204,12205,12206,12207,12208,12209,12210,12211,12212,12213,12214,12215,12216,12217,12218,12219,12220,12221,12222,12223,12224,12225,12226,12227,12228,12229,12230,12231,12232,12233,12234,12235,12236,12237,12238,12239,12240,12241,12242,12243,12244,12245,12246,12247,12248,12249,12250,12251,12252,12253,12254,12255,12256,12257,12258,12259,12260,12261,12262,12263,12264,12265,12266,12267,12268,12269,12270,12271,12272,12273,12274,12275,12276,12277,12278,12279,12280,12281,12282,12283,12284,12285,12286,12287,12288,12865,12866,12867,12868,12869,12870,12871,12872,12873,12874,12875,12876,12877,12878,12879,12880,12881,12882,12883,12884,12885,13075,13076,13077,
12289,12290,12291,12292,12293,12294,12295,12296,12297,12298,12299,12300,12301,12302,12303,12304,12305,12306,12307,12308,12309,12310,12311,12312,12313,12314,12315,12316,12317,12318,12319,12320,12321,12322,12323,12324,12325,12326,12327,12328,12329,12330,12331,12332,12333,12334,12335,12336,12337,12338,12339,12340,12341,12342,12343,12344,12345,12346,12347,12348,12349,12350,12351,12352,12353,12354,12355,12356,12357,12358,12359,12360,12361,12362,12363,12364,12365,12366,12367,12368,12369,12370,12371,12372,12373,12374,12375,12376,12377,12378,12379,12380,12381,12382,12383,12384,12961,12962,12963,12193,12194,12195,12196,12197,12198,12199,12200,12201,12202,12203,12204,12205,12206,12207,12208,12209,12210,12211,12212,12213,
12385,12386,12387,12388,12389,12390,12391,12392,12393,12394,12395,12396,12397,12398,12399,12400,12401,12402,12403,12404,12405,12406,12407,12408,12409,12410,12411,12412,12413,12414,12415,12416,12417,12418,12419,12420,12421,12422,12423,12424,12425,12426,12427,12428,12429,12430,12431,12432,12433,12434,12435,12436,12437,12438,12439,12440,12441,12442,12443,12444,12445,12446,12447,12448,12449,12450,12451,12452,12453,12454,12455,12456,12457,12458,12459,12460,12461,12462,12463,12464,12465,12466,12467,12468,12469,12470,12471,12472,12473,12474,12475,12476,12477,12478,12479,12480,13057,13058,13059,12289,12290,12291,12292,12293,12294,12295,12296,12297,12298,12299,12300,12301,12302,12303,12304,12305,12306,12307,12308,12309,
12481,12482,12483,12484,12485,12486,12487,12488,12489,12490,12491,12492,12493,12494,12495,12496,12497,12498,12499,12500,12501,12502,12503,12504,12505,12506,12507,12508,12509,12510,12511,12512,12513,12514,12515,12516,12517,12518,12519,12520,12521,12522,12523,12524,12525,12526,12527,12528,12529,12530,12531,12532,12533,12534,12535,12536,12537,12538,12539,12540,12541,12542,12543,12544,12545,12546,12547,12548,12549,12550,12551,12552,12553,12554,12555,12556,12557,12558,12559,12560,12561,12562,12563,12564,12565,12566,12567,12568,12569,12570,12571,12572,12573,12574,12575,12576,12193,12194,12195,12385,12386,12387,12388,12389,12390,12391,12392,12393,12394,12395,12396,12397,12398,12399,12400,12401,12402,12403,12404,12405,
12577,12578,12579,12580,12581,12582,12583,12584,12585,12586,12587,12588,12589,12590,12591,12592,12593,12594,12595,12596,12597,12598,12599,12600,12601,12602,12603,12604,12605,12606,12607,12608,12609,12610,12611,12612,12613,12614,12615,12616,12617,12618,12619,12620,12621,12622,12623,12624,12625,12626,12627,12628,12629,12630,12631,12632,12633,12634,12635,12636,12637,12638,12639,12640,12641,12642,12643,12644,12645,12646,12647,12648,12649,12650,12651,12652,12653,12654,12655,12656,12657,12658,12659,12660,12661,12662,12663,12664,12665,12666,12667,12668,12669,12670,12671,12672,12289,12290,12291,12481,12482,12483,12484,12485,12486,12487,12488,12489,12490,12491,12492,12493,12494,12495,12496,12497,12498,12499,12500,12501,
11137,11138,11139,11140,11141,11142,11143,11144,11145,11146,11147,11148,11149,11150,11151,11152,11153,11154,11155,11156,11157,12694,12695,12696,12697,12698,12699,12700,12701,12702,12703,12704,12705,12706,12707,12708,12709,12710,12711,12712,12713,12714,12715,12716,12717,12718,12719,12720,12721,12722,12723,12724,12725,12726,12727,12728,12729,12730,12731,12732,12733,12734,12735,12736,12737,12738,12739,12740,12741,12742,12743,12744,12745,12746,12747,12748,12749,12750,12751,12752,12753,12754,12755,12756,12757,12758,12759,12760,12761,12762,12763,12764,12765,12766,12767,12768,12385,12386,12387,12577,12578,12579,12580,12581,12582,12583,12584,12585,12586,12587,12588,12589,12590,12591,12592,12593,12594,12595,12596,12597,
11233,11234,11235,11236,11237,11238,11239,11240,11241,11242,11243,11244,11245,11246,11247,11248,11249,11250,11251,11252,11253,12790,12791,12792,12793,12794,12795,12796,12797,12798,12799,12800,12801,12802,12803,12804,12805,12806,12807,12808,12809,12810,12811,12812,12813,12814,12815,12816,12817,12818,12819,12820,12821,12822,12823,12824,12825,12826,12827,12828,12829,12830,12831,12832,12833,12834,12835,12836,12837,12838,12839,12840,12841,12842,12843,12844,12845,12846,12847,12848,12849,12850,12851,12852,12853,12854,12855,12856,12857,12858,12859,12860,12861,12862,12863,12864,12481,12482,12483,12673,12674,12675,12676,12677,12678,12679,12680,12681,12682,12683,12684,12685,12686,12687,12688,12689,12690,12691,12692,12693,
11329,11330,11331,11332,11333,11334,11335,11336,11337,11338,11339,11340,11341,11342,11343,11344,11345,11346,11347,11348,11349,12886,12887,12888,12889,12890,12891,12892,12893,12894,12895,12896,12897,12898,12899,12900,12901,12902,12903,12904,12905,12906,12907,12908,12909,12910,12911,12912,12913,12914,12915,12916,12917,12918,12919,12920,12921,12922,12923,13102,13102,13102,12927,12928,12929,12930,12931,12932,12933,12934,12935,12936,12937,12938,12939,12940,12941,12942,12943,12944,12945,12946,12947,12948,12949,12950,12951,12952,12953,12954,12955,12956,12957,12958,12959,12960,12577,12578,12579,12769,12770,12771,12772,12773,12774,12775,12776,12777,12778,12779,12780,12781,12782,12783,12784,12785,12786,12787,12788,12789,
11425,11426,11427,11428,11429,11430,11431,11432,11433,11434,11435,11436,11437,11438,11439,11440,11441,11442,11443,11444,11445,12982,12983,12984,12985,12986,12987,12988,12989,12990,12991,12992,12993,12994,12995,12996,12997,12998,12999,13000,13001,13002,13003,13004,13005,13006,13007,13008,13009,13010,13011,13012,13013,13014,13015,13016,13017,13018,13102,13102,13021,13022,12193,12194,12195,12196,12197,12198,12199,12200,12201,12202,12203,12204,12205,12206,12207,12208,12209,12210,12211,12212,12213,13044,13045,13046,13047,13048,13049,13050,13051,13052,13053,13054,13055,13056,12673,12674,12675,12865,12866,12867,12868,12869,12870,12871,12872,12873,12874,12875,12876,12877,12878,12879,12880,12881,12882,12883,12884,12885,
11521,11522,11523,11524,11525,11526,11527,11528,11529,11530,11531,11532,11533,11534,11535,11536,11537,11538,11539,11540,12193,12194,12195,12196,12197,12198,12199,12200,12201,12202,12203,12204,12205,12206,12207,12208,12209,12210,12211,12212,12213,13098,13099,13102,13102,13102,13103,13104,13105,13106,13107,13108,13109,13102,13102,13102,13102,13102,13102,13116,13117,13118,12289,12290,12291,12292,12293,12294,12295,12296,12297,12298,12299,12300,12301,12302,12303,12304,12305,12306,12307,12308,12309,12196,12197,12198,12199,12200,12201,12202,12203,12204,12205,12206,12207,12208,12209,12210,12211,12212,12213,12963,12964,12965,12966,12967,12968,12969,12970,12971,12972,12973,12974,12975,12976,12977,12978,12979,12980,12981,
11617,11618,11619,11620,11621,11622,11623,11624,11625,11626,11627,11628,11629,11630,11631,11632,11633,11634,11635,11636,12289,12290,12291,12292,12293,12294,12295,12296,12297,12298,12299,12300,12301,12302,12303,12304,12305,12306,12307,12308,12309,12193,12194,13102,13102,13102,13102,13102,13102,13102,13102,13102,13102,13102,13102,13102,13102,12209,12210,12211,12212,12213,12385,12386,12387,12388,12389,12390,12391,12392,12393,12394,12395,12396,12397,12398,12399,12400,12401,12402,12403,12404,12405,12292,12293,12294,12295,12296,12297,12298,12299,12300,12301,12302,12303,12304,12305,12306,12307,12308,12309,12195,12196,12197,12198,12199,12200,12201,12202,12203,12204,12205,12206,12207,12208,12209,12210,12211,12212,12213,
11713,11714,11715,11716,11717,11718,11719,11720,11721,11722,11723,11724,11725,11726,11727,11728,11729,11730,11731,11732,12385,12386,12387,12388,12389,12390,12391,12392,12393,12394,12395,12396,12397,12398,12399,12400,12401,12402,12403,12404,12405,12289,12290,12291,12292,12293,12294,12295,12296,12297,12298,12299,12300,12301,12302,12303,12304,12305,12306,12307,12308,12309,12481,12482,12483,12484,12485,12486,12487,12488,12489,12490,12491,12492,12493,12494,12495,12496,12497,12498,12499,12500,12501,12388,12389,12390,12391,12392,12393,12394,12395,12396,12397,12398,12399,12400,12401,12402,12403,12404,12405,12291,12292,12293,12294,12295,12296,12297,12298,12299,12300,12301,12302,12303,12304,12305,12306,12307,12308,12309,
11809,11810,11811,11812,11813,11814,11815,11816,11817,11818,11819,11820,11821,11822,11823,11824,11825,11826,11827,11828,12481,12482,12483,12484,12485,12486,12487,12488,12489,12490,12491,12492,12493,12494,12495,12496,12497,12498,12499,12500,12501,12385,12386,12387,12388,12389,12390,12391,12392,12393,12394,12395,12396,12397,12398,12399,12400,12401,12402,12403,12404,12405,12577,12578,12579,12580,12581,12582,12583,12584,12585,12586,12587,12588,12589,12590,12591,12592,12593,12594,12595,12596,12597,12484,12485,12486,12487,12488,12489,12490,12491,12492,12493,12494,12495,12496,12497,12498,12499,12500,12501,12387,12388,12389,12390,12391,12392,12393,12394,12395,12396,12397,12398,12399,12400,12401,12402,12403,12404,12405,
11905,11906,11907,11908,11909,11910,11911,11912,11913,11914,11915,11916,11917,11918,11919,11920,11921,11922,11923,11924,12577,12578,12579,12580,12581,12582,12583,12584,12585,12586,12587,12588,12589,12590,12591,12592,12593,12594,12595,12596,12597,12481,12482,12483,12484,12485,12486,12487,12488,12489,12490,12491,12492,12493,12494,12495,12496,12497,12498,12499,12500,12501,12673,12674,12675,12676,12677,12678,12679,12680,12681,12682,12683,12684,12685,12686,12687,12688,12689,12690,12691,12692,12693,12580,12581,12582,12583,12584,12585,12586,12587,12588,12589,12590,12591,12592,12593,12594,12595,12596,12597,12483,12484,12485,12486,12487,12488,12489,12490,12491,12492,12493,12494,12495,12496,12497,12498,12499,12500,12501,
12001,12002,12003,12004,12005,12006,12007,12008,12009,12010,12011,12012,12013,12014,12015,12016,12017,12018,12019,12020,12673,12674,12675,12676,12677,12678,12679,12680,12681,12682,12683,12684,12685,12686,12687,12688,12689,12690,12691,12692,12693,12577,12578,12579,12580,12581,12582,12583,12584,12585,12586,12587,12588,12589,12590,12591,12592,12593,12594,12595,12596,12597,12769,12770,12771,12772,12773,12774,12775,12776,12777,12778,12779,12780,12781,12782,12783,12784,12785,12786,12787,12788,12789,12676,12677,12678,12679,12680,12681,12682,12683,12684,12685,12686,12687,12688,12689,12690,12691,12692,12693,12579,12580,12581,12582,12583,12584,12585,12586,12587,12588,12589,12590,12591,12592,12593,12594,12595,12596,12597,
12097,12098,12099,12100,12101,12102,12103,12104,12105,12106,12107,12108,12109,12110,12111,12112,12113,12114,12115,12116,12769,12770,12771,12772,12773,12774,12775,12776,12777,12778,12779,12780,12781,12782,12783,12784,12785,12786,12787,12788,12789,12673,12674,12675,12676,12677,12678,12679,12680,12681,12682,12683,12684,12685,12686,12687,12688,12689,12690,12691,12692,12693,12865,12866,12867,12868,12869,12870,12871,12872,12873,12874,12875,12876,12877,12878,12879,12880,12881,12882,12883,12884,12885,12772,12773,12774,12775,12776,12777,12778,12779,12780,12781,12782,12783,12784,12785,12786,12787,12788,12789,12675,12676,12677,12678,12679,12680,12681,12682,12683,12684,12685,12686,12687,12688,12689,12690,12691,12692,12693,
12193,12194,12195,12196,12197,12198,12199,12200,12201,12202,12203,12204,12205,12206,12207,12208,12209,12210,12211,12212,12865,12193,12194,12195,12196,12197,12198,12199,12200,12201,12202,12203,12204,12205,12206,12207,12208,12209,12210,12211,12212,12213,12193,12194,12195,12196,12197,12198,12199,12200,12201,12202,12203,12204,12205,12206,12207,12208,12209,12210,12211,12212,12961,12962,12963,12964,12965,12966,12967,12968,12969,12970,12971,12972,12973,12974,12975,12976,12977,12978,12979,12980,12981,12868,12869,12870,12871,12872,12873,12874,12875,12876,12877,12878,12879,12880,12881,12882,12883,12884,12885,12195,12196,12197,12198,12199,12200,12201,12202,12203,12204,12205,12206,12207,12208,12209,12210,12211,12212,12213,
12289,12290,12291,12292,12293,12294,12295,12296,12297,12298,12299,12300,12301,12302,12303,12304,12305,12306,12307,12308,12961,12289,12290,12291,12292,12293,12294,12295,12296,12297,12298,12299,12300,12301,12302,12303,12304,12305,12306,12307,12308,12309,12289,12290,12291,12292,12293,12294,12295,12296,12297,12298,12299,12300,12301,12302,12303,12304,12305,12306,12307,12308,13057,13058,13059,13060,13061,13062,13063,13064,13065,13066,13067,13068,13069,13070,13071,13072,13073,13074,13075,13076,13077,12964,12965,12966,12967,12968,12969,12970,12971,12972,12973,12974,12975,12976,12977,12978,12979,12980,12981,12291,12292,12293,12294,12295,12296,12297,12298,12299,12300,12301,12302,12303,12304,12305,12306,12307,12308,12309,
12385,12386,12387,12388,12389,12390,12391,12392,12393,12394,12395,12396,12397,12398,12399,12400,12401,12402,12403,12404,13057,12385,12386,12387,12388,12389,12390,12391,12392,12393,12394,12395,12396,12397,12398,12399,12400,12401,12402,12403,12404,12405,12385,12386,12387,12388,12389,12390,12391,12392,12393,12394,12395,12396,12397,12398,12399,12400,12401,12402,12403,12404,12289,12290,12291,12292,12293,12294,12295,12296,12297,12298,12299,12300,12301,12302,12303,12304,12385,12386,13057,13058,13059,13060,13061,13062,13063,13064,13065,13066,13067,13068,13069,13070,13071,13072,13073,13074,13075,13076,13077,12387,12388,12389,12390,12391,12392,12393,12394,12395,12396,12397,12398,12399,12400,12401,12402,12403,12404,12405,
12481,12482,12483,12484,12485,12486,12487,12488,12489,12490,12491,12492,12493,12494,12495,12496,12497,12498,12499,12500,12501,12481,12482,12483,12484,12485,12486,12487,12488,12489,12490,12491,12492,12493,12494,12495,12496,12497,12498,12499,12500,12501,12481,12482,12483,12484,12485,12486,12487,12488,12489,12490,12491,12492,12493,12494,12495,12496,12497,12498,12499,12500,12385,12386,12387,12388,12389,12390,12391,12392,12393,12394,12395,12396,12397,12398,12399,12400,12481,12482,12483,12484,12485,12486,12487,12488,12489,12490,12491,12492,12493,12494,12495,12496,12497,12498,12499,12500,12501,12481,12482,12483,12484,12485,12486,12487,12488,12489,12490,12491,12492,12493,12494,12495,12496,12497,12498,12499,12500,12501,
12577,12578,12579,12580,12581,12582,12583,12584,12585,12586,12587,12588,12589,12590,12591,12592,12593,12594,12595,12596,12597,12577,12578,12579,12580,12581,12582,12583,12584,12585,12586,12587,12588,12589,12590,12591,12592,12593,12594,12595,12596,12597,12577,12578,12579,12580,12581,12582,12583,12584,12585,12586,12587,12588,12589,12590,12591,12592,12593,12594,12595,12596,12481,12482,12483,12484,12485,12486,12487,12488,12489,12490,12491,12492,12493,12494,12495,12496,12577,12578,12579,12580,12581,12582,12583,12584,12585,12586,12587,12588,12589,12590,12591,12592,12593,12594,12595,12596,12597,12577,12578,12579,12580,12581,12582,12583,12584,12585,12586,12587,12588,12589,12590,12591,12592,12593,12594,12595,12596,12597,
12673,12674,12675,12676,12677,12678,12679,12680,12681,12682,12683,12684,12685,12686,12687,12688,12689,12690,12691,12692,12693,12673,12674,12675,12676,12677,12678,12679,12680,12681,12682,12683,12684,12685,12686,12687,12688,12689,12690,12691,12692,12693,12673,12674,12675,12676,12677,12678,12679,12680,12681,12682,12683,12684,12685,12686,12687,12688,12689,12690,12691,12692,12577,12578,12579,12580,12581,12582,12583,12584,12585,12586,12587,12588,12589,12590,12591,12592,12673,12674,12675,12676,12677,12678,12679,12680,12681,12682,12683,12684,12685,12686,12687,12688,12689,12690,12691,12692,12693,12673,12674,12675,12676,12677,12678,12679,12680,12681,12682,12683,12684,12685,12686,12687,12688,12689,12690,12691,12692,12693,
12769,12770,12771,12772,12773,12774,12775,12776,12777,12778,12779,12780,12781,12782,12783,12784,12785,12786,12787,12788,12789,12769,12770,12771,12772,12773,12774,12775,12776,12777,12778,12779,12780,12781,12782,12783,12784,12785,12786,12787,12788,12789,12769,12770,12771,12772,12773,12774,12775,12776,12777,12778,12779,12780,12781,12782,12783,12784,12785,12786,12787,12788,12673,12674,12675,12676,12677,12678,12679,12680,12681,12682,12683,12684,12685,12686,12687,12688,12769,12770,12771,12772,12773,12774,12775,12776,12777,12778,12779,12780,12781,12782,12783,12784,12785,12786,12787,12788,12789,12769,12770,12771,12772,12773,12774,12775,12776,12777,12778,12779,12780,12781,12782,12783,12784,12785,12786,12787,12788,12789,
12865,12866,12867,12868,12869,12870,12871,12872,12873,12874,12875,12876,12877,12878,12879,12880,12881,12882,12883,12884,12885,12865,12866,12867,12868,12869,12870,12871,12872,12873,12874,12875,12876,12877,12878,12879,12880,12881,12882,12883,12884,12885,12865,12866,12867,12868,12869,12870,12871,12872,12873,12874,12875,12876,12877,12878,12879,12880,12881,12882,12883,12884,12769,12770,12771,12772,12773,12774,12775,12776,12777,12778,12779,12780,12781,12782,12783,12784,12865,12866,12867,12868,12869,12870,12871,12872,12873,12874,12875,12876,12877,12878,12879,12880,12881,12882,12883,12884,12885,12865,12866,12867,12868,12869,12870,12871,12872,12873,12874,12875,12876,12877,12878,12879,12880,12881,12882,12883,12884,12885,
12961,12962,12963,12964,12965,12966,12967,12968,12969,12970,12971,12972,12973,12974,12975,12976,12977,12978,12979,12980,12981,12961,12962,12963,12964,12965,12966,12967,12968,12969,12970,12971,12972,12973,12974,12975,12976,12977,12978,12979,12980,12981,12961,12962,12963,12964,12965,12966,12967,12968,12969,12970,12971,12972,12973,12974,12975,12976,12977,12978,12979,12980,12865,12866,12867,12868,12869,12870,12871,12872,12873,12874,12875,12876,12877,12878,12879,12880,12961,12962,12963,12964,12965,12966,12967,12968,12969,12970,12971,12972,12973,12974,12975,12976,12977,12978,12979,12980,12981,12961,12962,12963,12964,12965,12966,12967,12968,12969,12970,12971,12972,12973,12974,12975,12976,12977,12978,12979,12980,12981,
13057,13058,13059,13060,13061,13062,13063,13064,13065,13066,13067,13068,13069,13070,13071,13072,13073,13074,13075,13076,13077,13057,13058,13059,13060,13061,13062,13063,13064,13065,13066,13067,13068,13069,13070,13071,13072,13073,13074,13075,13076,13077,13057,13058,13059,13060,13061,13062,13063,13064,13065,13066,13067,13068,13069,13070,13071,13072,13073,13074,13075,13076,12961,12962,12963,12964,12965,12966,12967,12968,12969,12970,12971,12972,12973,12974,12975,12976,13057,13058,13059,13060,13061,13062,13063,13064,13065,13066,13067,13068,13069,13070,13071,13072,13073,13074,13075,13076,13077,13057,13058,13059,13060,13061,13062,13063,13064,13065,13066,13067,13068,13069,13070,13071,13072,13073,13074,13075,13076,13077
</data>
 </layer>
 <layer id="2" name="Objects" width="120" height="80">
  <data encoding="csv">
0,2814,0,0,2817,0,0,0,0,0,0,0,0,0,0,0,0,0,0,0,0,0,0,2814,0,0,35862,35863,35864,35865,35866,35867,35868,35869,35870,35871,35872,35873,35874,35875,35876,35877,35878,35879,35880,35881,35882,19310,19311,19312,0,0,0,0,0,0,0,0,0,0,0,0,0,0,0,0,0,0,0,0,0,0,0,0,0,0,0,0,0,0,0,0,0,0,0,0,0,0,0,0,0,0,0,0,0,0,0,0,0,0,20234,20235,20236,20237,20238,20239,20240,20241,20242,20243,20244,20245,20246,20247,20248,20249,20250,20251,20252,20253,
0,0,0,0,0,0,0,0,0,0,0,0,0,0,0,0,0,0,0,0,0,0,0,2910,0,0,35958,35959,35960,35961,35962,35963,35964,35965,35966,35967,35968,35969,35970,35971,35972,35973,35974,35975,35976,35977,35978,19326,19327,19328,0,0,0,0,0,0,0,0,0,0,0,0,0,0,0,0,0,0,0,0,0,0,0,0,0,0,0,0,0,0,0,0,0,0,0,0,0,0,0,0,0,0,0,0,0,0,0,0,0,0,20330,20331,20332,20333,20334,20335,20336,20337,20338,20339,20340,20341,20342,20343,20344,20345,20346,20347,20348,20349,
0,0,0,0,0,0,0,0,0,0,0,0,0,19361,19362,19363,19364,19361,19362,19363,19364,0,0,0,0,0,36054,36055,36056,36057,36058,36059,36060,36061,36062,36063,36064,36065,36066,36067,36068,36069,36070,36071,36072,36073,36074,19342,19343,2817,0,0,0,0,0,0,0,0,0,0,0,0,0,0,0,0,0,0,0,0,0,0,0,0,0,0,0,0,0,0,0,0,0,0,0,0,0,0,0,0,0,0,0,0,0,0,0,0,0,0,20426,20427,20428,20429,20430,20431,20432,20433,20434,20435,20436,20437,20438,20439,20440,20441,20442,20443,20444,20445,
0,0,0,0,0,0,0,0,0,0,0,0,48664,19377,19378,19379,19380,19377,19378,19379,19380,0,0,0,0,0,36150,36151,36152,36153,36154,36155,36156,36157,36158,36159,36160,36161,36162,36163,36164,36165,36166,36167,36168,36169,36170,0,0,0,0,0,0,0,0,0,0,0,0,0,0,0,0,0,0,0,0,0,0,0,0,0,0,48664,48665,48666,0,48668,48669,48670,0,0,0,0,0,0,0,0,0,0,19309,19310,19311,19312,0,0,19433,19434,19435,19436,20522,20523,20524,20525,20526,20527,20528,20529,20530,20531,20532,20533,20534,20535,20536,20537,20538,20539,20540,20541,
0,0,0,0,0,19545,19546,0,0,0,0,0,0,19393,19394,19395,19396,19393,19394,19395,19396,0,0,0,0,0,36246,36247,36248,36249,36250,36251,36252,36253,36254,36255,36256,36257,36258,36259,36260,36261,36262,36263,36264,36265,36266,0,0,0,0,0,0,0,0,0,0,0,6823,0,0,0,0,0,0,0,0,0,0,0,0,0,0,48760,48761,0,0,0,48765,48766,0,0,0,0,0,6678,0,0,6681,0,19325,19326,19327,19328,0,0,19449,19450,19451,19452,20618,20619,20620,20621,20622,20623,20624,20625,20626,20627,20628,20629,20630,20631,20632,20633,20634,20635,20636,20637,
0,0,0,0,0,19561,19562,19309,19310,19311,19312,0,0,19409,19410,19411,19412,19409,19410,19411,19412,0,0,0,6828,0,36342,36343,36344,36345,36346,36347,36348,36349,36350,36351,36352,36353,36354,36355,36356,36357,36358,36359,36360,36361,36362,0,0,0,48769,0,0,0,0,0,0,0,0,0,0,0,0,0,0,0,0,0,0,0,0,0,0,48856,0,0,0,0,0,48862,0,0,0,0,0,0,0,0,0,0,19341,19342,19343,19344,0,0,19465,19466,19467,19551,19552,20715,20716,20717,20718,20719,20720,20721,20722,20723,20724,20725,20726,20727,20728,20729,20730,20731,20732,20733,
0,0,0,0,19545,19546,0,19325,19326,19327,19328,0,48952,0,0,0,19477,19478,19479,0,0,0,0,0,0,0,0,36439,36440,36441,36442,36443,36444,36445,36446,36447,36448,36449,36450,36451,36452,36453,36454,36455,36456,36457,36458,0,0,0,48865,0,0,48868,0,0,0,0,0,0,0,0,0,0,0,0,0,0,0,0,0,0,0,48952,0,0,0,0,0,0,0,0,0,0,0,0,0,0,0,0,19357,19358,19359,19360,0,0,0,0,0,19567,19568,20811,20812,20813,20814,20815,20816,20817,20818,20819,20820,20821,20822,20823,20824,20825,20826,20827,20828,20829,
0,0,0,0,19561,19562,0,19341,19342,19343,19344,0,0,0,19530,0,19493,19494,19495,0,0,19530,0,0,0,0,36534,36535,36536,36537,36538,36539,36540,36541,36542,36543,36544,36545,36546,36547,36548,36549,36550,36551,36552,36553,36554,0,0,0,0,0,0,0,0,0,0,0,0,0,0,0,0,0,0,0,0,0,0,0,0,0,0,0,0,0,0,0,0,0,0,0,0,0,0,0,0,0,0,0,0,0,0,0,0,0,0,0,0,0,20906,20907,20908,20909,20910,20911,20912,20913,20914,20915,20916,20917,20918,20919,20920,20921,20922,20923,20924,20925,
0,0,0,0,0,0,19534,19357,19358,19359,19360,0,0,0,0,0,19509,19510,19511,0,0,0,0,0,0,0,0,19317,19318,19319,19320,0,0,0,0,0,0,0,0,0,0,19357,0,0,0,0,0,0,0,0,0,0,0,0,0,0,0,0,0,0,0,0,48872,0,0,48875,0,0,0,0,0,0,0,0,0,0,0,0,0,0,0,0,0,0,0,0,0,0,0,0,0,0,0,0,0,0,0,0,0,0,21002,21003,21004,21005,21006,21007,21008,21009,21010,21011,21012,21013,21014,21015,21016,21017,21018,21019,21020,21021,
0,0,0,0,19433,19434,19435,19436,19534,0,0,0,0,0,0,19530,19525,19526,19527,0,0,0,0,0,0,0,19303,19304,19334,19335,19336,0,0,0,0,0,0,0,0,0,0,0,0,0,0,0,0,0,0,0,0,0,0,0,0,0,0,0,0,0,0,0,0,0,0,48971,0,0,0,0,0,0,0,49240,0,0,0,0,0,0,0,0,0,0,0,0,0,0,0,0,0,0,0,0,0,0,0,0,0,0,21098,21099,21100,21101,21102,21103,21104,21105,21106,21107,21108,21109,21110,21111,21112,21113,21114,21115,21116,21117,
0,0,0,0,19449,19450,19451,19452,0,19534,0,0,49336,49337,0,0,0,0,49342,0,0,0,0,0,19317,19318,19319,19320,19350,19351,19352,0,0,0,0,0,0,0,0,0,0,0,0,0,0,0,0,0,0,0,0,0,0,0,0,0,0,0,0,0,0,0,0,0,0,0,0,0,0,0,0,0,0,49336,0,0,0,0,0,0,0,0,0,0,0,0,0,0,0,0,0,0,0,0,0,0,19433,19434,19435,19436,21194,21195,21196,21197,21198,21199,21200,21201,21202,21203,21204,21205,21206,21207,21208,21209,21210,21211,21212,21213,
0,0,0,0,19465,19466,19467,19468,0,2814,0,0,2817,0,0,0,0,0,0,0,0,0,0,0,0,19334,19335,19336,19301,19302,19303,19304,0,0,0,0,0,0,0,0,0,0,0,0,0,0,0,0,0,0,0,0,0,0,0,0,0,0,0,0,0,0,0,0,0,0,0,0,0,0,0,0,0,0,0,0,0,0,0,0,0,0,0,0,0,0,0,0,0,0,48664,48665,48666,0,48668,48669,19449,19450,19451,19452,21290,21291,21292,21293,21294,21295,21296,21297,21298,21299,21300,21301,21302,21303,21304,21305,21306,21307,21308,21309,
0,0,0,0,0,0,0,0,0,0,0,0,0,0,0,0,0,0,0,0,0,0,0,0,0,19350,19351,19352,19317,19318,19319,19320,0,0,0,0,0,0,0,0,0,0,0,0,0,0,0,0,0,0,0,0,0,0,0,0,0,0,0,0,0,0,0,0,0,0,0,0,0,0,0,0,0,0,0,0,0,0,0,0,0,0,0,0,0,0,0,0,0,0,48760,0,0,0,0,0,19465,19466,19467,19468,21386,21387,21388,21389,21390,21391,21392,21393,21394,21395,21396,21397,21398,21399,21400,21401,21402,21403,21404,21405,
0,0,0,0,0,0,0,0,0,0,0,48769,0,0,48772,0,0,0,0,0,0,0,0,0,0,0,0,0,19333,19334,19335,19336,0,0,0,0,0,0,0,0,0,0,0,0,0,0,0,0,0,0,0,0,0,0,0,0,0,0,0,0,0,0,49352,0,0,0,0,0,0,0,0,0,0,0,0,0,0,0,0,0,0,0,0,0,0,0,0,0,0,0,48856,0,0,0,0,0,48862,19551,19552,6778,20579,20579,20579,21485,21486,21487,21488,21489,21490,21491,21492,21493,21494,21495,21496,21497,21498,21499,21500,21501,
0,0,0,0,0,0,0,0,0,0,0,0,0,0,0,0,0,48769,0,0,0,0,0,0,0,2814,0,0,19349,19350,19351,0,0,0,0,0,0,0,0,0,0,0,0,0,0,0,0,0,0,0,0,0,0,0,0,0,0,0,0,0,0,0,0,0,0,0,0,19309,19310,19311,19312,0,0,0,0,0,0,0,0,0,0,0,0,0,0,0,0,0,0,0,0,0,0,0,0,0,48958,19567,19568,20277,20278,20279,20280,20281,21582,21583,21584,21585,21586,21587,21588,21589,21590,21591,21592,21593,21594,21595,21596,21597,
0,48664,48665,0,0,0,0,0,0,0,0,0,0,0,0,0,0,0,0,0,0,0,0,0,0,0,0,0,0,0,0,0,0,0,0,0,0,0,0,0,0,0,0,0,0,0,0,0,0,0,0,0,0,0,0,0,0,0,0,0,0,0,0,0,0,0,0,19325,19326,19327,19328,0,0,0,0,0,0,0,0,0,0,0,0,0,0,0,0,0,0,0,0,0,0,0,0,0,0,0,0,20373,20374,20375,20376,20377,20378,20379,20380,20381,21682,21683,21684,21685,21686,21687,21688,21689,21690,21691,21692,21693,
0,48760,48761,0,0,0,48765,6820,0,0,6823,0,0,0,0,0,0,0,0,0,0,0,0,0,0,48769,0,0,48772,0,0,0,0,0,0,0,0,0,0,0,0,0,0,0,0,0,0,0,0,0,0,0,0,0,0,0,0,0,0,0,0,0,0,0,0,0,0,19341,19342,19343,19344,0,0,0,0,0,0,0,0,0,0,0,48769,0,0,0,0,0,0,0,0,0,0,0,0,0,0,0,20468,20469,20470,20471,20472,20473,20474,20475,20476,20477,21778,21779,21780,21781,21782,21783,21784,21785,21786,21787,21788,21789,
0,48856,0,0,0,0,0,48862,0,0,0,0,0,0,0,0,0,0,0,0,0,0,0,0,0,48865,0,0,0,0,0,0,0,0,0,0,0,0,0,0,0,0,0,0,0,0,0,0,0,0,0,0,0,0,0,0,0,0,0,0,0,0,0,0,0,0,0,19357,19358,19359,19360,0,0,0,0,0,0,0,0,0,0,0,0,0,0,48868,0,6678,0,0,0,0,0,0,0,0,0,0,0,20579,20566,20567,20568,20569,20570,20571,20572,20573,21874,20575,20576,21877,21878,21879,21880,21881,21882,21883,21884,21885,
0,48952,0,0,0,0,0,48958,0,0,0,0,0,0,0,0,0,0,0,0,0,0,0,0,0,0,0,0,0,0,0,0,0,0,0,0,0,0,0,0,0,0,0,0,0,0,0,0,0,0,0,0,0,0,0,0,0,0,0,0,0,0,0,0,0,0,0,0,0,0,0,6835,0,0,0,0,0,0,0,0,0,0,0,0,0,0,0,0,0,0,0,49337,0,0,0,0,49342,20659,20660,20661,20662,20663,20664,20665,20666,20667,20668,20669,20670,20579,20579,20673,21974,21975,21976,20579,21978,21979,21980,21981,
0,0,0,0,0,0,0,0,0,0,0,0,0,0,0,0,0,0,0,0,0,0,0,0,0,0,0,0,0,0,0,0,0,0,0,0,0,0,0,0,0,0,0,0,0,0,0,0,0,0,0,0,0,0,0,0,0,0,0,0,0,0,0,0,0,0,0,0,0,0,0,0,0,0,0,0,0,0,0,0,0,0,0,0,0,0,0,0,0,0,0,0,0,0,0,19551,19552,20755,20756,20757,20758,20759,20760,20761,20762,20763,20764,20765,20766,20767,20768,20769,20770,20771,20772,20773,22074,22075,22076,22077,
0,0,0,0,0,0,0,0,0,0,0,0,0,0,0,0,0,0,0,0,0,0,0,0,0,0,0,0,0,0,0,0,0,0,0,0,0,0,0,0,0,0,0,0,0,0,0,0,0,0,0,0,0,0,0,0,0,0,0,0,0,0,0,0,0,0,0,0,0,48769,0,0,48772,0,0,0,0,0,0,0,0,0,0,0,0,0,0,0,0,0,6831,0,0,0,0,19567,19568,20851,20852,20853,20854,20855,20856,20857,20858,20859,20860,20861,20862,20863,20864,20865,20866,20867,20868,20869,20579,20579,22172,22173,
0,49240,0,0,0,0,0,0,0,0,0,0,0,0,0,0,0,0,0,0,0,0,0,0,0,0,0,0,0,0,0,0,0,0,0,0,0,0,0,0,0,0,0,0,0,0,19433,19434,19435,19436,0,0,0,0,0,0,0,0,0,0,0,0,0,0,0,0,0,0,2814,0,0,0,0,0,0,0,0,0,0,0,0,0,0,0,0,0,0,0,0,0,0,0,0,0,19551,19552,0,0,0,20949,20950,20951,20952,20953,20954,20955,20956,20957,20958,20959,20960,20961,20962,20963,20964,20965,20966,20967,20968,22269,
0,49336,0,0,0,0,0,0,0,0,0,0,0,0,0,0,0,0,0,6831,0,0,19309,19310,19311,19312,0,0,0,0,0,0,0,0,0,0,0,0,0,0,0,0,0,0,0,19532,19449,19450,19451,0,0,0,0,48872,0,0,0,0,2916,0,0,0,0,0,0,0,0,0,0,0,0,0,0,0,0,0,0,0,0,0,0,0,0,0,0,0,0,0,0,0,0,0,0,0,19567,19568,0,21043,21044,21045,21046,21047,21048,21049,21050,21051,21052,21053,21054,21055,20579,21057,21058,21059,20579,21061,21062,21063,21064,0,
0,0,0,0,0,0,0,0,0,0,0,0,0,0,0,0,6781,0,0,0,0,0,19325,19326,19327,19328,0,0,0,0,0,0,0,0,0,0,0,0,0,0,0,0,0,0,0,0,19465,19466,19467,0,0,0,0,48968,0,0,0,0,0,0,0,0,0,0,0,0,0,0,0,0,0,0,0,0,0,0,0,0,0,0,0,19528,0,0,0,0,0,0,0,0,0,0,0,0,0,0,0,21139,21140,21141,21142,21143,21144,21145,21146,21147,21148,21149,20579,21151,21152,21153,21154,21155,21156,21157,21158,21159,21160,0,
0,0,0,0,0,0,0,19425,19426,19427,19428,0,0,6828,0,0,6831,0,0,0,0,0,19341,19342,19343,19545,19546,0,0,0,0,0,0,0,0,0,0,0,0,0,0,0,0,0,0,0,0,0,0,0,0,0,0,0,0,0,0,0,0,0,0,0,0,0,0,0,0,0,0,0,0,0,0,0,0,0,0,0,19532,19532,0,0,0,0,0,0,0,0,0,0,0,0,0,0,0,0,0,21235,21236,21237,21238,21239,21240,21241,21242,21243,21244,21245,21246,21247,21248,21249,21250,21251,21252,21253,0,19551,19552,0,
0,0,0,0,0,0,0,19441,19442,19443,19444,19528,0,0,0,0,0,0,0,0,0,0,19357,19358,19359,19561,19562,0,0,0,0,0,0,0,0,0,0,0,0,0,0,0,0,0,0,0,0,0,0,0,0,0,0,0,0,0,0,0,0,0,0,0,0,0,0,0,0,0,0,0,0,0,0,0,0,0,0,19532,19534,19534,19532,0,0,0,0,0,0,0,0,19309,19310,19311,19312,0,0,0,0,21331,21332,21333,0,21335,21336,21337,21338,21339,21340,21341,21342,21343,21344,21345,21346,21347,21348,21349,19551,19552,19568,0,
0,0,0,0,0,19425,19426,19427,19443,19459,19460,19528,0,0,0,0,0,0,0,0,0,0,0,19545,19546,0,0,0,0,0,0,0,0,0,0,0,0,0,0,0,0,0,0,0,0,0,0,0,0,0,0,0,0,0,0,0,0,0,0,0,0,0,0,0,0,0,0,0,0,0,0,0,0,0,0,0,0,0,0,0,0,6681,19528,0,0,0,0,0,0,19325,19326,19327,19328,0,0,0,0,0,0,0,19433,19434,19435,19436,21434,21435,21436,21437,21438,0,0,0,0,0,0,0,19567,19568,0,0,
0,0,0,0,6837,19528,19442,19443,19444,19425,19426,19528,19428,0,0,0,0,0,0,0,0,0,0,19561,19562,0,0,0,0,0,0,0,0,0,0,0,0,0,0,0,0,0,0,0,0,0,0,2916,0,0,0,0,0,49352,0,0,0,0,0,0,0,0,0,0,0,0,0,0,0,0,0,0,0,0,0,0,0,0,0,0,0,0,0,0,0,0,0,0,0,19341,19342,19343,19344,0,0,0,0,0,0,0,19449,19450,19451,19452,0,0,0,0,0,0,0,0,0,19551,19552,0,0,0,0,0,
0,0,0,0,0,19457,19458,19459,19460,19528,19442,19443,19444,19528,0,0,0,0,0,0,0,0,0,0,0,0,0,0,0,0,0,0,0,0,0,0,0,0,6820,0,0,6823,0,0,0,0,0,0,0,0,0,0,0,0,0,0,0,0,0,0,0,0,0,0,0,0,0,0,0,0,0,0,0,0,0,0,0,0,0,0,0,0,0,0,0,0,0,0,0,19357,19358,19359,19360,0,0,0,0,0,0,0,19465,19466,19467,19468,0,0,19551,19552,0,19433,19434,19435,19436,19567,19568,0,0,0,0,0,
0,0,0,0,0,0,0,19425,19426,19427,19443,19459,19460,0,0,0,0,0,0,0,0,0,0,0,2814,0,0,0,0,0,0,0,0,0,19433,19434,19435,19436,0,19532,0,0,0,0,0,0,0,0,0,2576,0,0,0,0,19433,19434,19435,19436,19532,0,0,0,0,0,0,0,0,0,0,0,0,0,0,0,0,0,0,0,6828,0,0,0,0,0,0,0,0,0,0,0,0,0,0,0,0,0,0,0,0,0,0,0,0,0,0,0,19567,19568,0,19449,19450,19451,19452,0,0,0,0,0,0,0,
0,0,0,0,0,6681,19528,19441,19442,19443,19444,19528,0,0,0,0,0,0,0,0,0,0,0,0,48769,0,0,48772,0,0,0,0,0,0,19449,19450,19532,19434,19435,19436,0,0,0,0,0,0,0,0,0,0,0,0,0,2576,19449,19450,19451,19452,0,0,0,0,0,0,0,0,0,0,0,0,0,0,0,0,0,0,0,0,0,0,0,0,0,0,0,0,0,0,0,0,0,0,0,0,0,0,0,0,0,0,0,0,0,0,0,0,0,0,34962,19465,19466,19467,19468,34967,34968,34969,34970,34971,34972,34973,
0,0,0,0,0,0,0,19457,19458,19459,19460,0,0,0,0,0,0,0,0,0,0,0,0,0,0,0,0,48868,0,0,0,0,0,0,19465,19466,19532,19450,19451,19452,0,0,0,0,0,0,0,0,0,0,0,0,3651,3652,3653,3654,3655,3656,3657,3658,0,0,0,0,0,0,0,0,0,0,0,6670,0,0,0,0,0,0,0,0,0,0,0,0,0,0,0,0,0,0,0,0,0,0,0,0,0,0,0,0,0,0,0,0,0,0,0,0,35058,35059,35060,35061,35062,35063,35064,35065,35066,35067,35068,35069,
0,0,0,0,0,6781,0,0,0,0,0,0,0,0,0,0,0,0,0,0,0,0,0,0,0,0,0,0,0,0,0,0,0,0,0,0,19465,19466,19467,19468,0,0,0,0,0,0,0,0,0,2576,3745,0,0,0,0,3750,3751,3752,3753,3754,0,0,0,0,0,0,0,0,0,0,0,0,0,0,0,0,0,0,0,0,0,0,0,0,0,0,0,0,0,0,0,0,0,0,0,0,0,0,0,0,0,0,0,0,0,0,0,0,35154,35155,35156,35157,35158,35159,35160,35161,35162,35163,35164,35165,
0,0,6828,0,0,6831,0,0,0,0,0,0,0,0,0,0,0,0,0,0,0,0,0,0,0,0,0,0,0,0,0,0,0,0,0,0,0,0,0,0,0,0,0,0,0,0,0,0,0,0,2576,0,0,0,0,0,3847,3848,3849,3850,0,0,0,0,0,0,0,0,0,0,0,0,0,0,0,0,0,0,0,0,0,0,0,0,0,0,0,0,0,0,0,0,6678,0,0,6681,0,0,0,0,0,0,0,0,0,0,0,0,35250,35251,35252,35253,35254,35255,35256,35257,35258,35259,35260,35261,
0,0,0,0,0,0,0,0,0,48769,0,0,48772,0,0,0,0,0,0,0,0,0,0,0,0,0,0,0,0,0,0,0,0,0,0,0,0,0,0,0,0,0,0,0,0,0,0,0,0,0,0,0,0,0,0,0,0,0,3945,3946,0,0,0,0,0,0,0,0,0,0,0,0,0,0,6823,0,0,0,0,0,0,0,0,0,0,0,0,0,0,0,0,0,0,0,0,0,0,0,0,0,0,0,0,0,0,0,0,0,35346,35347,35348,35349,35350,35351,35352,35353,35354,35355,35356,35357,
0,0,0,0,0,0,0,0,0,0,0,0,0,0,0,0,0,0,0,0,0,0,0,0,0,0,0,0,0,0,0,0,0,0,0,0,0,0,0,0,0,0,19433,19434,19435,19436,0,0,0,0,0,0,0,0,0,0,0,0,4041,4042,0,0,0,0,0,0,0,0,0,0,0,0,0,0,0,0,0,0,0,0,0,0,0,0,0,0,0,0,0,44491,44492,44493,0,0,0,0,0,0,0,0,0,0,0,0,0,0,0,0,35442,35443,35444,35445,35446,35447,35448,35449,35450,35451,35452,35453,
0,0,0,0,0,0,0,0,0,0,0,0,0,0,0,0,0,0,0,0,0,0,0,0,0,0,0,0,0,0,0,0,0,0,0,0,0,0,0,0,0,19532,19449,19450,19451,19452,0,0,0,0,0,0,0,0,0,0,0,0,0,4138,0,0,0,0,0,0,0,0,0,0,0,0,0,0,0,0,0,0,0,0,6820,0,0,0,0,0,0,0,0,44587,44588,0,0,0,0,6831,0,0,0,0,0,0,0,0,0,0,0,0,35538,35539,35540,35541,35542,35543,35544,35545,35546,35547,35548,35549,
0,0,0,0,0,0,0,0,0,0,0,0,0,0,0,0,0,0,0,0,0,0,0,0,0,0,0,0,0,0,0,0,0,0,0,0,0,0,0,0,0,0,19465,19466,19467,19468,0,0,0,0,0,0,0,0,0,0,0,0,0,0,0,0,0,0,0,0,0,0,0,0,0,0,0,0,0,0,0,0,0,0,0,0,0,0,0,0,0,0,0,0,44684,0,44686,44687,0,0,0,0,0,0,0,0,0,0,0,0,0,0,35634,35635,35636,35637,35638,35639,35640,35641,35642,35643,35644,35645,
0,48664,48665,48666,0,0,0,48670,0,0,0,0,0,0,0,0,0,0,48769,0,0,0,0,0,0,0,0,0,0,0,0,0,0,0,0,48872,0,0,48875,0,2817,0,0,19532,0,0,0,0,0,0,0,0,0,0,0,0,0,0,0,0,0,0,0,0,0,0,0,0,0,0,0,0,0,0,0,0,0,0,0,0,0,0,0,0,0,0,0,0,0,0,0,44781,44782,44783,0,0,19309,19310,19311,19312,0,0,0,0,0,0,0,0,35730,35731,35732,35733,35734,35735,35736,35737,35738,35739,35740,35741,
0,48760,48761,0,0,0,0,48766,0,0,0,0,0,0,0,0,0,0,48865,0,0,0,0,0,0,0,0,0,0,0,0,0,0,0,0,0,0,0,0,0,0,0,0,0,0,0,0,0,0,0,0,0,0,0,0,0,0,0,4425,4426,0,0,0,0,0,0,0,0,0,0,0,0,0,0,0,0,0,0,0,0,0,0,0,0,0,0,0,0,0,0,0,44877,44878,44879,0,0,19325,19326,19327,19328,0,0,0,0,0,0,0,0,35826,35827,35828,35829,35830,35831,35832,35833,35834,35835,35836,35837,
0,48856,0,0,0,0,0,0,0,0,0,0,0,0,0,0,0,0,0,0,0,0,0,0,0,0,0,0,0,0,0,0,0,0,0,0,0,0,0,0,0,0,0,0,0,0,0,0,0,0,4513,4514,4515,4516,4517,4518,4519,4520,4521,0,0,0,0,0,0,0,0,0,0,0,0,0,0,0,0,0,0,0,0,0,0,0,0,0,0,0,48668,48669,48670,0,0,0,0,44975,0,0,19341,19342,19343,19344,0,0,0,0,0,0,0,0,35922,35923,35924,35925,35926,35927,35928,35929,35930,35931,35932,35933,
0,0,0,0,0,0,0,48958,0,0,0,0,0,0,0,0,0,0,0,0,0,0,0,0,0,0,0,0,0,0,0,0,0,0,0,0,0,0,0,0,0,0,0,0,0,0,0,0,0,0,4609,4610,4611,4612,4613,4614,4615,0,0,0,0,0,0,0,0,0,0,0,0,0,0,0,0,0,0,0,0,0,0,0,0,0,0,0,0,0,0,48765,48766,0,0,0,0,45071,0,0,19357,19358,19359,19360,0,0,0,0,0,0,0,0,36018,36019,36020,36021,36022,36023,36024,36025,36026,36027,36028,36029,
0,0,0,0,0,0,0,0,0,0,0,0,0,0,0,0,0,0,0,0,0,0,0,0,0,0,0,0,0,0,0,0,0,0,0,0,0,0,0,0,0,0,0,0,0,0,0,0,0,0,19433,19434,19435,19436,0,0,0,0,0,0,0,0,0,0,0,0,0,0,0,0,0,0,0,0,0,0,0,0,0,0,0,0,0,0,0,0,0,0,0,0,0,0,0,45167,0,0,0,0,0,0,0,0,0,0,0,0,0,0,36114,36115,36116,36117,36118,36119,36120,36121,36122,36123,36124,36125,
0,0,0,0,0,0,0,0,0,0,0,0,0,0,0,0,0,0,0,0,0,0,0,0,0,0,0,0,0,0,0,0,0,0,0,49352,0,0,0,0,0,0,0,0,0,0,0,0,0,0,19449,19450,19451,19452,0,0,0,0,0,0,0,0,0,0,0,0,0,0,0,0,0,0,0,0,0,0,0,0,0,0,0,0,0,0,0,0,0,0,0,0,0,0,0,45263,0,0,0,0,0,0,0,0,0,0,0,0,0,0,36210,36211,36212,36213,36214,36215,36216,36217,36218,36219,36220,36221,
0,0,0,0,0,0,0,49246,0,0,0,0,0,0,0,0,0,0,0,0,0,0,0,0,0,0,0,0,0,0,0,0,0,0,0,0,0,0,0,0,0,0,0,0,0,0,0,0,0,0,19465,19466,19467,19532,0,0,0,0,6832,0,6834,0,0,0,0,0,0,0,0,0,0,0,0,0,0,0,0,0,0,0,0,0,0,0,0,0,0,0,0,0,0,0,0,45359,0,0,0,0,0,0,0,0,0,0,0,0,0,0,36306,36307,36308,36309,36310,36311,36312,36313,36314,36315,36316,36317,
0,0,0,0,0,0,0,49342,0,0,0,0,0,0,0,0,0,0,0,0,0,0,0,0,0,0,0,0,0,0,0,0,0,0,0,0,0,0,0,0,0,0,0,0,0,0,0,0,0,0,0,0,0,0,0,0,0,0,0,0,0,0,0,0,0,0,0,0,0,0,0,0,0,0,0,0,0,0,0,0,0,0,0,0,0,0,0,0,0,0,0,0,0,0,0,0,0,0,0,0,0,0,0,0,0,0,0,0,36402,36403,36404,36405,36406,36407,36408,36409,36410,36411,36412,36413,
0,0,0,0,0,0,0,0,0,0,0,19551,19552,0,0,0,0,0,0,6828,0,0,6831,0,0,0,0,0,0,0,0,0,0,0,0,0,0,0,0,0,0,0,0,0,0,0,0,0,0,0,0,0,0,0,0,0,0,0,0,0,0,0,0,0,0,0,0,0,0,0,0,6835,0,0,0,0,0,0,0,0,0,0,0,0,0,0,0,0,0,0,0,0,0,0,0,0,0,0,0,0,0,0,0,0,0,0,0,0,36498,36499,36500,36501,36502,36503,36504,36505,36506,36507,36508,36509,
0,0,0,0,0,0,0,19551,19552,19310,19311,19567,19568,0,0,0,0,0,0,0,0,0,0,0,0,0,0,0,0,0,0,0,0,0,0,0,0,0,0,0,0,0,0,0,0,0,0,0,0,0,0,0,0,0,0,0,0,0,0,0,0,0,0,0,0,0,0,0,0,0,0,0,0,0,0,0,0,0,0,0,0,0,0,0,0,0,0,0,0,0,0,0,0,0,0,0,0,0,0,0,0,0,0,0,0,0,0,0,36594,36595,36596,36597,36598,36599,36600,36601,36602,36603,36604,36605,
0,0,0,0,0,0,0,19567,19568,19326,19327,19328,0,19551,19552,0,0,0,0,0,0,0,0,0,0,0,0,0,0,0,0,0,0,0,0,0,0,0,0,0,0,0,0,0,0,0,0,0,0,0,0,0,0,0,0,0,0,0,0,0,0,0,0,0,0,0,0,0,0,0,0,0,0,0,0,0,0,0,0,0,0,0,0,0,0,0,0,0,0,0,0,0,0,0,0,0,0,0,0,0,0,0,0,0,0,0,0,0,36690,36691,36692,36693,36694,36695,36696,36697,36698,36699,36700,36701,
0,0,0,0,0,0,0,0,19341,19342,19343,19344,0,19567,19568,0,0,0,0,0,0,0,0,0,0,0,19545,19546,19310,19311,19312,0,0,0,0,0,0,0,0,0,0,0,0,0,0,0,0,0,0,0,0,0,0,0,0,0,0,0,0,0,0,0,0,0,0,0,0,0,0,0,0,0,0,0,0,0,0,0,0,0,0,0,0,0,0,0,0,0,0,0,0,0,0,0,0,0,0,0,0,0,0,0,0,0,0,0,0,48664,36786,36787,36788,36789,36790,36791,36792,36793,36794,36795,36796,36797,
0,0,0,0,0,0,19551,19552,19357,19358,19359,0,0,0,0,0,0,0,0,0,0,0,0,0,0,0,19561,19562,19326,19327,19328,0,0,0,0,0,0,0,0,0,0,0,0,0,0,0,0,0,0,0,0,0,0,0,0,0,0,0,0,0,0,0,0,0,0,0,0,0,0,0,0,0,0,0,0,0,0,0,0,0,0,0,0,0,0,0,0,0,0,0,0,0,0,0,0,0,0,0,0,0,0,0,0,0,0,0,0,48760,36882,0,36884,36885,36886,36887,36888,36889,36890,36891,36892,36893,
0,0,0,0,0,6673,19567,19568,19545,19546,0,0,0,0,6681,0,0,0,0,0,0,0,0,0,0,0,0,19341,19342,19343,19344,0,0,0,0,0,0,0,0,0,0,0,0,0,0,0,0,0,0,0,0,0,0,0,0,0,0,0,0,0,0,0,0,0,0,0,0,0,0,0,0,0,0,0,0,0,0,0,0,0,0,0,0,0,0,0,0,0,0,0,0,0,0,0,0,0,0,0,0,0,0,0,0,0,0,0,0,48856,0,0,0,0,0,48862,0,0,0,0,0,0,
0,0,0,0,0,0,0,0,19561,19562,0,0,0,0,0,0,0,0,0,0,0,0,0,0,0,0,0,19357,19358,19359,19360,0,0,0,0,0,0,0,48872,0,0,48875,0,0,0,0,0,0,0,0,0,0,0,0,0,0,0,0,0,0,0,0,0,0,0,0,0,0,0,48772,0,0,0,0,0,0,0,0,0,0,0,0,0,0,0,0,0,0,0,0,0,0,0,0,0,0,0,0,0,0,0,0,0,0,0,0,0,0,0,0,0,0,0,0,0,0,0,0,0,0,
0,0,0,0,6681,0,0,0,0,0,0,0,0,0,0,0,0,0,0,0,0,0,0,0,0,0,0,0,0,0,0,0,0,0,0,0,0,0,48968,0,0,0,0,0,0,0,0,0,0,0,0,0,0,0,0,0,0,48872,48873,0,48875,0,0,0,0,0,0,0,0,48868,0,0,0,0,0,0,0,0,0,0,0,0,0,0,0,0,0,0,0,0,0,0,0,0,0,0,0,0,0,0,0,0,0,0,0,0,0,0,0,0,0,0,0,0,0,0,0,0,0,0,
0,0,0,0,0,0,0,0,0,0,0,0,0,0,0,0,0,0,0,0,0,0,0,0,0,0,0,0,0,0,0,0,0,0,2814,0,0,0,0,0,0,0,0,0,0,0,0,0,0,0,0,0,0,0,0,0,0,0,0,0,0,0,0,0,0,0,0,0,0,0,0,0,0,0,0,0,0,0,0,0,0,0,0,0,0,0,0,0,0,0,0,46317,46318,46319,0,0,0,0,19301,19302,19303,19304,0,0,0,0,0,0,0,0,0,0,0,0,0,0,0,0,0,0,
0,0,0,0,0,0,0,0,0,0,0,0,0,0,0,0,0,0,0,0,0,0,0,0,0,0,0,0,0,0,0,0,0,0,2910,0,0,0,0,0,0,0,0,0,0,0,0,0,0,0,0,0,0,19529,0,0,0,0,0,0,0,0,0,0,0,0,0,0,0,0,0,0,0,0,0,0,0,0,0,0,0,0,0,0,0,0,0,0,0,0,0,0,0,0,0,0,19519,19520,19317,19318,19319,19320,0,0,0,0,0,0,0,0,0,0,0,0,0,0,0,0,0,0,
0,0,0,0,0,0,0,0,0,0,0,0,6678,0,0,6681,0,0,0,0,0,0,0,0,0,0,0,0,0,0,0,0,0,0,0,0,0,0,0,0,0,0,0,0,0,0,0,0,0,0,0,0,0,0,0,19529,0,0,0,0,0,0,0,0,0,0,0,0,0,0,0,0,0,0,0,0,0,0,0,0,0,0,0,0,0,0,0,0,0,0,0,0,0,0,0,0,19535,19536,19333,19334,19335,0,0,0,0,0,0,49336,0,0,0,0,0,49342,25755,25755,0,0,0,0,
0,0,0,0,0,0,48769,0,0,0,0,0,0,0,0,0,0,0,0,0,0,0,0,0,0,0,0,0,0,0,0,0,0,0,0,0,0,0,49352,0,0,49355,0,0,0,0,0,0,0,0,0,0,0,0,19529,19529,0,0,0,0,0,0,0,0,0,0,0,0,0,0,0,0,0,0,0,0,0,0,0,48872,0,0,0,0,0,0,0,0,0,0,0,19349,0,0,19519,19520,19301,19302,19520,19350,19351,0,0,0,0,0,0,0,0,0,0,0,0,0,0,0,0,0,0,0,
35518,35519,35520,35521,35522,0,0,0,0,0,0,0,0,0,0,0,0,0,0,0,0,0,0,0,0,0,0,48769,0,0,0,0,0,0,0,0,0,0,0,0,0,0,0,0,0,0,0,0,0,0,0,0,0,19529,0,0,0,0,0,0,0,0,0,0,0,6828,0,0,0,0,0,0,0,0,0,0,0,0,0,48968,0,0,0,0,2814,0,0,0,0,0,0,0,0,0,19535,19536,19317,19318,19319,19320,0,0,0,0,0,0,0,0,0,0,0,0,6781,0,0,0,0,0,0,0,
35614,35615,35616,35617,35618,35619,0,0,0,0,0,0,6828,0,0,6831,0,0,0,0,0,0,0,0,0,0,0,0,0,0,0,0,0,0,0,0,0,0,0,0,0,0,0,0,0,0,0,0,0,0,0,0,0,0,19357,0,0,0,0,0,0,0,0,0,0,0,0,0,0,0,0,0,0,0,0,0,0,0,0,0,0,0,0,0,0,0,0,0,0,0,0,0,0,0,0,0,19333,19334,19335,19336,0,0,0,0,0,0,0,0,0,6828,0,0,0,0,0,0,0,0,0,0,
35710,35711,35712,35713,35714,35715,0,0,0,0,0,0,0,0,0,0,0,48664,0,0,0,0,0,48670,0,0,0,0,0,0,0,0,0,0,0,0,0,0,0,0,0,0,0,0,0,0,0,0,0,0,0,0,0,0,0,0,0,0,0,0,0,0,0,0,0,0,0,0,0,0,0,0,0,0,0,0,0,0,0,0,0,0,0,0,0,0,0,0,0,0,0,0,0,0,0,0,19349,19350,19351,19352,0,0,0,6670,0,0,0,0,0,0,0,0,0,0,0,0,0,0,0,0,
35806,35807,35808,35809,35810,35811,0,0,0,0,0,0,0,0,0,0,0,0,0,0,0,0,0,48766,0,0,0,0,0,0,0,0,0,0,0,0,0,0,0,0,0,0,0,0,0,0,0,0,0,3204,0,0,0,0,0,0,0,0,0,0,0,0,0,0,0,0,0,0,0,0,0,0,0,0,0,0,0,0,0,0,0,0,0,0,0,0,0,0,0,0,0,0,0,0,0,0,0,0,0,0,0,0,0,0,0,0,0,0,0,0,0,0,0,0,0,0,0,0,0,0,
35902,35903,35904,35905,35906,35907,0,0,0,0,0,0,0,0,0,0,0,48856,0,0,0,0,0,48862,0,0,0,0,0,0,0,0,0,0,0,0,0,0,0,0,0,0,0,0,0,0,0,0,0,0,0,0,0,0,0,0,0,0,0,0,0,0,0,0,0,0,0,0,6831,0,0,0,0,0,0,0,0,0,0,49352,0,0,0,0,3198,0,0,0,0,0,0,0,0,48872,0,0,48875,0,0,0,0,0,0,0,0,0,0,0,0,0,0,0,0,0,0,0,0,0,0,0,
35998,35999,36000,36001,36002,36003,0,0,0,0,0,0,0,0,0,0,0,48952,0,0,0,0,0,48958,0,0,0,0,0,0,0,0,0,0,0,0,0,0,0,0,0,0,0,0,0,0,0,0,0,0,0,0,0,0,0,0,0,0,0,0,0,0,0,0,0,0,0,0,0,0,0,0,0,0,0,0,0,0,0,0,0,0,0,0,0,0,0,0,0,0,0,0,0,0,0,0,0,0,0,0,0,0,0,0,0,0,0,0,0,0,0,0,0,0,0,0,0,0,0,0,
36094,36095,36096,36097,36098,36099,0,6828,0,0,0,0,0,0,0,0,0,0,0,0,0,0,0,0,0,0,0,0,0,0,0,0,0,0,0,0,0,0,0,0,0,0,0,0,0,0,0,0,0,0,0,0,0,0,0,0,0,0,0,0,0,0,0,0,0,0,0,0,0,0,0,0,0,0,0,0,0,0,0,0,0,0,0,0,0,0,0,0,0,0,0,0,0,0,0,0,0,0,0,0,0,0,0,0,0,0,0,0,0,0,0,34962,34963,34964,34965,34966,34967,34968,34969,34970,
36190,36191,36192,36193,36194,36195,0,0,0,0,0,19551,19552,0,0,0,0,0,0,0,0,0,0,0,0,0,0,0,0,0,0,0,0,0,0,0,0,0,6773,0,0,0,0,6681,0,0,0,0,0,0,0,0,0,0,0,0,19529,0,19437,19438,19439,19440,0,19529,0,6670,0,0,0,0,0,0,0,0,0,0,0,0,0,0,0,0,0,0,0,0,0,0,0,0,0,0,0,0,0,0,0,0,0,0,0,0,0,0,0,0,6820,0,0,0,0,35058,35059,35060,35061,35062,35063,35064,35065,35066,
36286,36287,36288,36289,36290,36291,0,0,0,0,0,19567,19568,0,0,0,0,0,0,0,0,0,0,49246,0,0,0,0,0,0,0,0,0,0,0,0,0,0,6823,0,0,0,0,0,0,0,0,0,0,0,0,0,0,0,0,0,0,0,19453,19454,19455,19456,0,0,0,0,0,0,0,0,0,0,0,0,0,0,0,0,0,0,0,0,0,0,0,0,0,0,6820,0,0,0,0,0,0,0,0,0,0,0,0,0,0,19429,19430,19431,19432,0,0,0,0,0,35155,35156,35157,35158,35159,35160,35161,35162,
36382,36383,36384,36385,36386,36387,0,0,0,19551,19552,19310,19311,19312,19551,19552,0,0,0,0,0,0,0,49342,0,6678,0,0,0,0,0,0,0,0,0,0,0,0,0,0,0,0,0,0,0,0,0,0,0,0,0,0,0,0,19437,19438,19439,19454,19366,19454,19368,19472,19480,19481,19482,0,0,0,0,0,0,0,0,0,0,0,0,0,0,0,0,0,0,0,0,0,0,0,0,0,0,0,0,0,0,0,0,0,0,0,0,0,6823,19445,19446,19447,19448,0,0,0,0,0,35251,35252,35253,35254,35255,35256,35257,35258,
0,0,6670,0,0,0,0,0,0,19567,19568,19326,19327,19328,19567,19568,0,49336,0,0,0,0,0,49342,0,0,0,0,0,0,0,0,0,0,0,0,0,0,0,0,6828,0,0,6831,0,0,0,0,0,0,0,0,0,19529,19453,19454,19455,19454,19382,19383,19384,19529,19496,19497,19498,6820,0,0,0,0,0,0,0,0,0,0,0,0,0,0,0,0,0,0,0,0,19309,19310,19311,19312,0,0,0,0,0,0,0,0,0,0,0,0,0,19461,19462,19463,19464,0,0,0,0,0,35347,35348,35349,35350,35351,35352,35353,35354,
0,0,0,0,0,0,0,0,0,0,19341,19342,19343,19545,19546,6678,0,0,6681,0,0,0,0,0,0,0,0,0,0,0,0,0,0,0,0,0,0,0,0,0,0,0,0,48769,0,0,0,0,0,0,0,6831,0,0,19469,19470,19529,19397,19398,19399,19400,0,19512,19513,19514,0,0,0,0,0,0,0,0,0,48664,48665,0,0,0,0,48670,0,0,0,0,0,19325,19326,19327,19328,0,0,0,0,0,0,0,0,19531,0,0,0,19531,0,0,19531,19429,19430,19431,19432,0,35442,35443,35444,35445,35446,35447,35448,35449,35450,
0,0,0,0,0,6773,0,0,0,0,19357,19358,19359,19561,19562,0,0,0,0,0,0,0,0,0,0,6828,0,0,6831,0,0,0,0,0,0,0,0,0,0,0,0,0,0,48865,0,0,48868,0,0,0,0,0,0,0,19480,19481,19482,19413,19454,19454,19454,0,0,0,0,19529,0,0,0,0,0,0,0,0,48760,0,0,0,0,0,48766,0,0,0,0,0,19341,19342,19343,19344,0,0,0,0,0,0,0,0,0,0,0,19429,19430,19431,19432,0,19445,19446,19447,19448,0,35538,35539,35540,35541,35542,35543,35544,35545,35546,
0,0,6820,0,0,0,0,0,0,0,0,0,0,0,0,0,0,0,0,0,0,0,0,0,0,0,0,0,0,0,0,0,0,0,0,0,0,0,0,0,0,0,0,0,0,0,0,0,0,0,0,0,0,0,19496,19497,19498,19413,19414,19415,19416,0,0,19480,19481,19482,0,0,0,0,0,0,0,0,48856,0,0,0,0,0,48862,0,0,0,0,0,19357,19358,19359,19360,0,0,0,0,0,0,0,0,0,19531,0,19445,19446,19447,19448,0,19461,19462,19463,19464,0,35634,35635,35636,35637,35638,35639,35640,35641,35642,
0,0,0,0,0,0,0,0,0,0,0,0,0,0,0,0,0,0,6831,0,0,0,0,0,0,0,0,0,0,19545,19546,0,0,0,0,0,0,0,0,0,0,0,0,0,0,0,0,2916,0,0,0,0,0,0,19512,19513,19514,0,19480,19481,19482,0,19529,19496,19497,19498,0,0,0,0,0,2814,0,0,0,0,0,0,0,0,48958,0,0,0,0,0,0,0,0,0,0,0,0,0,6823,0,0,0,19531,0,0,19461,19462,19463,19464,19430,19431,19432,0,0,0,35730,35731,35732,35733,35734,35735,35736,35737,35738,
0,0,0,0,0,0,0,0,0,0,0,0,0,0,0,0,0,0,0,0,0,0,0,0,0,0,19483,19484,19485,19561,19562,19539,19540,19539,19540,0,0,0,0,0,0,0,0,0,0,0,0,0,0,6820,0,0,0,0,0,0,0,19529,19496,19497,19498,0,0,19512,19513,19514,0,0,0,0,0,0,0,0,0,0,0,0,0,0,0,0,0,0,0,0,0,0,0,0,0,0,0,0,0,0,0,0,0,0,19531,0,0,0,19445,19446,19447,19448,0,0,0,35826,35827,35828,35829,35830,35831,35832,35833,35834,
0,0,0,0,19531,0,19531,0,0,0,0,0,0,0,0,0,0,0,0,0,0,0,0,0,0,0,0,19500,19501,0,0,19555,19556,19555,19556,19545,19546,19484,19485,0,0,0,0,0,0,0,0,0,0,0,0,0,0,0,0,19529,0,0,19512,19513,19514,6670,0,0,6673,0,0,0,0,0,0,0,0,0,0,0,0,0,0,0,0,0,0,0,0,0,0,0,0,0,0,0,19477,19478,19479,0,0,0,0,0,0,19429,19430,19431,19432,19462,0,0,0,0,0,35922,35923,35924,35925,35926,35927,35928,35929,35930,
0,0,0,0,0,0,0,19531,0,0,0,0,0,0,0,0,0,0,0,0,0,0,0,0,0,0,0,19516,19517,19309,19310,19311,19312,19539,19540,19561,19562,19500,19501,0,0,0,0,0,0,0,0,0,0,0,0,0,0,0,0,0,0,0,0,0,0,0,0,0,0,0,0,0,0,0,0,0,0,0,0,0,0,0,0,0,0,0,0,0,0,0,0,0,0,0,0,0,19493,19494,19495,0,0,0,0,19531,0,19445,19446,19447,19448,0,0,0,0,0,0,36018,36019,36020,36021,36022,36023,36024,36025,36026,
0,0,19531,19429,19430,19431,19432,0,0,0,0,0,0,0,6823,0,0,0,0,0,0,0,0,0,0,0,0,0,0,19325,19326,19327,19328,19555,19556,0,19515,19516,19500,0,0,0,0,0,0,0,0,0,0,0,0,0,0,0,0,0,0,0,0,0,0,0,0,0,0,0,0,0,0,0,0,0,0,0,0,0,0,0,0,0,0,0,0,0,0,0,0,0,0,6823,0,0,19509,19510,19511,0,0,0,0,19531,0,19461,19462,19463,19464,0,0,0,0,0,0,36114,36115,36116,36117,36118,36119,36120,36121,36122,
0,0,0,19445,19446,19447,19448,0,0,0,0,0,0,0,0,0,0,0,0,0,0,0,0,0,0,0,0,0,0,19341,19342,19343,19344,19483,19484,19485,19545,19546,0,0,0,0,0,0,0,0,0,0,0,0,0,0,0,0,0,0,0,0,0,0,0,0,0,0,0,0,0,0,0,0,0,0,0,0,0,0,0,0,0,0,0,0,0,0,0,0,0,0,0,0,0,0,19525,19526,19527,0,0,0,0,0,0,0,0,0,0,0,0,0,0,0,0,36210,36211,36212,36213,36214,36215,36216,36217,36218,
0,0,0,19461,19462,19463,19464,19531,0,0,0,0,0,0,0,0,0,0,0,0,0,0,0,0,19515,0,0,0,0,0,19358,19359,19360,19499,19500,19501,19561,19562,0,0,0,0,0,0,0,0,0,0,0,0,0,0,0,0,0,0,0,0,0,0,0,0,0,0,0,0,0,0,0,0,0,0,0,0,0,0,0,0,0,0,0,0,0,0,0,0,0,0,0,0,0,0,0,0,0,0,0,0,0,0,0,0,0,0,0,0,0,0,0,0,0,36306,36307,36308,36309,36310,36311,36312,36313,36314,
0,0,0,0,0,0,0,0,0,0,0,0,0,0,0,0,0,0,0,0,0,0,0,0,0,0,0,0,0,0,0,0,0,19515,19516,19517,0,0,0,0,0,0,0,0,0,0,0,0,0,0,0,0,0,0,0,0,0,0,0,0,0,0,0,0,0,0,0,0,0,0,0,0,0,0,0,0,0,0,0,0,0,0,0,0,0,0,0,0,0,0,0,0,0,0,0,0,0,0,0,0,0,0,0,0,0,0,0,0,0,0,0,36402,36403,36404,36405,36406,36407,36408,36409,36410
</data>
 </layer>
 <layer id="5" name="Foreground" width="120" height="80">
  <data encoding="csv">
0,0,0,0,0,0,0,0,0,0,0,0,0,0,0,0,0,0,0,0,0,0,0,0,0,0,0,0,0,0,0,0,0,0,0,0,0,0,0,0,0,0,0,0,0,0,0,0,0,0,0,0,0,0,0,0,0,0,0,0,0,0,0,0,0,0,0,0,0,0,0,0,0,0,0,0,0,0,0,0,0,0,0,0,0,0,0,0,0,0,0,0,0,0,0,0,0,0,0,0,0,0,0,0,0,0,0,0,0,0,0,0,0,0,0,0,0,0,0,0,
0,0,0,0,0,0,0,0,0,0,0,0,0,0,0,0,0,0,0,0,0,0,0,0,0,0,0,0,0,0,0,0,0,0,0,0,0,0,0,0,0,0,0,0,0,0,0,0,0,0,0,0,0,0,0,0,0,0,0,0,0,0,0,0,0,0,0,0,0,0,0,0,0,0,0,0,0,0,0,0,0,0,0,0,0,0,0,0,0,0,0,0,0,0,0,0,0,0,0,0,0,0,0,0,0,0,0,0,0,0,0,0,0,0,0,0,0,0,0,0,
0,0,0,0,0,0,0,0,0,0,0,0,0,0,0,0,0,0,0,0,0,0,0,6670,6671,6672,6673,0,0,0,0,0,0,0,0,0,0,0,0,0,0,0,0,0,0,0,0,0,0,0,0,0,0,0,0,0,0,0,0,0,0,0,0,0,0,0,6678,6679,6680,6681,0,0,48769,48770,48771,48772,0,0,0,0,0,0,0,0,0,0,0,0,0,0,0,0,0,0,0,0,0,0,0,0,0,0,0,0,0,0,0,0,0,0,0,0,0,0,0,0,0,0,0,0,
0,0,0,0,0,0,0,0,0,0,0,0,0,0,0,0,0,0,0,0,0,0,0,6720,6721,6722,6723,0,0,0,0,0,0,0,0,0,0,0,0,0,0,0,0,0,0,0,0,0,0,0,0,0,0,0,0,0,0,0,0,0,0,0,0,0,0,0,6728,6729,6730,6731,0,0,48865,48866,48867,48868,0,0,0,0,0,0,0,0,0,0,0,0,0,0,0,0,0,0,0,0,0,0,0,0,0,0,0,0,0,0,0,0,0,0,0,0,0,0,0,0,0,0,0,0,
0,0,0,0,0,0,0,0,0,0,0,0,0,0,0,0,0,0,0,0,0,0,0,6770,6771,6772,6773,0,0,0,0,0,0,0,0,0,0,0,0,0,0,0,0,0,0,0,0,0,0,0,0,0,0,0,0,0,0,0,0,0,0,0,0,0,0,0,6778,6779,6780,6781,0,0,48961,48962,48963,48964,0,0,0,48664,48665,48666,48667,48668,48669,48670,0,0,0,0,0,0,0,0,0,0,0,0,0,0,0,0,0,0,0,0,0,0,0,0,0,0,0,0,0,0,0,0,0,0,
0,0,0,0,0,0,0,0,0,0,0,0,0,0,0,0,0,0,0,0,0,0,0,6820,6821,6822,6823,0,0,0,0,0,0,0,0,0,0,0,0,0,0,0,0,48664,48665,48666,48667,48668,48669,48670,0,0,0,0,0,0,0,0,0,0,0,0,0,0,0,0,6828,6829,6830,6831,0,0,49057,49058,49059,49060,0,0,0,48760,48761,48762,48763,48764,48765,48766,6778,0,0,6781,0,0,0,0,0,0,0,0,0,0,0,0,0,0,0,0,0,0,0,0,0,0,0,0,0,0,0,0,0,0,
0,0,0,0,0,0,0,0,0,0,0,0,0,0,0,0,0,0,0,0,0,0,0,0,0,0,0,0,0,0,0,0,0,0,0,0,0,0,0,0,0,0,0,48760,48761,48762,48763,48764,48765,48766,0,0,0,0,0,0,0,0,0,0,0,0,48769,48770,48771,48772,0,0,0,0,0,0,49153,49154,49155,49156,0,0,0,48856,48857,48858,48859,48860,48861,48862,6828,0,0,6831,0,0,0,0,0,0,0,0,0,0,0,0,0,0,0,0,0,0,0,0,0,0,0,0,0,0,0,0,0,0,
0,0,0,0,0,0,0,0,0,0,0,0,0,0,0,0,0,0,0,0,0,0,0,0,0,0,0,0,0,0,0,0,0,0,0,0,0,0,0,0,0,0,0,48856,48857,48858,48859,48860,48861,48862,0,0,0,0,0,0,0,0,0,0,0,0,48865,48866,48867,48868,0,0,0,0,0,0,49249,49250,49251,49252,0,0,0,48952,48953,48954,48955,48956,48957,48958,0,0,0,6678,6679,6680,6681,0,0,0,0,0,0,0,0,0,0,0,0,0,0,0,0,0,0,0,0,0,0,0,0,0,0,0,
0,0,0,0,0,0,0,0,0,0,0,0,0,0,0,0,0,0,0,0,0,0,0,0,0,0,0,0,0,0,0,0,0,0,0,0,0,0,0,0,0,0,0,48952,48953,48954,48955,48956,48957,48958,0,0,0,0,0,0,6837,0,0,0,0,0,48961,48962,48963,48964,0,0,0,0,0,0,49345,49346,49347,49348,0,0,0,49048,49049,49050,49051,49052,49053,49054,0,0,0,6728,6729,6730,6731,0,0,0,0,0,0,0,0,0,0,0,0,0,0,0,0,0,0,0,0,0,0,0,0,0,0,0,
0,0,0,0,0,0,0,0,0,0,0,0,0,0,0,0,0,0,0,0,0,0,0,0,0,0,0,0,0,0,0,0,6835,0,6837,0,0,0,0,0,0,0,0,49048,49049,49050,49051,49052,49053,49054,0,0,0,0,0,0,0,0,0,0,0,0,49057,49058,49059,49060,0,0,0,0,0,0,0,0,0,0,0,0,0,49144,49145,49146,49147,49148,49149,49150,0,0,0,6778,6779,6780,6781,0,0,0,0,0,0,0,0,0,0,0,0,0,0,0,0,0,0,0,0,0,0,0,0,0,0,0,
0,0,0,0,0,0,0,0,0,0,0,0,0,0,0,0,0,0,0,0,0,0,0,0,0,0,0,0,0,0,0,0,0,0,0,0,0,0,0,0,0,0,0,49144,49145,49146,49147,49148,49149,49150,0,0,0,0,0,0,0,0,0,0,0,0,49153,49154,49155,49156,0,0,0,0,0,0,0,0,0,0,0,0,0,49240,49241,49242,49243,49244,49245,49246,0,0,0,6828,6829,6830,6831,0,0,0,0,0,0,0,0,0,0,0,0,0,0,0,0,0,0,0,0,0,0,0,0,0,0,0,
0,0,0,0,0,0,0,0,0,48872,48873,48874,48875,48876,0,0,0,0,0,0,0,0,6773,0,0,0,0,0,0,0,0,0,0,0,0,0,0,0,0,0,0,0,0,49240,49241,49242,49243,49244,49245,49246,0,0,0,0,0,0,0,0,0,0,0,0,49249,49250,49251,49252,0,0,0,0,0,0,0,0,0,0,0,0,0,6681,49337,49338,49339,49340,49341,49342,0,0,0,0,0,0,0,0,0,0,0,0,0,0,0,0,0,0,0,0,0,0,0,0,0,0,0,0,0,0,0,0,0,0,
0,0,0,0,0,0,0,0,0,48968,48969,48970,48971,48972,48664,48665,0,0,48668,6820,0,0,6823,0,0,0,0,0,0,0,0,0,0,0,0,0,0,0,6837,0,0,0,0,49336,49337,49338,49339,49340,49341,49342,0,0,0,0,0,0,0,0,0,0,0,0,49345,49346,49347,49348,0,0,0,0,0,0,0,0,0,0,0,0,0,0,0,0,0,0,0,0,0,0,0,0,0,0,0,0,0,0,0,0,0,0,0,0,0,0,0,0,0,0,0,0,0,0,0,0,0,0,0,0,0,0,
0,0,48664,48665,48666,48667,48668,48669,48670,49064,49065,49066,49067,49068,48760,48761,0,0,0,48765,48766,0,0,0,0,0,0,0,0,0,0,0,0,0,0,0,0,0,0,0,0,0,0,0,0,0,0,0,0,0,0,0,0,0,0,0,0,0,0,0,0,0,0,0,0,0,0,0,0,0,0,0,0,0,0,0,0,0,0,0,0,0,0,0,0,0,0,0,0,0,6681,0,6678,6679,6680,6681,0,0,0,0,0,0,0,0,0,0,0,0,0,0,0,0,0,0,0,0,0,0,0,0,
0,0,48760,48761,48762,48763,48764,48765,48766,49160,49161,49162,49163,49164,48856,0,0,0,0,0,48862,6685,6686,6687,0,0,0,0,0,0,0,0,0,0,0,0,0,0,0,0,0,0,0,0,0,0,0,0,0,0,0,0,0,0,0,0,0,0,0,0,0,0,0,0,0,0,0,0,0,0,0,0,0,0,0,0,6828,0,0,6831,0,0,0,0,0,0,6728,0,0,0,6731,0,6728,6729,6730,6731,0,0,0,0,0,0,0,0,0,0,0,0,0,0,0,0,0,0,0,0,0,0,0,0,
0,0,48856,48857,48858,48859,48860,48861,48862,49256,49257,49258,49259,49260,48952,0,0,0,0,0,48958,6735,6736,6737,0,48872,48873,48874,48875,48876,0,0,0,0,0,0,0,0,0,0,0,0,0,0,0,0,0,0,0,0,0,0,0,0,0,0,0,0,0,0,0,0,0,0,0,0,0,0,0,0,0,0,0,0,0,0,0,0,0,0,0,0,0,0,0,0,6778,0,0,0,6781,0,6778,6779,6780,6781,0,0,0,0,0,0,0,0,0,0,0,0,0,0,0,0,0,0,0,0,0,0,0,0,
0,0,48952,48953,48954,48955,48956,48957,48958,49352,49353,49354,49355,49356,0,0,0,0,0,0,0,6785,6786,6787,0,48968,48969,48970,48971,48972,0,0,0,0,0,0,0,0,0,0,0,0,0,0,0,0,0,0,0,0,0,0,0,0,0,0,0,0,0,0,0,0,0,0,0,0,0,0,0,0,0,0,0,0,0,0,0,0,0,0,0,0,0,0,0,0,6828,6828,0,0,6831,0,6828,6829,6830,6831,0,0,0,0,0,0,0,0,0,0,0,0,0,0,0,0,0,0,0,0,0,0,0,0,
0,0,49048,49049,49050,49051,49052,49053,49054,0,0,0,0,0,0,0,0,0,0,0,0,6835,6836,6837,0,49064,49065,49066,49067,49068,0,0,0,0,0,0,0,0,0,0,0,0,0,0,0,0,0,0,0,0,0,0,0,0,0,0,0,0,0,0,0,0,0,0,0,0,0,0,0,0,0,0,0,0,0,0,0,0,0,0,0,0,0,0,0,0,0,0,0,0,0,0,0,0,0,0,0,0,0,0,0,0,0,0,0,0,0,0,0,0,0,0,0,0,0,0,0,0,0,0,
0,0,49144,49145,49146,49147,49148,49149,49150,0,0,0,0,0,0,0,0,0,0,0,0,0,0,0,0,49160,49161,49162,49163,49164,0,0,0,0,0,0,0,0,0,0,0,0,0,0,0,0,0,0,0,0,0,0,0,0,0,0,0,0,0,0,0,0,0,0,0,0,0,0,0,0,0,0,0,0,0,0,0,6778,0,0,0,48769,48770,48771,48772,0,6678,0,0,0,0,0,0,0,0,0,0,0,0,0,0,0,0,0,0,0,0,0,0,0,0,0,0,0,0,0,0,0,0,0,
0,0,49240,49241,49242,49243,49244,49245,49246,0,0,6670,6671,6672,6673,0,0,0,0,0,49342,0,0,0,0,49256,49257,49258,49259,49260,0,0,0,0,0,0,0,0,0,0,0,0,0,0,0,0,0,0,0,0,0,0,0,0,0,0,0,0,0,0,0,0,0,0,0,0,0,0,0,0,0,0,0,0,0,0,0,6828,0,0,6831,48865,48866,48867,48868,0,0,0,0,0,0,0,0,0,0,0,0,0,0,0,0,0,0,0,0,0,0,0,0,0,0,0,0,0,0,0,0,0,0,0,
0,0,49336,49337,49338,49339,49340,49341,49342,0,0,6720,6721,6722,6723,0,0,0,0,0,0,0,0,0,0,49352,49353,49354,49355,49356,0,0,0,0,0,0,0,0,0,0,0,0,0,0,0,0,0,0,0,0,0,0,0,0,0,0,48769,0,0,48772,0,0,0,0,0,0,0,48664,48665,0,0,48668,48669,48670,0,0,0,0,0,0,0,48961,48962,48963,48964,0,6778,0,0,6781,0,0,0,0,0,0,0,0,0,0,0,0,0,0,0,0,0,0,0,0,0,0,0,0,0,0,0,0,0,0,
0,0,0,0,0,0,0,0,0,0,0,6770,6771,6772,6773,0,0,0,0,0,0,0,0,0,0,0,0,0,0,0,0,0,0,0,0,0,0,0,0,0,0,0,0,0,0,0,0,0,0,0,0,0,0,0,0,0,48865,0,0,48868,0,0,0,0,0,0,0,48760,48761,0,0,0,0,48766,0,0,0,0,0,0,0,49057,49058,49059,49060,0,6828,0,0,6831,0,0,0,0,0,0,0,0,0,0,0,0,0,0,0,0,0,0,0,0,0,0,0,0,0,0,0,0,0,0,
0,0,0,6685,6686,6687,0,0,0,0,0,6820,6821,6822,6823,0,0,0,0,0,0,0,0,0,0,0,0,0,0,0,0,0,0,0,0,0,0,0,0,0,0,0,0,0,0,0,0,0,0,0,0,0,0,0,0,0,0,0,0,0,0,0,0,0,0,0,0,48856,0,0,0,0,0,0,0,0,0,0,0,0,0,49153,49154,49155,49156,0,0,0,0,0,0,0,0,0,0,0,0,0,0,0,0,0,0,0,0,0,0,0,0,0,0,0,0,0,0,0,0,0,0,0,
0,0,0,6735,6736,6737,0,0,0,0,0,0,0,0,0,0,0,0,0,0,0,0,0,0,0,0,0,0,0,0,0,0,0,0,0,0,0,0,0,0,0,0,0,0,0,0,0,0,0,0,0,0,0,0,0,0,0,0,0,0,0,0,0,0,0,0,0,0,0,0,0,0,0,0,0,0,0,0,0,0,0,49249,49250,49251,49252,0,0,0,0,0,0,0,0,0,0,0,0,0,0,0,0,0,0,0,0,0,0,0,0,0,0,0,0,0,0,0,0,0,0,0,
0,0,0,6785,6786,6787,0,0,0,0,0,0,0,0,0,0,0,0,0,0,0,0,0,0,0,0,0,0,0,0,0,0,0,0,0,0,0,0,0,0,0,0,0,0,48872,48873,48874,48875,48876,0,0,0,0,0,0,0,0,0,0,0,0,0,0,0,0,0,0,0,0,0,0,0,0,0,0,0,0,0,0,0,0,49345,49346,49347,49348,0,0,0,0,0,0,0,0,0,0,0,0,0,0,0,0,0,0,0,0,0,0,0,0,0,0,0,0,0,0,0,0,0,0,0,
0,0,0,6835,6836,6837,0,0,0,0,0,0,0,0,0,0,0,0,0,0,0,0,0,0,0,0,0,0,0,0,0,0,0,0,0,0,0,0,0,0,0,0,0,0,48968,48969,48970,48971,48972,0,0,0,0,0,0,0,0,0,0,0,0,0,0,0,0,0,0,0,0,0,0,0,0,0,0,0,0,0,0,0,0,0,0,0,0,0,0,0,0,0,0,0,0,0,0,0,0,0,0,0,0,0,0,0,0,0,0,0,0,0,0,0,0,0,0,0,0,0,0,0,
0,0,0,0,0,0,0,0,0,0,0,0,0,0,0,0,0,0,0,0,0,0,0,0,0,0,0,0,0,0,0,0,0,0,0,0,0,0,0,0,0,0,0,0,49064,49065,49066,49067,49068,0,0,0,0,0,0,0,49345,0,0,49348,0,0,0,0,0,0,0,49240,0,0,0,0,0,49246,0,0,0,0,0,0,0,0,0,0,0,0,0,6681,0,0,0,0,0,0,0,0,0,0,0,0,0,0,0,0,0,0,0,0,0,0,0,0,0,0,0,0,0,0,0,0,
0,6685,6686,6687,0,0,0,0,0,0,0,0,0,0,0,0,0,0,0,0,0,0,0,0,0,0,0,0,0,0,0,0,0,0,0,0,0,0,0,0,0,0,0,0,49160,49161,49162,49163,49164,0,0,0,0,0,0,0,0,0,0,0,0,0,0,0,0,0,0,0,0,0,0,0,0,49342,0,0,0,0,0,0,0,0,0,0,0,0,0,0,0,0,0,0,0,0,0,0,0,0,0,0,0,0,0,0,0,0,0,0,0,0,0,0,0,0,0,0,0,0,0,0,
0,6735,6736,6737,0,0,0,0,0,0,0,0,0,0,0,0,0,48875,48876,0,0,0,0,0,0,0,0,0,0,0,0,0,0,0,0,0,0,0,0,0,0,0,0,0,49256,49257,49258,49259,49260,0,0,0,0,0,0,0,0,0,0,0,0,0,0,0,0,0,0,0,0,0,0,0,0,0,0,0,0,0,6670,6671,6672,6673,0,0,0,0,0,0,0,0,0,0,0,0,0,0,0,0,0,0,0,0,0,0,0,0,0,0,0,0,0,0,0,0,0,0,0,0,0,0,
0,6785,6786,6787,0,0,0,0,0,0,0,0,0,0,0,0,0,0,48972,0,0,0,48769,48770,48771,48772,0,0,0,0,0,0,0,0,0,0,0,0,0,0,0,0,0,0,49352,49353,49354,49355,49356,0,0,0,0,0,0,0,0,0,0,0,0,0,0,0,0,0,0,0,0,0,0,0,0,0,0,0,0,0,6720,6721,6722,6723,0,0,0,0,0,0,0,0,0,0,0,0,0,0,0,0,0,0,0,0,0,0,0,0,0,0,0,0,0,0,0,0,0,0,0,0,0,0,
0,6835,6836,6837,0,0,0,0,0,0,0,0,0,0,0,0,0,0,0,0,0,0,48865,48866,48867,48868,0,0,0,0,0,0,0,0,0,0,0,0,0,0,0,0,0,0,0,0,0,0,0,0,0,0,0,0,0,0,0,0,0,0,0,0,0,0,0,0,0,0,0,0,0,0,0,0,0,0,0,0,6770,6771,6772,6773,0,0,0,0,0,0,0,0,0,0,0,0,6678,6679,6680,6681,0,0,0,0,0,0,0,0,0,0,0,0,0,0,0,0,0,0,0,0,0,0,
0,0,0,0,0,0,0,0,0,0,0,0,0,0,0,0,0,0,0,0,0,0,48961,48962,48963,48964,0,0,0,0,0,0,0,0,0,0,0,0,0,0,0,0,0,0,0,0,0,0,0,0,0,0,0,3628,3629,3630,3631,3632,0,0,0,0,0,0,0,48872,0,0,0,48876,0,0,0,0,0,0,0,0,6820,6821,6822,0,0,0,0,0,0,0,0,0,0,0,0,0,6728,6729,6730,6731,6678,0,0,6681,0,0,0,0,0,0,0,0,0,0,0,0,0,0,0,0,0,0,
0,0,0,0,0,0,0,0,0,0,0,0,0,0,0,0,0,0,49260,0,0,0,49057,49058,49059,49060,0,0,0,0,0,0,0,0,0,0,0,0,0,0,0,0,0,0,0,0,0,0,0,0,0,3722,3723,3724,3725,3726,3727,3728,0,0,0,0,0,0,0,0,0,0,0,48972,0,0,0,0,0,0,0,0,0,0,0,0,48665,48666,48667,48668,48669,48670,0,0,0,6681,0,0,6778,6779,6780,6781,0,0,0,0,0,48769,48770,48771,48772,0,0,0,0,0,0,0,0,0,0,0,0,0,
0,0,0,0,0,0,0,0,0,0,0,0,0,0,0,0,0,0,49356,0,0,0,49153,49154,49155,49156,0,0,0,0,0,0,0,0,0,0,0,0,0,0,0,0,0,0,0,0,0,0,0,0,3817,3818,3819,3820,3821,3822,3823,3824,3825,0,0,0,0,0,0,0,0,0,0,49068,0,0,0,0,0,0,0,0,0,0,0,48760,48761,48762,48763,48764,48765,48766,0,0,0,0,0,0,6828,6829,6830,6831,6778,0,0,6781,0,48865,48866,48867,48868,0,0,0,0,0,0,0,0,0,0,0,0,0,
0,0,0,0,48769,48770,48771,48772,0,0,0,0,0,0,0,0,0,0,0,0,0,0,49249,49250,49251,49252,0,0,0,0,0,0,0,0,0,0,0,0,0,0,0,0,0,0,0,0,0,0,0,0,3913,3914,3915,3916,3917,3918,3919,3920,3921,0,0,0,0,0,0,0,0,0,0,0,0,0,0,0,0,0,0,0,0,0,0,48856,48857,48858,48859,48860,48861,48862,0,0,0,6781,0,0,0,0,0,0,6828,0,0,6831,0,48961,48962,48963,48964,0,0,0,0,0,0,0,0,0,0,0,0,0,
0,0,0,0,48865,48866,48867,48868,0,6835,0,6837,0,0,0,0,0,0,0,0,0,0,49345,49346,6670,6671,6672,6673,0,0,0,0,0,0,0,0,0,0,0,0,0,0,0,0,0,0,0,0,0,0,4009,4010,4011,4012,4013,4014,4015,4016,4017,0,0,0,0,0,0,0,0,0,0,0,0,0,0,0,0,0,0,0,0,0,0,48952,48953,48954,48955,48956,48957,48958,6828,0,0,6831,0,0,0,0,0,0,0,0,0,0,0,49057,49058,49059,49060,0,0,0,0,0,0,0,0,0,0,0,0,0,
0,0,0,0,48961,48962,48963,48964,0,0,0,0,0,48664,48665,48666,48667,48668,48669,48670,0,0,0,0,6720,6721,6722,6723,0,0,0,0,0,0,0,0,48769,0,0,48772,0,0,0,0,0,0,0,0,0,0,4105,4106,4107,4108,4109,4110,4111,4112,4113,0,0,0,0,0,0,49352,0,0,0,49356,0,0,0,0,0,0,0,0,0,0,0,49048,49049,49050,49051,49052,49053,49054,0,0,0,0,0,0,0,0,0,0,0,0,0,0,0,49153,49154,49155,49156,0,0,0,0,0,0,0,0,0,0,0,0,0,
0,0,0,0,49057,49058,49059,49060,0,0,0,0,0,48760,48761,48762,48763,48764,48765,48766,0,0,0,0,6770,6771,6772,6773,0,0,0,0,0,0,0,0,0,0,0,48868,0,0,0,0,0,0,0,0,0,0,4201,4202,4203,4204,4205,4206,4207,4208,4209,0,0,0,0,0,0,0,0,0,0,0,0,0,0,0,0,0,0,0,0,0,0,49144,49145,49146,49147,49148,49149,49150,0,0,0,0,0,0,0,0,0,0,0,0,0,0,0,49249,49250,49251,49252,0,0,0,0,0,0,0,0,0,0,0,0,0,
0,0,0,0,49153,49154,49155,49156,0,0,0,0,0,48856,48857,48858,48859,48860,48861,48862,0,0,0,0,6820,6821,6822,6823,0,0,0,0,0,0,0,0,0,0,0,0,0,0,0,0,0,0,0,0,0,0,4297,4298,4299,4300,4301,4302,4303,4304,4305,4306,0,0,0,0,0,0,0,0,0,0,0,0,0,0,0,0,0,0,0,0,0,49240,49241,49242,49243,49244,49245,49246,0,0,0,0,0,0,0,0,0,0,0,0,0,0,0,49345,49346,49347,49348,0,0,0,0,0,0,0,0,0,0,0,0,0,
0,0,0,0,49249,49250,49251,49252,0,0,0,0,0,48952,48953,48954,48955,48956,48957,48958,0,0,0,0,0,0,0,0,0,0,0,0,0,0,0,0,0,0,0,0,0,0,0,0,0,0,0,0,0,0,4393,4394,4395,4396,4397,4398,4399,4400,4401,4402,0,0,0,0,0,0,0,0,0,0,0,0,0,0,0,0,0,0,0,0,0,49336,49337,49338,49339,49340,49341,49342,0,0,0,0,0,0,0,0,0,0,0,0,0,0,0,0,0,0,0,0,0,0,0,0,0,0,0,0,0,0,0,0,
0,0,0,0,49345,49346,49347,49348,0,0,0,0,0,49048,49049,49050,49051,49052,49053,49054,0,0,0,0,0,0,0,0,0,0,0,0,0,0,0,0,0,0,0,0,0,0,0,0,0,0,0,0,0,0,0,0,0,0,0,0,0,0,0,0,0,0,0,0,0,0,0,0,0,0,0,0,0,0,0,0,0,0,0,0,0,0,0,0,0,0,0,0,0,0,0,0,0,0,0,0,0,0,0,0,0,0,0,0,0,0,0,0,0,0,0,0,0,0,0,0,0,0,0,0,
0,0,0,0,0,0,0,0,0,0,0,0,0,49144,49145,49146,49147,49148,49149,49150,0,0,0,0,0,0,0,0,0,0,0,0,0,0,0,0,0,0,0,0,0,0,0,0,0,0,0,0,0,0,0,0,0,0,0,0,0,0,0,0,0,0,0,0,0,0,0,0,0,0,0,0,0,0,0,0,0,0,0,0,6670,0,0,0,0,0,0,0,6685,6686,6687,0,0,0,0,0,0,0,0,0,0,0,0,0,0,0,0,0,0,0,0,0,0,0,0,0,0,0,0,0,
0,0,0,0,0,0,0,0,0,0,0,0,0,49240,49241,49242,49243,49244,49245,49246,0,0,0,0,0,0,0,0,0,0,0,0,0,0,0,0,49345,0,0,0,0,0,0,0,0,0,0,0,0,0,0,0,0,0,0,0,0,0,0,0,0,0,0,0,0,0,0,0,0,0,0,6670,6671,6672,6673,0,0,0,0,0,0,0,0,0,0,0,0,0,6735,6736,6737,0,0,0,0,0,0,0,0,0,48664,48665,48666,48667,48668,48669,48670,0,0,0,0,0,0,0,0,0,0,0,0,0,
0,0,0,0,0,0,0,0,0,0,0,0,0,49336,49337,49338,49339,49340,49341,49342,0,0,0,0,0,0,0,0,0,0,0,0,0,0,0,0,0,0,0,0,0,0,0,0,0,0,0,0,0,0,0,0,0,0,0,0,0,0,0,0,0,0,0,0,0,0,0,0,0,0,0,6720,6721,6722,6723,0,0,0,0,0,0,0,0,0,0,0,0,0,6785,6786,6787,0,0,0,0,0,0,0,0,0,48760,48761,48762,48763,48764,48765,48766,0,0,0,0,0,0,0,0,0,0,0,0,0,
0,0,0,0,0,0,0,0,0,0,0,0,0,0,0,0,0,0,0,0,0,0,0,0,0,0,0,0,0,0,0,0,0,0,0,0,0,0,0,0,0,0,0,0,0,0,0,0,0,0,0,0,0,0,0,0,0,0,0,0,0,0,0,0,0,0,0,0,0,0,0,6770,6771,6772,6773,0,0,0,0,0,0,0,0,6823,0,0,0,0,6835,6836,6837,0,0,0,0,0,0,0,0,0,48856,48857,48858,48859,48860,48861,48862,0,0,0,0,0,0,0,0,0,0,0,0,0,
0,0,0,0,0,0,0,0,0,0,0,0,0,0,0,0,0,0,0,0,0,0,0,0,0,0,0,0,0,0,0,0,0,0,0,0,0,0,0,0,0,0,0,0,0,0,0,0,0,0,0,0,0,0,0,0,0,0,0,0,0,0,0,0,0,0,0,0,0,0,0,6820,6821,6822,6823,0,0,0,0,0,0,0,0,0,0,0,0,0,0,0,0,0,0,0,0,6678,6679,6680,6681,0,48952,48953,48954,48955,48956,48957,48958,0,0,0,0,0,0,0,0,0,0,0,0,0,
0,0,0,0,0,0,0,0,0,0,0,0,0,0,0,0,0,0,0,0,0,0,0,0,0,0,0,0,0,0,0,0,0,0,0,0,0,0,0,0,0,0,0,0,0,0,0,0,0,0,0,0,0,0,0,0,0,0,0,0,0,0,0,0,0,0,0,0,0,0,0,0,0,0,0,0,0,0,0,0,0,0,0,0,0,0,0,0,0,0,0,0,0,0,0,6728,6729,6730,6731,0,49048,49049,49050,49051,49052,49053,49054,0,0,0,0,0,0,0,0,0,0,0,0,0,
0,0,0,0,0,0,0,0,0,0,0,0,0,0,0,0,0,0,0,0,0,0,0,0,0,0,0,0,0,0,0,0,0,0,0,0,0,0,0,0,0,0,0,0,0,0,0,0,0,0,0,0,0,0,0,0,0,0,0,0,0,0,0,0,0,0,0,0,0,0,0,0,0,0,0,0,0,0,0,0,0,0,0,0,48769,48770,48771,48772,0,0,0,0,0,0,0,6778,6779,6780,6781,0,49144,49145,49146,49147,49148,49149,49150,0,0,0,0,0,0,0,0,0,0,0,0,0,
0,0,0,0,0,0,0,0,0,0,0,0,0,0,0,0,0,0,0,0,0,0,0,0,0,0,0,0,0,0,0,0,0,0,0,0,0,0,0,0,0,0,0,0,0,0,0,0,0,0,0,0,0,0,0,0,0,0,0,0,0,0,0,0,0,0,0,0,0,0,0,0,0,0,0,0,0,0,0,0,0,0,0,0,48865,48866,48867,48868,0,0,0,0,0,0,0,6828,6829,6830,6831,0,49240,49241,49242,49243,49244,49245,49246,0,0,0,0,0,0,0,0,0,0,0,0,0,
0,0,0,0,0,0,0,0,0,0,0,0,0,0,0,0,0,0,0,0,0,0,0,0,0,0,0,0,0,0,0,0,0,0,0,0,0,0,0,0,0,0,0,0,0,0,0,0,0,0,0,0,0,0,0,0,0,0,0,0,0,0,0,0,0,0,0,0,0,0,0,0,0,0,0,0,0,0,0,0,0,0,0,0,48961,48962,48963,48964,0,0,0,0,0,0,0,0,0,0,0,0,49336,49337,49338,49339,49340,49341,49342,0,0,0,0,0,0,0,0,0,0,0,0,0,
0,0,0,0,0,0,0,0,0,0,0,0,0,0,0,0,48769,48770,48771,48772,0,0,0,0,0,0,0,0,0,0,0,0,0,0,0,0,0,0,0,0,0,0,0,0,0,0,0,0,0,0,0,0,0,0,0,0,0,0,0,0,0,0,0,0,0,0,0,0,48769,48770,48771,48772,0,0,0,0,0,0,0,0,0,0,0,0,49057,49058,49059,49060,0,0,0,0,0,0,0,0,0,0,0,0,0,0,0,0,0,0,0,0,0,0,0,0,0,0,0,0,0,0,0,0,
0,0,0,0,0,0,0,0,0,0,0,0,0,0,0,0,48865,48866,48867,48868,0,0,0,0,0,0,0,0,0,0,0,0,0,0,0,0,0,0,0,48664,48665,48666,48667,48668,48669,48670,0,0,0,0,0,0,0,0,0,0,0,0,0,0,0,0,0,0,0,0,0,0,48865,48866,48867,48868,0,0,0,0,0,0,0,0,0,0,0,0,49153,49154,49155,49156,0,0,0,0,0,0,0,0,0,0,0,0,0,0,0,0,0,0,0,0,0,0,0,0,0,0,0,0,0,0,0,0,
0,0,0,0,0,0,0,0,0,0,0,0,0,0,0,0,48961,48962,48963,48964,0,0,0,0,0,0,0,0,0,0,0,0,0,0,0,0,0,0,0,48760,48761,48762,48763,48764,48765,48766,0,0,0,0,0,0,0,0,0,0,0,0,0,0,0,0,0,0,0,0,0,0,48961,48962,48963,48964,0,0,0,0,0,0,0,0,0,0,0,0,49249,49250,49251,49252,0,0,0,0,0,0,0,0,0,0,0,0,0,0,0,0,0,0,0,0,0,0,0,0,0,0,0,0,0,0,0,0,
0,0,0,0,0,0,0,0,0,0,0,0,0,0,0,0,49057,49058,49059,49060,0,0,0,0,0,0,0,0,0,0,0,0,0,0,0,0,0,0,0,48856,48857,48858,48859,48860,48861,48862,0,0,0,0,0,0,0,0,0,0,0,0,48872,48873,0,0,48876,0,0,0,0,0,49057,49058,49059,49060,0,0,0,0,0,0,0,0,0,0,0,0,49345,49346,49347,49348,0,0,0,0,0,0,0,0,0,0,0,0,0,0,0,0,0,0,0,0,0,0,0,0,0,0,0,0,0,0,0,0,
0,0,0,0,0,0,0,0,0,0,0,0,0,0,0,0,49153,49154,49155,49156,0,0,0,0,0,0,0,0,0,0,0,0,0,0,0,0,0,0,0,48952,48953,48954,48955,48956,48957,48958,0,0,0,0,0,0,0,0,0,0,0,0,48968,0,0,0,48972,0,0,0,0,0,49153,49154,49155,49156,0,0,0,0,0,0,0,48872,48873,48874,48875,48876,0,0,0,0,0,0,0,0,0,0,0,0,0,0,0,0,0,0,0,0,0,0,48769,48770,48771,48772,0,0,0,0,0,0,0,0,0,0,
0,0,0,0,0,0,0,0,0,0,0,0,0,0,0,0,49249,49250,49251,49252,0,0,0,0,0,0,0,0,0,0,0,0,0,0,0,0,0,0,0,49048,49049,49050,49051,49052,49053,49054,0,0,0,0,0,0,0,0,0,0,0,0,0,0,0,0,49068,0,0,0,0,0,49249,49250,49251,49252,0,0,0,0,0,0,0,48968,48969,48970,48971,48972,0,0,0,0,0,0,0,0,0,0,0,0,0,0,0,0,0,0,0,0,0,0,48865,48866,48867,48868,0,0,0,0,0,0,0,0,0,0,
0,0,0,0,0,0,48769,48770,48771,48772,0,0,0,0,0,0,49345,49346,49347,49348,0,0,0,0,0,0,0,0,0,0,0,0,0,0,0,0,0,0,0,49144,49145,49146,49147,49148,49149,49150,0,0,0,0,0,0,0,0,0,0,0,0,0,0,0,0,0,0,0,0,0,0,49345,49346,49347,49348,0,0,0,0,0,0,0,49064,49065,49066,49067,49068,0,0,0,0,0,0,0,0,0,0,0,0,0,0,0,0,0,0,0,0,0,0,48961,48962,48963,48964,0,0,0,0,0,0,0,0,0,0,
0,0,0,0,0,0,48865,48866,48867,48868,0,0,0,0,0,0,0,0,0,0,0,0,0,0,0,0,48872,48872,48873,48874,48875,48876,0,0,0,0,0,0,0,49240,49241,49242,49243,49244,49245,49246,0,0,0,0,0,0,0,0,0,0,0,0,0,0,0,0,0,0,0,0,0,0,0,0,0,0,0,0,0,0,0,0,0,49160,49161,49162,49163,49164,0,0,0,0,0,0,0,0,0,0,0,0,0,0,0,0,0,0,0,0,0,0,49057,49058,49059,49060,0,0,0,0,0,0,0,0,0,0,
0,0,0,0,0,0,48961,48962,48963,48964,0,0,0,0,0,0,0,0,0,0,0,0,0,0,0,0,0,48968,48969,48970,48971,48972,0,0,0,0,0,0,0,49336,49337,49338,49339,49340,49341,49342,0,0,0,0,0,0,0,0,0,0,0,0,0,0,0,0,49356,0,0,0,0,0,0,0,0,0,0,0,0,0,0,0,0,49256,49257,49258,49259,49260,0,0,0,0,0,0,0,0,0,0,0,0,0,0,0,0,0,0,0,0,0,0,49153,49154,49155,49156,0,48664,48665,48666,48667,48668,48669,48670,0,0,
0,0,0,0,0,0,49057,49058,49059,49060,0,0,0,0,0,0,0,0,0,0,0,0,0,0,0,0,0,49064,49065,49066,49067,49068,0,0,0,0,0,0,0,0,0,0,0,0,0,0,0,0,0,0,0,0,0,0,0,0,0,0,0,0,0,0,0,0,0,0,0,0,0,0,0,0,0,0,0,0,0,0,0,49352,49353,49354,49355,49356,0,0,0,0,0,0,0,0,0,0,0,0,0,0,0,0,0,0,0,0,0,0,49249,49250,49251,49252,0,48760,48761,48762,48763,48764,48765,48766,0,0,
0,0,0,0,0,0,49153,49154,49155,49156,0,0,0,0,0,0,0,0,0,0,0,0,0,0,0,0,0,49160,49161,49162,49163,49164,0,0,0,0,0,0,0,0,0,0,0,0,0,0,0,0,0,0,0,0,0,0,0,0,0,0,0,0,0,0,0,0,0,0,0,0,0,0,0,0,0,0,0,0,0,0,0,0,0,0,0,0,0,0,0,0,0,0,0,0,0,0,0,0,0,0,0,0,0,0,0,0,0,0,49345,49346,49347,49348,0,48856,48857,48858,48859,48860,48861,48862,0,0,
0,0,0,0,0,0,49249,49250,49251,49252,0,0,0,0,0,0,0,0,0,48664,48665,48666,48667,48668,48669,48670,0,49256,49257,49258,49259,49260,0,0,0,0,0,0,0,0,0,0,0,0,0,0,0,0,0,0,0,0,0,0,0,0,0,0,0,0,0,0,0,0,0,0,0,0,0,0,0,0,0,0,0,0,0,0,0,0,0,0,0,0,0,0,0,0,0,0,0,0,0,0,0,0,0,0,0,0,0,0,0,0,0,0,0,0,0,0,0,48952,48953,48954,48955,48956,48957,48958,0,0,
0,0,0,0,0,0,49345,49346,49347,49348,0,0,0,0,0,0,0,0,0,48760,48761,48762,48763,48764,48765,48766,0,49352,49353,49354,49355,49356,0,0,48769,48770,48771,48772,0,0,0,0,0,0,0,0,0,0,0,0,0,0,0,0,0,0,0,0,0,0,0,0,0,0,0,0,0,0,0,0,0,0,0,0,0,0,0,0,0,0,0,0,0,0,0,0,0,0,0,0,0,48872,48873,48874,48875,48876,0,0,0,0,6670,6671,6672,6673,0,0,0,0,0,0,0,49048,49049,49050,49051,49052,49053,49054,0,0,
0,0,0,0,0,0,0,0,0,0,0,0,0,0,0,0,0,0,0,48856,48857,48858,48859,48860,48861,48862,0,0,0,0,0,0,0,0,48865,48866,48867,48868,0,0,0,0,0,0,0,0,0,0,0,0,0,0,0,0,0,0,0,0,0,0,0,0,0,0,6670,0,0,6673,0,0,0,0,0,0,0,0,0,0,0,0,0,0,0,0,0,0,0,0,0,0,0,48968,48969,48970,48971,48972,0,0,0,0,6720,6721,6722,6723,0,0,0,0,0,0,0,49144,49145,49146,49147,49148,49149,49150,0,0,
0,0,0,0,0,0,0,0,0,0,0,0,0,0,0,0,0,0,0,48952,48953,48954,48955,48956,48957,48958,0,0,0,0,0,0,0,0,48961,48962,48963,48964,0,0,0,0,0,0,0,0,0,0,6670,0,0,6673,0,0,0,0,0,0,0,0,0,0,0,0,0,0,0,0,0,0,0,0,0,0,48664,48665,48666,48667,48668,48669,48670,0,0,0,0,0,0,0,0,0,0,49064,49065,49066,49067,49068,0,0,0,0,6770,6771,6772,6773,0,0,0,0,0,0,0,49240,49241,49242,49243,49244,49245,49246,0,0,
0,0,0,0,0,0,0,0,0,0,0,0,0,0,0,0,0,0,0,49048,49049,49050,49051,49052,49053,49054,0,0,0,0,0,0,0,0,49057,49058,49059,49060,0,0,0,0,0,0,0,0,0,0,0,0,0,0,0,0,0,0,0,0,0,0,0,0,0,0,6770,0,0,0,0,0,0,0,0,0,48760,48761,48762,48763,48764,48765,48766,0,0,0,0,0,0,0,0,0,0,49160,49161,49162,49163,49164,0,0,0,0,6820,6821,6822,6823,0,0,0,0,0,0,0,49336,49337,49338,49339,49340,49341,49342,0,0,
0,0,0,0,0,0,0,0,0,0,0,0,0,0,0,0,0,0,0,49144,49145,49146,49147,49148,49149,49150,0,0,0,0,0,0,0,0,49153,49154,49155,49156,0,0,0,0,0,0,0,0,0,0,0,0,0,0,0,0,0,0,0,0,0,0,0,0,0,0,6820,0,0,6823,0,0,0,0,0,0,48856,48857,48858,48859,48860,48861,48862,0,0,0,0,0,0,0,0,0,0,49256,49257,49258,49259,49260,0,0,0,0,0,0,0,0,0,0,0,0,0,0,0,0,0,0,0,0,0,0,0,0,
0,0,0,0,0,0,0,0,0,0,0,0,0,0,0,0,0,0,0,49240,49241,49242,49243,49244,49245,49246,0,0,0,0,0,0,0,0,49249,49250,49251,49252,0,0,0,0,0,6685,6686,6687,0,0,6820,0,0,0,0,0,0,0,0,0,0,0,0,0,0,0,0,0,0,0,0,0,0,0,0,0,48952,48953,48954,48955,48956,48957,48958,0,0,0,0,0,0,0,0,0,0,49352,49353,49354,49355,49356,0,0,0,0,0,0,0,0,0,0,0,0,0,0,0,0,0,0,0,0,0,0,0,0,
0,0,6670,6671,6672,6673,0,0,0,0,0,0,0,0,0,0,0,0,0,49336,49337,49338,49339,49340,49341,0,0,0,0,0,0,0,0,0,49345,49346,49347,49348,0,0,0,0,0,6735,6736,6737,0,0,0,0,0,0,0,0,0,0,0,0,0,0,0,0,0,0,0,0,0,0,0,0,0,0,0,0,49048,49049,49050,49051,49052,49053,49054,0,0,0,0,0,0,0,0,0,0,0,0,0,0,0,0,0,0,0,0,0,0,0,0,0,0,0,0,0,0,0,0,0,0,0,0,0,0,0,
0,0,6720,6721,6722,6723,0,0,0,0,0,0,0,0,0,0,0,0,0,0,0,0,0,0,0,0,0,0,0,0,0,0,0,0,0,0,0,0,0,0,0,0,0,6785,6786,6787,0,0,0,0,0,0,0,0,0,0,0,0,0,0,0,0,0,0,0,0,0,0,0,0,0,0,0,0,49144,49145,49146,49147,49148,49149,49150,0,0,0,0,0,0,0,0,0,6670,6671,6672,6673,0,0,0,0,0,0,0,0,0,0,0,0,0,0,0,0,0,0,0,0,0,0,0,0,0,0,
0,0,6770,6771,6772,6773,0,0,0,0,0,0,0,0,0,0,0,0,0,0,0,0,0,0,0,0,0,0,0,0,0,0,0,0,0,0,0,0,0,0,0,0,0,6835,6836,6837,0,0,0,0,0,0,0,0,0,0,0,0,0,0,0,0,0,0,0,0,0,0,0,0,0,0,0,0,49240,49241,49242,49243,49244,49245,49246,0,0,0,0,0,0,0,0,0,6720,6721,6722,6723,0,0,0,0,0,0,0,0,0,0,0,0,0,0,0,0,0,0,0,0,0,0,0,0,0,0,
0,0,6820,6821,6822,6823,0,0,0,0,0,0,0,0,0,0,0,0,0,0,0,0,0,0,0,0,0,0,0,0,0,0,0,0,0,0,0,0,0,0,0,0,0,0,0,0,48664,48665,48666,48667,48668,48669,48670,0,0,0,0,0,0,0,0,0,0,0,0,0,0,0,0,0,0,0,0,0,49336,49337,49338,49339,49340,49341,48769,48770,48771,48772,0,0,0,0,0,0,6770,6771,6772,6773,0,0,0,0,0,0,0,0,0,0,0,0,0,0,0,0,0,0,0,0,0,0,0,0,0,0,
0,0,0,0,0,0,0,0,0,6670,6671,6672,6673,0,0,0,0,0,0,0,0,0,0,0,0,0,0,0,0,0,0,0,0,0,0,0,0,0,0,0,0,0,0,0,0,0,48760,48761,48762,48763,48764,48765,48766,0,0,0,0,0,0,0,0,0,0,0,0,0,0,0,0,0,0,0,0,0,0,0,0,0,0,0,48865,48866,48867,48868,0,0,0,0,0,0,6820,6821,6822,6823,0,0,0,0,0,0,0,0,0,0,0,0,0,0,0,0,0,0,0,0,0,0,0,0,0,0,
0,0,0,0,0,0,0,0,0,6720,6721,6722,6723,0,48872,48873,48874,48875,48876,0,0,0,0,0,0,0,0,0,0,0,0,0,0,0,0,0,0,0,0,0,0,0,0,0,0,0,48856,48857,48858,48859,48860,48861,48862,0,0,0,0,0,0,0,0,0,0,0,0,0,0,0,0,0,0,0,0,0,0,0,0,0,0,0,48961,48962,48963,48964,0,0,0,0,0,0,0,0,0,0,0,0,0,0,0,0,0,0,0,0,0,0,0,0,0,0,0,0,0,0,0,0,0,0,0,0,
0,0,0,0,0,0,0,0,0,6770,6771,6772,6773,0,48968,48969,48970,48971,48972,0,0,0,0,0,0,0,0,0,0,0,0,0,0,0,0,0,0,0,0,0,0,0,0,0,0,0,48952,48953,48954,48955,48956,48957,48958,0,0,0,0,0,0,0,0,0,0,0,0,0,6670,6671,6672,6673,0,0,0,0,0,0,0,0,0,0,49057,49058,49059,49060,0,0,0,0,6670,6671,6672,6673,0,0,0,0,0,0,0,0,0,0,0,0,0,0,0,0,0,0,0,0,0,0,0,0,0,0,0,0,
0,0,0,0,0,0,0,0,0,6820,6821,6822,6823,0,49064,49065,49066,49067,49068,0,6685,6686,6687,0,0,0,0,0,0,0,0,0,0,0,0,0,0,0,0,0,0,0,0,0,0,0,49048,49049,49050,49051,49052,49053,49054,0,0,0,0,0,0,0,0,0,0,0,0,0,6720,6721,6722,6723,0,0,0,0,0,0,0,0,0,0,49153,49154,49155,49156,0,0,0,0,6720,6721,6722,6723,0,0,0,0,0,0,0,0,0,0,0,0,0,0,0,0,0,0,0,0,0,0,0,0,0,0,0,0,
0,0,0,0,0,0,0,0,0,0,0,0,0,0,49160,49161,49162,49163,49164,0,6735,6736,6737,0,0,0,0,0,0,0,0,0,0,0,0,0,0,0,0,0,0,0,0,0,0,0,49144,49145,49146,49147,49148,49149,49150,0,0,0,0,0,0,6685,6686,6687,0,0,0,0,6770,6771,6772,6773,0,0,0,0,0,0,0,0,0,0,49249,49250,49251,49252,0,0,0,0,6770,6771,6772,6773,0,0,0,0,0,0,0,0,0,0,0,0,0,0,0,0,0,0,0,0,0,0,0,0,0,0,0,0,
0,0,0,0,0,0,0,0,0,0,0,0,0,0,49256,49257,49258,49259,49260,0,6785,6786,6787,0,0,0,0,0,0,0,0,0,0,0,0,0,0,0,0,0,0,0,0,0,0,0,49240,49241,49242,49243,49244,49245,49246,0,0,0,0,0,0,6735,6736,6737,0,0,0,0,6820,6821,6822,6823,0,0,0,0,0,0,0,0,0,0,49345,49346,49347,49348,0,0,0,0,6820,6821,6822,6823,0,0,0,0,0,0,0,0,0,0,0,0,0,0,0,0,0,0,0,0,0,0,0,0,0,0,0,0,
0,0,0,0,0,0,0,0,0,0,0,0,0,0,49352,49353,49354,49355,49356,0,6835,6836,6837,0,0,0,0,0,0,0,0,0,0,0,0,0,0,0,0,0,0,0,0,0,0,0,49336,49337,49338,49339,49340,49341,49342,0,0,0,0,0,0,6785,6786,6787,0,0,0,0,0,0,0,0,0,0,0,0,0,0,0,0,0,0,0,0,0,0,0,0,0,0,0,0,0,0,0,0,0,0,0,0,0,0,0,0,0,0,0,0,0,0,0,0,0,0,0,0,0,0,0,0,0,0,
0,0,0,0,0,0,0,0,0,0,0,0,0,0,0,0,0,0,0,0,0,0,0,0,0,0,0,0,0,0,0,0,0,0,0,0,0,0,0,0,0,0,0,0,0,0,0,0,0,0,0,0,0,0,0,0,0,0,0,6835,6836,6837,0,0,0,0,0,0,0,0,0,0,0,0,0,0,0,0,0,0,0,0,0,0,0,0,0,0,0,0,0,0,0,0,0,0,0,0,0,0,0,0,0,0,0,0,0,0,0,0,0,0,0,0,0,0,0,0,0,0
</data>
 </layer>
</map>
